; generated by PrusaSlicer 2.8.1+win64 on 2024-10-24 at 18:09:30 UTC

; 

; external perimeters extrusion width = 0.42mm
; perimeters extrusion width = 0.44mm
; infill extrusion width = 0.44mm
; solid infill extrusion width = 0.44mm
; top infill extrusion width = 0.40mm
; first layer extrusion width = 0.42mm

M201 X500 Y500 Z100 E5000 ; sets maximum accelerations, mm/sec^2
M203 X500 Y500 Z10 E60 ; sets maximum feedrates, mm / sec
M204 S500 T1000 ; sets acceleration (S) and retract acceleration (R), mm/sec^2
M205 X8.00 Y8.00 Z0.40 E5.00 ; sets the jerk limits, mm/sec
M205 S0 T0 ; sets the minimum extruding and travel feed rate, mm/sec

; printing object Minimal.stl id:0 copy 0
; stop printing object Minimal.stl id:0 copy 0

;TYPE:Custom
G90 ; use absolute coordinates
M83 ; extruder relative mode
M104 S150 ; set temporary nozzle temp to prevent oozing during homing
M140 S60 ; set final bed temp
G4 S30 ; allow partial nozzle warmup
G28 ; home all axis
G1 Z50 F240
G1 X2.0 Y10 F3000
M104 S210 ; set final nozzle temp
M190 S60 ; wait for bed temp to stabilize
M109 S210 ; wait for nozzle temp to stabilize
G1 Z0.28 F240
G92 E0
G1 X2.0 Y140 E10 F1500 ; prime the nozzle
G1 X2.3 Y140 F5000
G92 E0
G1 X2.3 Y10 E10 F1200 ; prime the nozzle
G92 E0
G21 ; set units to millimeters
G90 ; use absolute coordinates
M83 ; use relative distances for extrusion
; Filament gcode
M107
;LAYER_CHANGE
;Z:0.2
;HEIGHT:0.2
G1 E-5 F3600
G1 Z.2 F9000
G1 X100.981 Y99.392
G1 Z.2
G1 E5 F2400
M204 S500
;TYPE:Skirt/Brim
;WIDTH:0.42
G1 F1200
G1 X101.785 Y98.74 E.03246
G1 X102.608 Y98.273 E.02967
G1 X106.874 Y96.38 E.14633
G1 X108.171 Y96.263 E.04083
G1 X109.359 Y96.379 E.03743
G1 X110.284 Y96.653 E.03025
G1 X113.587 Y98.252 E.11506
G1 X130.112 Y107.692 E.59671
G1 X131.331 Y108.844 E.05259
G1 X131.906 Y110.786 E.0635
G1 X131.906 Y131.234 E.64113
G1 X131.512 Y132.864 E.05258
G1 X130.416 Y134.133 E.05257
G1 X128.34 Y134.799 E.06836
G1 X102.66 Y134.799 E.80518
G1 X101.03 Y134.405 E.05258
G1 X99.76 Y133.309 E.0526
G1 X99.094 Y131.234 E.06833
G1 X99.094 Y103.801 E.86014
G1 X99.256 Y102.417 E.04369
G1 X99.623 Y101.317 E.03636
G1 X100.174 Y100.341 E.03514
G1 X100.942 Y99.438 E.03717
G1 X100.942 Y99.438 F9000
G1 X101.227 Y99.682
G1 F1200
G1 X101.247 Y99.659 E.00096
G1 X102.014 Y99.041 E.03088
G1 X102.817 Y98.591 E.02886
G1 X106.974 Y96.743 E.14264
G1 X108.14 Y96.639 E.0367
G1 X109.298 Y96.751 E.03648
G1 X110.132 Y96.999 E.02728
G1 X113.405 Y98.583 E.11401
G1 X129.925 Y108.019 E.59651
G1 X131.061 Y109.124 E.04969
G1 X131.529 Y110.786 E.05414
G1 X131.529 Y131.234 E.64113
G1 X131.135 Y132.769 E.04969
G1 X130.051 Y133.924 E.04967
G1 X128.34 Y134.422 E.05587
G1 X102.66 Y134.422 E.80518
G1 X101.125 Y134.029 E.04968
G1 X99.969 Y132.945 E.04969
G1 X99.471 Y131.234 E.05587
G1 X99.471 Y103.801 E.86014
G1 X99.625 Y102.495 E.04123
G1 X99.928 Y101.562 E.03076
G1 X100.5 Y100.532 E.03694
G1 X101.188 Y99.728 E.03318
G1 E-3.5 F3600
;WIPE_START
G1 F7200
G1 X101.227 Y99.682 E-.02865
G1 X101.247 Y99.659 E-.01448
G1 X102.014 Y99.041 E-.46787
G1 X102.817 Y98.591 E-.43723
G1 X103.878 Y98.119 E-.55177
;WIPE_END
; printing object Minimal.stl id:0 copy 0
G1 X107.98 Y100.907 F9000
G1 E5 F2400
;TYPE:Perimeter
;WIDTH:0.419999
G1 F1200
G1 X108.553 Y100.954 E.01803
G1 X109.416 Y101.329 E.0295
G1 X111.371 Y102.318 E.06869
G1 X112.335 Y102.846 E.03446
G1 X114.196 Y103.947 E.0678
G1 X115.122 Y104.536 E.03441
G1 X116.035 Y105.146 E.03443
G1 X117.835 Y106.438 E.06947
G1 X118.656 Y107.068 E.03245
G1 X120.208 Y108.342 E.06296
G1 X121.258 Y109.259 E.04371
G1 X122.079 Y110.017 E.03504
G1 X123.701 Y111.613 E.07135
G1 X124.016 Y111.798 E.01145
G1 X124.327 Y111.85 E.00989
G1 X127.276 Y111.85 E.09246
G1 X127.276 Y114.8 E.0925
G1 X127.276 Y130.17 E.48191
G1 X103.724 Y130.17 E.73846
G1 X103.724 Y103.992 E.82079
G1 X103.789 Y103.401 E.01864
G1 X103.963 Y103.014 E.0133
G1 X104.256 Y102.673 E.0141
G1 X104.618 Y102.444 E.01343
G1 X107.926 Y100.932 E.11404
G1 X107.926 Y100.932 F9000
G1 X107.913 Y100.523
G1 F1200
G1 X108.646 Y100.584 E.02306
G1 X109.575 Y100.987 E.03175
G1 X111.549 Y101.985 E.06935
G1 X112.521 Y102.518 E.03476
G1 X114.393 Y103.625 E.06819
G1 X115.328 Y104.221 E.03477
G1 X116.25 Y104.836 E.03475
G1 X118.06 Y106.135 E.06985
G1 X118.891 Y106.773 E.03285
G1 X120.58 Y108.159 E.06851
G1 X121.422 Y108.899 E.03515
G1 X122.25 Y109.658 E.03522
G1 X123.058 Y110.435 E.03515
G1 X123.926 Y111.306 E.03856
G1 X124.076 Y111.414 E.0058
G1 X124.327 Y111.473 E.00808
G1 X127.653 Y111.473 E.10428
G1 X127.653 Y114.8 E.10432
G1 X127.653 Y130.547 E.49374
G1 X103.347 Y130.547 E.7621
G1 X103.347 Y103.843 E.83728
G1 X103.423 Y103.296 E.01732
G1 X103.641 Y102.81 E.0167
G1 X103.997 Y102.396 E.01712
G1 X104.449 Y102.107 E.01682
G1 X107.858 Y100.548 E.11753
G1 X107.858 Y100.548 F9000
G1 X107.846 Y100.139
;TYPE:External perimeter
G1 F1200
G1 X108.739 Y100.213 E.0281
G1 X109.733 Y100.644 E.03397
G1 X110.733 Y101.136 E.03494
G1 X112.708 Y102.19 E.07019
G1 X114.59 Y103.304 E.06857
G1 X115.534 Y103.905 E.03509
G1 X116.465 Y104.526 E.03509
G1 X118.284 Y105.832 E.07021
G1 X119.125 Y106.478 E.03325
G1 X120.824 Y107.872 E.06891
G1 X121.674 Y108.618 E.03546
G1 X122.508 Y109.383 E.03548
G1 X123.322 Y110.166 E.03541
G1 X124.193 Y111.04 E.03869
G1 X124.327 Y111.096 E.00455
G1 X128.03 Y111.096 E.1161
G1 X128.03 Y114.8 E.11614
G1 X128.03 Y130.924 E.50556
G1 X102.97 Y130.924 E.78574
G1 X102.97 Y103.816 E.84995
G1 X103.057 Y103.191 E.01979
G1 X103.32 Y102.605 E.02014
G1 X103.738 Y102.118 E.02012
G1 X104.281 Y101.769 E.02024
G1 X107.791 Y100.164 E.12101
G1 E-3.5 F3600
;WIPE_START
G1 F7200
G1 X107.846 Y100.139 E-.0287
G1 X108.739 Y100.213 E-.42563
G1 X109.733 Y100.644 E-.51462
G1 X110.733 Y101.136 E-.52938
G1 X110.736 Y101.138 E-.00167
;WIPE_END
G1 X127.156 Y112.741 F9000
G1 E5 F2400
;TYPE:Solid infill
;WIDTH:0.423698
G1 F1200
G1 X126.555 Y112.141 E.02689
G1 X126.017 Y112.141 E.01703
G1 X126.986 Y113.11 E.04339
G1 X126.986 Y113.648 E.01703
G1 X125.478 Y112.141 E.0675
G1 X124.94 Y112.141 E.01703
G1 X126.986 Y114.187 E.09161
G1 X126.986 Y114.725 E.01703
G1 X124.401 Y112.141 E.11573
G1 X124.101 Y112.12 E.00952
G1 X123.919 Y112.072 E.00596
G1 X123.677 Y111.955 E.00851
G1 X126.986 Y115.264 E.14817
G1 X126.986 Y115.802 E.01703
G1 X118.497 Y107.313 E.38011
G1 X117.662 Y106.671 E.03335
G1 X116.438 Y105.793 E.04769
G1 X126.986 Y116.341 E.4723
G1 X126.986 Y116.879 E.01703
G1 X114.783 Y104.676 E.54641
G1 X114.043 Y104.194 E.02796
G1 X113.354 Y103.786 E.02535
G1 X126.986 Y117.418 E.61039
G1 X126.986 Y117.956 E.01703
G1 X112.051 Y103.021 E.66874
G1 X110.891 Y102.4 E.04166
G1 X126.986 Y118.495 E.72068
G1 X126.986 Y119.033 E.01703
G1 X109.802 Y101.849 E.76944
G1 X109.294 Y101.592 E.01803
G1 X108.786 Y101.372 E.01753
G1 X126.986 Y119.572 E.81493
G1 X126.986 Y120.11 E.01703
G1 X108.082 Y101.207 E.84643
G1 X108.032 Y101.202 E.00159
G1 X107.694 Y101.357 E.01177
G1 X126.986 Y120.649 E.86383
G1 X126.986 Y121.187 E.01703
G1 X107.324 Y101.526 E.88037
G1 X106.955 Y101.695 E.01285
G1 X126.986 Y121.726 E.89692
G1 X126.986 Y122.264 E.01703
G1 X106.585 Y101.864 E.91346
G1 X106.216 Y102.033 E.01285
G1 X126.986 Y122.803 E.93001
G1 X126.986 Y123.341 E.01703
G1 X105.846 Y102.202 E.94655
G1 X105.477 Y102.371 E.01285
G1 X126.986 Y123.88 E.9631
G1 X126.986 Y124.418 E.01703
G1 X105.107 Y102.54 E.97964
G1 X104.738 Y102.709 E.01285
G1 X126.986 Y124.957 E.99619
G1 X126.986 Y125.495 E.01703
G1 X104.419 Y102.929 E1.01045
G1 X104.211 Y103.171 E.0101
G1 X104.184 Y103.231 E.00208
G1 X126.986 Y126.034 E1.02102
G1 X126.986 Y126.572 E.01703
G1 X104.049 Y103.636 E1.02702
G1 X104.014 Y103.889 E.00809
G1 X104.014 Y104.139 E.00792
G1 X126.986 Y127.111 E1.02861
G1 X126.986 Y127.649 E.01703
G1 X104.014 Y104.678 E1.02859
G1 X104.014 Y105.216 E.01703
G1 X126.986 Y128.188 E1.02861
G1 X126.986 Y128.726 E.01703
G1 X104.014 Y105.755 E1.02859
G1 X104.014 Y106.293 E.01703
G1 X126.986 Y129.265 E1.02861
G1 X126.986 Y129.803 E.01703
G1 X104.014 Y106.832 E1.02859
G1 X104.014 Y107.37 E.01703
G1 X126.523 Y129.879 E1.00788
G1 X125.985 Y129.879 E.01703
G1 X104.014 Y107.909 E.98376
G1 X104.014 Y108.447 E.01703
G1 X125.446 Y129.879 E.95965
G1 X124.908 Y129.879 E.01703
G1 X104.014 Y108.986 E.93554
G1 X104.014 Y109.524 E.01703
G1 X124.369 Y129.879 E.91143
G1 X123.831 Y129.879 E.01703
G1 X104.014 Y110.063 E.88732
G1 X104.014 Y110.601 E.01703
G1 X123.292 Y129.879 E.8632
G1 X122.754 Y129.879 E.01703
G1 X104.014 Y111.14 E.83909
G1 X104.014 Y111.678 E.01703
G1 X122.215 Y129.879 E.81498
G1 X121.677 Y129.879 E.01703
G1 X104.014 Y112.217 E.79087
G1 X104.014 Y112.755 E.01703
G1 X121.138 Y129.879 E.76675
G1 X120.6 Y129.879 E.01703
G1 X104.014 Y113.294 E.74264
G1 X104.014 Y113.832 E.01703
G1 X120.061 Y129.879 E.71853
G1 X119.523 Y129.879 E.01703
G1 X104.014 Y114.371 E.69442
G1 X104.014 Y114.909 E.01703
G1 X118.984 Y129.879 E.67031
G1 X118.446 Y129.879 E.01703
G1 X104.014 Y115.448 E.64619
G1 X104.014 Y115.986 E.01703
G1 X117.907 Y129.879 E.62208
G1 X117.369 Y129.879 E.01703
G1 X104.014 Y116.525 E.59797
G1 X104.014 Y117.063 E.01703
G1 X116.83 Y129.879 E.57386
G1 X116.292 Y129.879 E.01703
G1 X104.014 Y117.602 E.54974
G1 X104.014 Y118.14 E.01703
G1 X115.753 Y129.879 E.52563
G1 X115.215 Y129.879 E.01703
G1 X104.014 Y118.679 E.50152
G1 X104.014 Y119.217 E.01703
G1 X114.676 Y129.879 E.47741
G1 X114.138 Y129.879 E.01703
G1 X104.014 Y119.756 E.4533
G1 X104.014 Y120.294 E.01703
G1 X113.599 Y129.879 E.42918
G1 X113.061 Y129.879 E.01703
G1 X104.014 Y120.833 E.40507
G1 X104.014 Y121.371 E.01703
G1 X112.522 Y129.879 E.38096
G1 X111.984 Y129.879 E.01703
G1 X104.014 Y121.91 E.35685
G1 X104.014 Y122.448 E.01703
G1 X111.445 Y129.879 E.33273
G1 X110.907 Y129.879 E.01703
G1 X104.014 Y122.987 E.30862
G1 X104.014 Y123.525 E.01703
G1 X110.368 Y129.879 E.28451
G1 X109.83 Y129.879 E.01703
G1 X104.014 Y124.064 E.2604
G1 X104.014 Y124.602 E.01703
G1 X109.291 Y129.879 E.23629
G1 X108.753 Y129.879 E.01703
G1 X104.014 Y125.141 E.21217
G1 X104.014 Y125.679 E.01703
G1 X108.214 Y129.879 E.18806
G1 X107.676 Y129.879 E.01703
G1 X104.014 Y126.218 E.16395
G1 X104.014 Y126.756 E.01703
G1 X107.137 Y129.879 E.13984
G1 X106.599 Y129.879 E.01703
G1 X104.014 Y127.295 E.11573
G1 X104.014 Y127.833 E.01703
G1 X106.06 Y129.879 E.09161
G1 X105.522 Y129.879 E.01703
G1 X104.014 Y128.372 E.0675
G1 X104.014 Y128.91 E.01703
G1 X104.983 Y129.879 E.04339
G1 X104.445 Y129.879 E.01703
G1 X103.844 Y129.279 E.02689
M106 S255
;LAYER_CHANGE
;Z:0.36
;HEIGHT:0.16
;BEFORE_LAYER_CHANGE
G92 E0
;0.36


G1 E-3.5 F3600
;WIPE_START
G1 F7200
G1 X104.445 Y129.879 E-.40339
G1 X104.983 Y129.879 E-.25555
G1 X104.014 Y128.91 E-.65093
G1 X104.014 Y128.509 E-.19013
;WIPE_END
G1 Z.36 F9000
;AFTER_LAYER_CHANGE
;0.36
M104 S205 ; set temperature
; stop printing object Minimal.stl id:0 copy 0
G1 Z.36
G1 X99.094 Y129.279
G1 E5 F2400
;TYPE:Skirt/Brim
;WIDTH:0.42
G1 X99.094 Y103.801 E.65362
G1 X99.256 Y102.417 E.03575
G1 X99.623 Y101.317 E.02975
G1 X100.174 Y100.341 E.02875
G1 X100.981 Y99.392 E.03196
G1 X101.785 Y98.74 E.02656
G1 X102.608 Y98.273 E.02428
G1 X106.874 Y96.38 E.11973
G1 X108.171 Y96.263 E.03341
G1 X109.359 Y96.379 E.03062
G1 X110.284 Y96.653 E.02475
G1 X113.587 Y98.252 E.09414
G1 X130.112 Y107.692 E.48824
G1 X131.331 Y108.844 E.04303
G1 X131.906 Y110.786 E.05196
G1 X131.906 Y131.234 E.52458
G1 X131.512 Y132.864 E.04302
G1 X130.416 Y134.133 E.04302
G1 X128.34 Y134.799 E.05593
G1 X102.66 Y134.799 E.65881
G1 X101.03 Y134.405 E.04302
G1 X99.76 Y133.309 E.04304
G1 X99.094 Y131.234 E.05591
G1 X99.094 Y129.339 E.04862
G1 X99.094 Y129.339 F9000
G1 X99.471 Y129.339
G1 F2400
G1 X99.471 Y103.801 E.65516
G1 X99.625 Y102.495 E.03374
G1 X99.928 Y101.562 E.02517
G1 X100.5 Y100.532 E.03023
G1 X101.247 Y99.659 E.02948
G1 X102.014 Y99.041 E.02527
G1 X102.817 Y98.591 E.02361
G1 X106.974 Y96.743 E.11671
G1 X108.14 Y96.639 E.03003
G1 X109.298 Y96.751 E.02985
G1 X110.132 Y96.999 E.02232
G1 X113.405 Y98.583 E.09328
G1 X129.925 Y108.019 E.48807
G1 X131.061 Y109.124 E.04066
G1 X131.529 Y110.786 E.0443
G1 X131.529 Y131.234 E.52458
G1 X131.135 Y132.769 E.04066
G1 X130.051 Y133.924 E.04064
G1 X128.34 Y134.422 E.04572
G1 X102.66 Y134.422 E.65881
G1 X101.125 Y134.029 E.04065
G1 X99.969 Y132.945 E.04066
G1 X99.471 Y131.234 E.04572
G1 X99.471 Y129.399 E.04708
G1 E-3.5 F3600
;WIPE_START
G1 F7200
G1 X99.471 Y129.339 E-.0285
G1 X99.471 Y126.241 E-1.4715
;WIPE_END
; printing object Minimal.stl id:0 copy 0
G1 X103.671 Y130.222 F9000
G1 E5 F2400
;TYPE:Perimeter
;WIDTH:0.439999
G1 F3600
G1 X103.671 Y103.998 E.70765
G1 X103.738 Y103.387 E.01659
G1 X103.921 Y102.982 E.01199
G1 X104.199 Y102.655 E.01158
G1 X104.594 Y102.397 E.01273
G1 X107.969 Y100.854 E.10014
G1 X108.546 Y100.889 E.0156
G1 X109.537 Y101.329 E.02926
G1 X111.408 Y102.277 E.0566
G1 X112.387 Y102.815 E.03014
G1 X114.202 Y103.888 E.0569
G1 X115.149 Y104.491 E.0303
G1 X116.086 Y105.117 E.03041
G1 X117.007 Y105.764 E.03037
G1 X117.914 Y106.432 E.0304
G1 X118.678 Y107.018 E.02598
G1 X120.333 Y108.375 E.05775
G1 X121.201 Y109.136 E.03115
G1 X122.049 Y109.915 E.03107
G1 X123.713 Y111.549 E.06293
G1 X124.045 Y111.743 E.01038
G1 X124.371 Y111.797 E.00892
G1 X127.329 Y111.797 E.07982
G1 X127.329 Y114.756 E.07985
G1 X127.329 Y130.222 E.41735
G1 X103.731 Y130.222 E.63679
G1 X103.731 Y130.222 F9000
G1 X103.265 Y130.628
G1 F3600
G1 X103.265 Y103.842 E.72282
G1 X103.345 Y103.274 E.01548
G1 X103.574 Y102.763 E.01511
G1 X103.919 Y102.358 E.01436
G1 X104.413 Y102.033 E.01596
G1 X107.892 Y100.443 E.10322
G1 X108.659 Y100.496 E.02075
G1 X109.711 Y100.963 E.03106
G1 X111.597 Y101.918 E.05705
G1 X112.588 Y102.462 E.03051
G1 X114.414 Y103.543 E.05726
G1 X115.371 Y104.151 E.0306
G1 X116.315 Y104.782 E.03064
G1 X117.244 Y105.434 E.03063
G1 X118.158 Y106.108 E.03064
G1 X118.93 Y106.701 E.02627
G1 X120.595 Y108.066 E.0581
G1 X121.472 Y108.834 E.03146
G1 X122.329 Y109.621 E.0314
G1 X123.958 Y111.223 E.06165
G1 X124.111 Y111.331 E.00505
G1 X124.371 Y111.392 E.00721
G1 X127.735 Y111.392 E.09078
G1 X127.735 Y114.756 E.09078
G1 X127.735 Y130.628 E.4283
G1 X103.325 Y130.628 E.6587
G1 X103.325 Y130.628 F9000
G1 X102.87 Y131.024
;TYPE:External perimeter
;WIDTH:0.419999
G1 F1800
G1 X102.87 Y103.815 E.69803
G1 X102.961 Y103.163 E.01689
G1 X103.237 Y102.549 E.01727
G1 X103.647 Y102.067 E.01623
G1 X103.85 Y101.915 E.00651
G1 X104.237 Y101.679 E.01163
G1 X107.818 Y100.042 E.10101
G1 X108.786 Y100.119 E.02491
G1 X109.881 Y100.605 E.03073
G1 X111.782 Y101.568 E.05467
G1 X112.784 Y102.118 E.02932
G1 X114.621 Y103.205 E.05476
G1 X115.587 Y103.819 E.02936
G1 X116.539 Y104.456 E.02939
G1 X117.475 Y105.113 E.02934
G1 X118.396 Y105.791 E.02934
G1 X119.176 Y106.391 E.02525
G1 X120.851 Y107.764 E.05556
G1 X121.736 Y108.539 E.03018
G1 X122.602 Y109.334 E.03016
G1 X124.235 Y110.941 E.05878
G1 X124.371 Y110.996 E.00376
G1 X128.13 Y110.996 E.09643
G1 X128.13 Y114.756 E.09646
G1 X128.13 Y131.024 E.41735
G1 X102.93 Y131.024 E.64649
G1 E-3.5 F3600
;WIPE_START
G1 F7200
G1 X102.87 Y131.024 E-.0285
G1 X102.87 Y127.926 E-1.4715
;WIPE_END
G1 X104.519 Y102.658 F9000
G1 E5 F2400
;TYPE:Solid infill
;WIDTH:0.374336
G1 F3600
G1 X104.089 Y103.086 E.01372
;WIDTH:0.439999
G1 X104.031 Y103.552 E.01267
G1 X105.032 Y102.551 E.0382
G1 X105.032 Y102.551 F9000
G1 X106.096 Y102.061
G1 F3600
G1 X103.983 Y104.174 E.08064
G1 X103.983 Y104.747 E.01546
G1 X107.16 Y101.57 E.12124
G1 X107.16 Y101.57 F9000
G1 X108.128 Y101.177
G1 F3600
G1 X103.983 Y105.321 E.15816
G1 X103.983 Y105.895 E.01549
G1 X108.616 Y101.262 E.17681
G1 X109.013 Y101.438 E.01172
G1 X103.983 Y106.468 E.19196
G1 X103.983 Y107.042 E.01549
G1 X109.41 Y101.615 E.20711
G1 X109.791 Y101.808 E.01153
G1 X103.983 Y107.616 E.22165
G1 X103.983 Y108.189 E.01546
G1 X110.172 Y102.001 E.23617
G1 X110.552 Y102.194 E.0115
G1 X103.983 Y108.763 E.25069
G1 X103.983 Y109.337 E.01549
G1 X110.933 Y102.387 E.26523
G1 X111.312 Y102.581 E.01149
G1 X103.983 Y109.911 E.27971
G1 X103.983 Y110.484 E.01546
G1 X111.683 Y102.785 E.29383
G1 X112.053 Y102.988 E.01139
G1 X103.983 Y111.058 E.30797
G1 X103.983 Y111.632 E.01549
G1 X112.419 Y103.196 E.32194
G1 X112.779 Y103.41 E.0113
