; G-Code generated by Simplify3D(R) Version 4.1.2
; Sep 19, 2024 at 4:28:09 PM
; Settings Summary
;   processName,22-Wood PLA
;   applyToModels,TEST - Toolbox - Power Drill - Common Drill and Bit Set A
;   profileName,22-Wood PLA
;   profileVersion,2024-09-19 15:55:56
;   baseProfile,Creality Ender 3 Pro (modified)
;   printMaterial,PLA
;   printQuality,Fast
;   printExtruders,
;   extruderName,Primary Extruder
;   extruderToolheadNumber,0
;   extruderDiameter,0.4
;   extruderAutoWidth,1
;   extruderWidth,0.48
;   extrusionMultiplier,1
;   extruderUseRetract,1
;   extruderRetractionDistance,6
;   extruderExtraRestartDistance,-1.5
;   extruderRetractionZLift,0
;   extruderRetractionSpeed,5200
;   extruderUseCoasting,0
;   extruderCoastingDistance,0.2
;   extruderUseWipe,0
;   extruderWipeDistance,5
;   primaryExtruder,0
;   layerHeight,0.2
;   topSolidLayers,3
;   bottomSolidLayers,3
;   perimeterOutlines,2
;   printPerimetersInsideOut,0
;   startPointOption,2
;   startPointOriginX,0
;   startPointOriginY,0
;   sequentialIslands,0
;   spiralVaseMode,0
;   firstLayerHeightPercentage,120
;   firstLayerWidthPercentage,150
;   firstLayerUnderspeed,0.5
;   useRaft,0
;   raftExtruder,0
;   raftTopLayers,3
;   raftBaseLayers,2
;   raftOffset,3
;   raftSeparationDistance,0.14
;   raftTopInfill,100
;   aboveRaftSpeedMultiplier,0.3
;   useSkirt,0
;   skirtExtruder,0
;   skirtLayers,5
;   skirtOutlines,5
;   skirtOffset,4
;   usePrimePillar,0
;   primePillarExtruder,999
;   primePillarWidth,12
;   primePillarLocation,7
;   primePillarSpeedMultiplier,1
;   useOozeShield,0
;   oozeShieldExtruder,999
;   oozeShieldOffset,2
;   oozeShieldOutlines,1
;   oozeShieldSidewallShape,1
;   oozeShieldSidewallAngle,30
;   oozeShieldSpeedMultiplier,1
;   infillExtruder,0
;   internalInfillPattern,Rectilinear
;   externalInfillPattern,Rectilinear
;   infillPercentage,5
;   outlineOverlapPercentage,15
;   infillExtrusionWidthPercentage,100
;   minInfillLength,5
;   infillLayerInterval,1
;   internalInfillAngles,45,-45
;   overlapInternalInfillAngles,0
;   externalInfillAngles,45,-45
;   generateSupport,1
;   supportExtruder,0
;   supportInfillPercentage,20
;   supportExtraInflation,0
;   supportBaseLayers,0
;   denseSupportExtruder,0
;   denseSupportLayers,0
;   denseSupportInfillPercentage,70
;   supportLayerInterval,2
;   supportHorizontalPartOffset,2.5
;   supportUpperSeparationLayers,1
;   supportLowerSeparationLayers,0
;   supportType,1
;   supportGridSpacing,4
;   maxOverhangAngle,45
;   supportAngles,0
;   temperatureName,Primary Extruder,Heated Bed
;   temperatureNumber,0,0
;   temperatureSetpointCount,1,1
;   temperatureSetpointLayers,1,1
;   temperatureSetpointTemperatures,190,60
;   temperatureStabilizeAtStartup,1,1
;   temperatureHeatedBed,0,1
;   fanLayers,1,2
;   fanSpeeds,0,100
;   blipFanToFullPower,0
;   adjustSpeedForCooling,1
;   minSpeedLayerTime,15
;   minCoolingSpeedSlowdown,20
;   increaseFanForCooling,0
;   minFanLayerTime,45
;   maxCoolingFanSpeed,100
;   increaseFanForBridging,0
;   bridgingFanSpeed,100
;   use5D,1
;   relativeEdistances,0
;   allowEaxisZeroing,1
;   independentExtruderAxes,0
;   includeM10123,0
;   stickySupport,1
;   applyToolheadOffsets,0
;   gcodeXoffset,0
;   gcodeYoffset,0
;   gcodeZoffset,0
;   overrideMachineDefinition,1
;   machineTypeOverride,0
;   strokeXoverride,220
;   strokeYoverride,220
;   strokeZoverride,250
;   originOffsetXoverride,-5
;   originOffsetYoverride,-5
;   originOffsetZoverride,0
;   homeXdirOverride,-1
;   homeYdirOverride,-1
;   homeZdirOverride,-1
;   flipXoverride,1
;   flipYoverride,-1
;   flipZoverride,1
;   toolheadOffsets,0,0|0,0|0,0|0,0|0,0|0,0
;   overrideFirmwareConfiguration,1
;   firmwareTypeOverride,RepRap (Marlin/Repetier/Sprinter)
;   GPXconfigOverride,r2
;   baudRateOverride,115200
;   overridePrinterModels,1
;   printerModelsOverride
;   startingGcode,G28 ; home all axes,G1 X5 Y10 Z0.2 F3000 ; get ready to prime,G92 E0 ; reset extrusion distance,G1 X160 E15 F600 ; prime nozzle,G1 X180 F5000 ; quick wipe
;   layerChangeGcode,
;   retractionGcode,
;   toolChangeGcode,
;   endingGcode,G28 X0 ; home X axis,G91 ; relative positioning,G0 Z+50.0 ; z axis up 50mm,M106 S0 ; turn off cooling fan,M104 S0 ; turn off extruder,M140 S0 ; turn off bed,M84 ; disable motors
;   exportFileFormat,gcode
;   celebration,0
;   celebrationSong,Random Song
;   postProcessing,
;   defaultSpeed,6000
;   outlineUnderspeed,0.5
;   solidInfillUnderspeed,0.8
;   supportUnderspeed,0.8
;   rapidXYspeed,2400
;   rapidZspeed,1000
;   minBridgingArea,50
;   bridgingExtraInflation,0
;   bridgingExtrusionMultiplier,1
;   bridgingSpeedMultiplier,1
;   useFixedBridgingAngle,0
;   fixedBridgingAngle,0
;   applyBridgingToPerimeters,0
;   filamentDiameters,1.75|1.75|1.75|1.75|1.75|1.75
;   filamentPricesPerKg,46|46|46|46|46|46
;   filamentDensities,1.25|1.25|1.25|1.25|1.25|1.25
;   useMinPrintHeight,0
;   minPrintHeight,0
;   useMaxPrintHeight,0
;   maxPrintHeight,0
;   useDiaphragm,0
;   diaphragmLayerInterval,20
;   robustSlicing,1
;   mergeAllIntoSolid,0
;   onlyRetractWhenCrossingOutline,1
;   retractBetweenLayers,1
;   useRetractionMinTravel,0
;   retractionMinTravel,3
;   retractWhileWiping,0
;   onlyWipeOutlines,1
;   avoidCrossingOutline,0
;   maxMovementDetourFactor,3
;   toolChangeRetractionDistance,12
;   toolChangeExtraRestartDistance,-0.5
;   toolChangeRetractionSpeed,600
;   externalThinWallType,0
;   internalThinWallType,2
;   thinWallAllowedOverlapPercentage,10
;   singleExtrusionMinLength,1
;   singleExtrusionMinPrintingWidthPercentage,50
;   singleExtrusionMaxPrintingWidthPercentage,200
;   singleExtrusionEndpointExtension,0.2
;   horizontalSizeCompensation,0
G90
M82
M106 S0
M140 S60
M190 S60
M104 S190 T0
M109 S190 T0
G28 ; home all axes
G1 X5 Y10 Z0.2 F3000 ; get ready to prime
G92 E0 ; reset extrusion distance
G1 X160 E15 F600 ; prime nozzle
G1 X180 F5000 ; quick wipe
; process 22-Wood PLA
; layer 1, Z = 0.240
T0
G92 E0.0000
G1 E-6.0000 F5200
; feature outer perimeter
; tool H0.240 W0.720
G1 Z0.240 F1000
G1 X103.051 Y101.876 F2400
G1 E-1.5000 F5200
G92 E0.0000
G1 X103.274 Y101.653 E0.0227 F1500
G1 X103.522 Y101.468 E0.0449
G1 X103.874 Y101.281 E0.0735
G1 X107.342 Y99.695 E0.3475
G1 X107.362 Y99.689 E0.3490
G1 X108.232 Y99.763 E0.4117
G1 X109.207 Y100.188 E0.4881
G1 X110.269 Y100.711 E0.5732
G1 X111.204 Y101.197 E0.6489
G1 X112.188 Y101.736 E0.7294
G1 X113.101 Y102.263 E0.8052
G1 X114.060 Y102.844 E0.8858
G1 X115.007 Y103.447 E0.9664
G1 X115.939 Y104.070 E1.0469
G1 X116.857 Y104.713 E1.1275
G1 X117.706 Y105.335 E1.2031
G1 X118.594 Y106.017 E1.2835
G1 X119.479 Y106.728 E1.3650
G1 X120.286 Y107.405 E1.4408
G1 X121.140 Y108.155 E1.5224
G1 X121.977 Y108.923 E1.6040
G1 X122.737 Y109.651 E1.6796
G1 X123.728 Y110.646 E1.7805
G1 X127.480 Y110.646 E2.0501
G1 X127.480 Y130.374 E3.4674
G1 X102.520 Y130.374 E5.2606
G1 X102.520 Y103.294 E7.2060
G1 X102.541 Y103.005 E7.2269
G1 X102.604 Y102.704 E7.2490
G1 X102.711 Y102.409 E7.2715
G1 X102.862 Y102.130 E7.2943
G1 X103.051 Y101.876 E7.3170
; feature inner perimeter
G1 X103.597 Y102.348 F2400
G92 E0.0000
G1 X103.747 Y102.198 E0.0152 F2250
G1 X103.908 Y102.078 E0.0297
G1 X104.192 Y101.927 E0.0528
G1 X107.485 Y100.422 E0.3128
G1 X108.053 Y100.471 E0.3538
G1 X108.905 Y100.841 E0.4205
G1 X109.944 Y101.353 E0.5038
G1 X110.865 Y101.832 E0.5783
G1 X111.834 Y102.364 E0.6578
G1 X112.734 Y102.883 E0.7324
G1 X113.681 Y103.456 E0.8119
G1 X114.613 Y104.049 E0.8913
G1 X115.533 Y104.664 E0.9708
G1 X116.438 Y105.298 E1.0501
G1 X117.274 Y105.912 E1.1247
G1 X118.149 Y106.583 E1.2039
G1 X119.022 Y107.284 E1.2843
G1 X119.817 Y107.952 E1.3589
G1 X120.659 Y108.691 E1.4394
G1 X121.484 Y109.448 E1.5199
G1 X122.232 Y110.165 E1.5943
G1 X123.429 Y111.366 E1.7161
G1 X126.760 Y111.366 E1.9555
G1 X126.760 Y129.654 E3.2693
G1 X103.240 Y129.654 E4.9591
G1 X103.240 Y103.319 E6.8510
G1 X103.255 Y103.105 E6.8664
G1 X103.298 Y102.902 E6.8813
G1 X103.370 Y102.705 E6.8964
G1 X103.471 Y102.518 E6.9116
G1 X103.597 Y102.348 E6.9269
; feature solid layer
G1 X112.805 Y103.641 F2400
G92 E0.0000
G1 X126.148 Y116.984 E1.3556 F2400
G1 X126.148 Y118.003 E1.4288
G1 X110.455 Y102.309 E3.0233
G1 X109.667 Y101.900 E3.0870
G1 X108.647 Y101.396 E3.1687
G1 X108.430 Y101.302 E3.1858
G1 X126.148 Y119.021 E4.9860
G1 X126.148 Y120.039 E5.0592
G1 X107.292 Y101.183 E6.9750
G1 X106.594 Y101.502 E7.0302
G1 X126.148 Y121.057 E9.0169
G1 X126.148 Y122.075 E9.0901
G1 X105.895 Y101.822 E11.1478
G1 X105.196 Y102.141 E11.2030
G1 X126.148 Y123.094 E13.3318
G1 X126.148 Y124.112 E13.4049
G1 X104.497 Y102.461 E15.6047
G1 X104.463 Y102.477 E15.6074
G1 X104.236 Y102.597 E15.6258
G1 X104.148 Y102.662 E15.6337
G1 X104.062 Y102.749 E15.6425
G1 X103.988 Y102.848 E15.6514
G1 X103.945 Y102.927 E15.6578
G1 X126.148 Y125.130 E17.9137
G1 X126.148 Y126.148 E17.9868
G1 X103.852 Y103.852 E20.2521
G1 X103.852 Y104.870 E20.3253
G1 X126.148 Y127.167 E22.5905
G1 X126.148 Y128.185 E22.6637
G1 X103.852 Y105.889 E24.9290
G1 X103.852 Y106.907 E25.0021
G1 X125.987 Y129.042 E27.2510
G1 X124.969 Y129.042 E27.3242
G1 X103.852 Y107.925 E29.4696
G1 X103.852 Y108.943 E29.5428
G1 X123.951 Y129.042 E31.5848
G1 X122.932 Y129.042 E31.6579
G1 X103.852 Y109.961 E33.5965
G1 X103.852 Y110.980 E33.6696
G1 X121.914 Y129.042 E35.5047
G1 X120.896 Y129.042 E35.5779
G1 X103.852 Y111.998 E37.3095
G1 X103.852 Y113.016 E37.3827
G1 X119.878 Y129.042 E39.0109
G1 X118.859 Y129.042 E39.0840
G1 X103.852 Y114.034 E40.6088
G1 X103.852 Y115.053 E40.6819
G1 X117.841 Y129.042 E42.1032
G1 X116.823 Y129.042 E42.1764
G1 X103.852 Y116.071 E43.4942
G1 X103.852 Y117.089 E43.5674
G1 X115.805 Y129.042 E44.7818
G1 X114.786 Y129.042 E44.8549
G1 X103.852 Y118.107 E45.9658
G1 X103.852 Y119.125 E46.0390
G1 X113.768 Y129.042 E47.0465
G1 X112.750 Y129.042 E47.1196
G1 X103.852 Y120.144 E48.0237
G1 X103.852 Y121.162 E48.0968
G1 X111.732 Y129.042 E48.8974
G1 X110.714 Y129.042 E48.9706
G1 X103.852 Y122.180 E49.6677
G1 X103.852 Y123.198 E49.7409
G1 X109.695 Y129.042 E50.3346
G1 X108.677 Y129.042 E50.4077
G1 X103.852 Y124.216 E50.8980
G1 X103.852 Y125.235 E50.9711
G1 X107.659 Y129.042 E51.3579
G1 X106.641 Y129.042 E51.4311
G1 X103.852 Y126.253 E51.7144
G1 X103.852 Y127.271 E51.7876
G1 X105.622 Y129.042 E51.9675
G1 X104.604 Y129.042 E52.0406
G1 X103.852 Y128.289 E52.1171
G1 X122.101 Y110.901 F2400
G92 E0.0000
G1 X121.781 Y110.581 E0.0325 F2400
G1 X121.065 Y109.894 E0.1038
G1 X120.251 Y109.146 E0.1832
G1 X119.418 Y108.416 E0.2627
G1 X118.633 Y107.757 E0.3364
G1 X117.772 Y107.065 E0.4158
G1 X116.907 Y106.401 E0.4941
G1 X116.081 Y105.795 E0.5677
G1 X115.736 Y105.554 E0.5979
G1 X126.148 Y115.966 E1.6558
G1 X126.148 Y114.948 E1.7289
G1 X123.179 Y111.978 E2.0307
G1 X124.197 Y111.978 E2.1038
G1 X126.148 Y113.930 E2.3021
G1 X126.148 Y112.911 E2.3753
G1 X125.215 Y111.978 E2.4701
G92 E0.0000
G1 E-6.0000 F5200
; layer 2, Z = 0.440
M106 S255
; feature outer perimeter
; tool H0.200 W0.480
G1 Z0.440 F1000
G1 X123.778 Y110.526 F2400
G1 E-1.5000 F5200
G92 E0.0000
G1 X127.600 Y110.526 E0.1526 F3000
G1 X127.600 Y130.494 E0.9495
G1 X102.400 Y130.494 E1.9553
G1 X102.401 Y103.255 E3.0425
G1 X102.421 Y102.988 E3.0532
G1 X102.488 Y102.671 E3.0661
G1 X102.602 Y102.360 E3.0793
G1 X102.760 Y102.066 E3.0927
G1 X102.960 Y101.797 E3.1060
G1 X103.195 Y101.562 E3.1193
G1 X103.459 Y101.364 E3.1325
G1 X103.701 Y101.231 E3.1435
G1 X107.373 Y99.559 E3.3045
G1 X108.218 Y99.630 E3.3384
G1 X108.270 Y99.645 E3.3405
G1 X109.216 Y100.059 E3.3817
G1 X110.418 Y100.653 E3.4352
G1 X111.269 Y101.096 E3.4735
G1 X112.279 Y101.650 E3.5195
G1 X113.111 Y102.130 E3.5579
G1 X114.097 Y102.726 E3.6039
G1 X115.070 Y103.344 E3.6498
G1 X116.027 Y103.984 E3.6958
G1 X116.969 Y104.646 E3.7417
G1 X117.742 Y105.213 E3.7800
G1 X118.655 Y105.912 E3.8259
G1 X119.583 Y106.658 E3.8734
G1 X120.318 Y107.275 E3.9117
G1 X121.215 Y108.060 E3.9593
G1 X122.091 Y108.865 E4.0068
G1 X122.946 Y109.689 E4.0542
G1 X123.778 Y110.526 E4.1013
; feature inner perimeter
G1 X123.578 Y111.006 F2400
G92 E0.0000
G1 X127.120 Y111.006 E0.1414 F4500
G1 X127.120 Y130.014 E0.9000
G1 X102.880 Y130.014 E1.8675
G1 X102.881 Y103.273 E2.9348
G1 X102.898 Y103.056 E2.9435
G1 X102.951 Y102.803 E2.9538
G1 X103.041 Y102.557 E2.9642
G1 X103.166 Y102.324 E2.9748
G1 X103.324 Y102.112 E2.9854
G1 X103.510 Y101.926 E2.9959
G1 X103.721 Y101.768 E3.0064
G1 X103.916 Y101.660 E3.0153
G1 X107.458 Y100.048 E3.1706
G1 X108.120 Y100.103 E3.1971
G1 X109.014 Y100.494 E3.2360
G1 X110.200 Y101.081 E3.2889
G1 X111.042 Y101.519 E3.3268
G1 X112.044 Y102.069 E3.3724
G1 X112.866 Y102.543 E3.4103
G1 X113.845 Y103.134 E3.4559
G1 X114.807 Y103.746 E3.5014
G1 X115.756 Y104.380 E3.5469
G1 X116.689 Y105.036 E3.5925
G1 X117.454 Y105.597 E3.6303
G1 X118.359 Y106.290 E3.6758
G1 X119.278 Y107.029 E3.7229
G1 X120.005 Y107.640 E3.7608
G1 X120.894 Y108.418 E3.8079
G1 X121.762 Y109.215 E3.8550
G1 X122.609 Y110.032 E3.9019
G1 X123.578 Y111.006 E3.9568
; feature solid layer
G1 X126.190 Y129.606 F2400
G92 E0.0000
G1 X126.712 Y129.083 E0.0295 F4800
G1 X126.712 Y128.404 E0.0566
G1 X125.511 Y129.606 E0.1244
G1 X124.832 Y129.606 E0.1515
G1 X126.712 Y127.725 E0.2577
G1 X126.712 Y127.046 E0.2848
G1 X124.153 Y129.606 E0.4292
G1 X123.474 Y129.606 E0.4563
G1 X126.712 Y126.368 E0.6391
G1 X126.712 Y125.689 E0.6662
G1 X122.796 Y129.606 E0.8873
G1 X122.117 Y129.606 E0.9144
G1 X126.712 Y125.010 E1.1738
G1 X126.712 Y124.331 E1.2008
G1 X121.438 Y129.606 E1.4986
G1 X120.759 Y129.606 E1.5257
G1 X126.712 Y123.652 E1.8617
G1 X126.712 Y122.973 E1.8888
G1 X120.080 Y129.606 E2.2631
G1 X119.401 Y129.606 E2.2902
G1 X126.712 Y122.295 E2.7029
G1 X126.712 Y121.616 E2.7300
G1 X118.723 Y129.606 E3.1810
G1 X118.044 Y129.606 E3.2081
G1 X126.712 Y120.937 E3.6974
G1 X126.712 Y120.258 E3.7245
G1 X117.365 Y129.606 E4.2521
G1 X116.686 Y129.606 E4.2792
G1 X126.712 Y119.579 E4.8451
G1 X126.712 Y118.901 E4.8722
G1 X116.007 Y129.606 E5.4764
G1 X115.328 Y129.606 E5.5035
G1 X126.712 Y118.222 E6.1461
G1 X126.712 Y117.543 E6.1732
G1 X114.650 Y129.606 E6.8541
G1 X113.971 Y129.606 E6.8812
G1 X126.712 Y116.864 E7.6003
G1 X126.712 Y116.185 E7.6274
G1 X113.292 Y129.606 E8.3849
G1 X112.613 Y129.606 E8.4120
G1 X126.712 Y115.506 E9.2079
G1 X126.712 Y114.828 E9.2350
G1 X111.934 Y129.606 E10.0691
G1 X111.256 Y129.606 E10.0962
G1 X126.712 Y114.149 E10.9686
G1 X126.712 Y113.470 E10.9957
G1 X110.577 Y129.606 E11.9065
G1 X109.898 Y129.606 E11.9336
G1 X126.712 Y112.791 E12.8827
G1 X126.712 Y112.112 E12.9098
G1 X109.219 Y129.606 E13.8972
G1 X108.540 Y129.606 E13.9243
G1 X126.712 Y111.433 E14.9500
G1 X126.712 Y111.414 E14.9508
G1 X126.053 Y111.414 E14.9771
G1 X107.861 Y129.606 E16.0039
G1 X107.183 Y129.606 E16.0310
G1 X125.374 Y111.414 E17.0578
G1 X124.695 Y111.414 E17.0849
G1 X106.504 Y129.606 E18.1117
G1 X105.825 Y129.606 E18.1388
G1 X124.017 Y111.414 E19.1656
G1 X123.409 Y111.414 E19.1899
G1 X123.373 Y111.379 E19.1919
G1 X105.146 Y129.606 E20.2207
G1 X104.467 Y129.606 E20.2478
G1 X123.035 Y111.038 E21.2958
G1 X122.696 Y110.698 E21.3150
G1 X103.788 Y129.606 E22.3822
G1 X103.288 Y129.606 E22.4022
G1 X103.288 Y129.428 E22.4093
G1 X122.358 Y110.357 E23.4857
G1 X122.323 Y110.323 E23.4877
G1 X122.013 Y110.024 E23.5049
G1 X103.288 Y128.749 E24.5618
G1 X103.288 Y128.070 E24.5889
G1 X121.667 Y109.690 E25.6263
G1 X121.482 Y109.512 E25.6366
G1 X121.318 Y109.361 E25.6455
G1 X103.288 Y127.391 E26.6632
G1 X103.288 Y126.712 E26.6903
G1 X120.964 Y109.036 E27.6880
G1 X120.622 Y108.721 E27.7066
G1 X120.610 Y108.711 E27.7072
G1 X103.288 Y126.033 E28.6849
