; generated by Slic3r 1.3.0 on 2024-10-24 at 14:11:56

; external perimeters extrusion width = 0.44mm (3.38mm^3/s)
; perimeters extrusion width = 0.48mm (7.54mm^3/s)
; infill extrusion width = 0.48mm (10.05mm^3/s)
; solid infill extrusion width = 0.48mm (2.51mm^3/s)
; top infill extrusion width = 0.48mm (1.88mm^3/s)
; support material extrusion width = 0.44mm (6.76mm^3/s)

M107
M190 S65 ; set bed temperature and wait for it to be reached
M104 S205 ; set temperature
G28 ; home all axes
G1 Z5 F5000 ; lift nozzle

; Filament gcode

M109 S205 ; set temperature and wait for it to be reached
G21 ; set units to millimeters
G90 ; use absolute coordinates
M82 ; use absolute distances for extrusion
G92 E0
G1 Z0.400 F7800.000
G1 E-2.00000 F2400.00000
G92 E0
G1 X83.053 Y81.868 F7800.000
G1 E2.00000 F2400.00000
G1 F1800
G1 X83.464 Y81.464 E2.06846
G1 X84.047 Y80.979 E2.15851
G1 X84.507 Y80.642 E2.22627
G1 X84.908 Y80.385 E2.28284
G1 X85.398 Y80.112 E2.34940
G1 X85.852 Y79.885 E2.40966
G1 X89.485 Y78.223 E2.88417
G1 X90.494 Y77.857 E3.01162
G1 X92.253 Y77.607 E3.22269
G1 X92.904 Y77.629 E3.30002
G1 X93.810 Y77.705 E3.40806
G1 X94.393 Y77.779 E3.47785
G1 X95.202 Y77.964 E3.57641
G1 X96.050 Y78.270 E3.68342
G1 X97.265 Y78.808 E3.84126
G1 X98.330 Y79.332 E3.98223
G1 X99.473 Y79.923 E4.13501
G1 X100.713 Y80.603 E4.30294
G1 X116.177 Y89.460 E6.41949
G1 X117.954 Y90.935 E6.69372
G1 X119.125 Y92.924 E6.96794
G1 X119.555 Y95.286 E7.25303
G1 X119.555 Y115.734 E9.68150
G1 X119.158 Y118.008 E9.95572
G1 X118.013 Y120.014 E10.22995
G1 X116.258 Y121.513 E10.50417
G1 X114.098 Y122.329 E10.77840
G1 X112.840 Y122.448 E10.92836
G1 X87.160 Y122.448 E13.97835
G1 X84.885 Y122.051 E14.25258
G1 X82.879 Y120.907 E14.52680
G1 X81.380 Y119.151 E14.80103
G1 X80.564 Y116.991 E15.07525
G1 X80.445 Y115.734 E15.22522
G1 X80.445 Y88.301 E18.48329
G1 X80.501 Y87.302 E18.60207
G1 X80.619 Y86.540 E18.69366
G1 X80.739 Y85.994 E18.76011
G1 X80.869 Y85.536 E18.81667
G1 X81.148 Y84.768 E18.91368
G1 X81.376 Y84.261 E18.97967
G1 X81.766 Y83.538 E19.07722
G1 X82.172 Y82.927 E19.16435
G1 X82.392 Y82.631 E19.20822
G1 X83.011 Y81.911 E19.32096
G1 E17.32096 F2400.00000
G92 E0
G1 X110.298 Y113.191 F7800.000
G1 E2.00000 F2400.00000
G1 F1800
G1 X89.702 Y113.191 E4.44607
G1 X89.702 Y88.302 E7.40199
G1 X92.725 Y86.920 E7.79680
G1 X93.272 Y87.160 E7.86773
G1 X95.179 Y88.124 E8.12146
G1 X96.117 Y88.638 E8.24853
G1 X97.911 Y89.700 E8.49605
G1 X99.713 Y90.875 E8.75164
G1 X100.599 Y91.496 E8.88010
G1 X102.231 Y92.722 E9.12246
G1 X103.859 Y94.057 E9.37259
G1 X104.681 Y94.777 E9.50236
G1 X106.195 Y96.196 E9.74877
G1 X107.823 Y97.829 E10.02257
G1 X110.298 Y97.829 E10.31655
G1 X110.298 Y113.131 E12.13398
G1 X111.012 Y113.905 F7800.000
G1 F1800
G1 X88.988 Y113.905 E14.74969
G1 X88.988 Y88.372 E17.78219
G1 X89.002 Y88.185 E17.80445
G1 X89.046 Y88.033 E17.82320
G1 X89.109 Y87.914 E17.83916
G1 X89.215 Y87.787 E17.85888
G1 X89.459 Y87.628 E17.89347
G1 X92.630 Y86.179 E18.30751
G1 X92.855 Y86.197 E18.33436
G1 X93.573 Y86.512 E18.42749
G1 X94.541 Y86.988 E18.55554
G1 X96.471 Y88.018 E18.81532
G1 X98.284 Y89.091 E19.06560
G1 X99.204 Y89.676 E19.19501
G1 X101.015 Y90.916 E19.45581
G1 X102.675 Y92.162 E19.70223
G1 X104.321 Y93.513 E19.95511
G1 X105.158 Y94.246 E20.08724
G1 X105.983 Y95.004 E20.22040
G1 X106.695 Y95.686 E20.33743
G1 X108.119 Y97.114 E20.57698
G1 X111.012 Y97.114 E20.92058
G1 X111.012 Y113.845 E22.90764
G1 X111.726 Y114.620 F7800.000
G1 F1800
G1 X88.274 Y114.620 E25.69298
G1 X88.274 Y88.344 E28.81359
G1 X88.294 Y88.082 E28.84480
G1 X88.391 Y87.744 E28.88654
G1 X88.503 Y87.532 E28.91500
G1 X88.624 Y87.369 E28.93923
G1 X88.745 Y87.247 E28.95964
G1 X88.960 Y87.086 E28.99144
G1 X89.141 Y86.989 E29.01584
G1 X92.503 Y85.451 E29.45491
G1 X93.033 Y85.495 E29.51809
G1 X93.874 Y85.864 E29.62719
G1 X94.863 Y86.350 E29.75804
G1 X95.852 Y86.864 E29.89035
G1 X96.824 Y87.397 E30.02208
G1 X98.658 Y88.482 E30.27511
G1 X99.594 Y89.077 E30.40686
G1 X100.520 Y89.697 E30.53921
G1 X101.432 Y90.336 E30.67149
G1 X103.119 Y91.603 E30.92198
G1 X104.783 Y92.968 E31.17761
G1 X105.635 Y93.714 E31.31211
G1 X106.472 Y94.484 E31.44717
G1 X107.195 Y95.176 E31.56605
G1 X108.415 Y96.400 E31.77135
G1 X111.726 Y96.400 E32.16457
G1 X111.726 Y114.560 E34.32127
G1 X112.440 Y115.334 F7800.000
G1 F1800
G1 X87.560 Y115.334 E37.27624
G1 X87.560 Y88.316 E40.48496
G1 X87.586 Y87.979 E40.52513
G1 X87.642 Y87.715 E40.55725
G1 X87.736 Y87.455 E40.59000
G1 X87.897 Y87.150 E40.63095
G1 X88.082 Y86.902 E40.66777
G1 X88.276 Y86.706 E40.70047
G1 X88.574 Y86.483 E40.74474
G1 X88.822 Y86.349 E40.77818
G1 X92.376 Y84.724 E41.24229
G1 X93.226 Y84.800 E41.34362
G1 X94.175 Y85.217 E41.46677
G1 X95.185 Y85.713 E41.60041
G1 X96.188 Y86.234 E41.73463
G1 X97.178 Y86.777 E41.86869
G1 X99.031 Y87.873 E42.12448
G1 X99.984 Y88.479 E42.25856
G1 X100.924 Y89.108 E42.39283
G1 X101.849 Y89.756 E42.52702
G1 X103.563 Y91.043 E42.78157
G1 X105.245 Y92.423 E43.03995
G1 X106.112 Y93.183 E43.17682
G1 X106.961 Y93.963 E43.31378
G1 X107.695 Y94.666 E43.43452
G1 X108.712 Y95.686 E43.60556
G1 X112.440 Y95.686 E44.04841
G1 X112.440 Y115.274 E46.37474
G1 X112.082 Y115.156 F7800.000
G1 E44.37474 F2400.00000
G92 E0
G1 X109.306 Y112.755 F7800.000
G1 E2.00000 F2400.00000
G1 F1800
G1 X109.862 Y112.199 E2.09434
G1 X109.862 Y111.178 E2.21693
G1 X108.285 Y112.755 E2.48465
G1 X107.264 Y112.755 E2.60724
G1 X109.862 Y110.157 E3.04832
G1 X109.862 Y109.136 E3.17091
G1 X106.243 Y112.755 E3.78536
G1 X105.222 Y112.755 E3.90795
G1 X109.862 Y108.115 E4.69576
G1 X109.862 Y107.094 E4.81835
G1 X104.201 Y112.755 E5.77954
G1 X103.180 Y112.755 E5.90213
G1 X109.862 Y106.073 E7.03668
G1 X109.862 Y105.052 E7.15927
G1 X102.159 Y112.755 E8.46719
G1 X101.138 Y112.755 E8.58978
G1 X109.862 Y104.031 E10.07107
G1 X109.862 Y103.010 E10.19366
G1 X100.117 Y112.755 E11.84832
G1 X99.096 Y112.755 E11.97091
G1 X109.862 Y101.989 E13.79894
G1 X109.862 Y100.968 E13.92153
G1 X98.075 Y112.755 E15.92292
G1 X97.054 Y112.755 E16.04551
G1 X109.862 Y99.947 E18.22027
G1 X109.862 Y98.926 E18.34286
G1 X96.033 Y112.755 E20.69099
G1 X95.012 Y112.755 E20.81358
G1 X109.501 Y98.265 E23.27393
G1 X108.480 Y98.265 E23.39652
G1 X93.990 Y112.755 E25.85687
G1 X92.969 Y112.755 E25.97946
G1 X107.632 Y98.092 E28.46911
G1 X107.122 Y97.581 E28.55580
G1 X91.948 Y112.755 E31.13224
G1 X90.927 Y112.755 E31.25483
G1 X106.612 Y97.070 E33.91807
G1 X106.102 Y96.559 E34.00476
G1 X90.138 Y112.523 E36.71539
G1 X90.138 Y111.502 E36.83798
G1 X105.580 Y96.061 E39.45985
G1 X105.053 Y95.567 E39.54658
G1 X90.138 Y110.481 E42.07895
G1 X90.138 Y109.460 E42.20154
G1 X104.525 Y95.073 E44.64442
G1 X103.983 Y94.594 E44.73127
G1 X90.138 Y108.439 E47.08201
G1 X90.138 Y107.418 E47.20460
G1 X103.431 Y94.125 E49.46171
G1 X102.871 Y93.665 E49.54882
G1 X90.138 Y106.397 E51.71070
G1 X90.138 Y105.376 E51.83329
G1 X102.310 Y93.204 E53.89993
G1 X101.736 Y92.757 E53.98727
G1 X90.138 Y104.355 E55.95652
G1 X90.138 Y103.334 E56.07911
G1 X101.153 Y92.319 E57.94932
G1 X100.570 Y91.881 E58.03688
G1 X90.138 Y102.312 E59.80806
G1 X90.138 Y101.291 E59.93065
G1 X99.973 Y91.457 E61.60049
G1 X99.366 Y91.043 E61.68870
G1 X90.138 Y100.270 E63.25555
G1 X90.138 Y99.249 E63.37814
G1 X98.748 Y90.640 E64.84006
G1 X98.130 Y90.237 E64.92864
G1 X90.138 Y98.228 E66.28564
G1 X90.138 Y97.207 E66.40823
G1 X97.501 Y89.845 E67.65837
G1 X96.859 Y89.465 E67.74786
G1 X90.138 Y96.186 E68.88906
G1 X90.138 Y95.165 E69.01165
G1 X96.218 Y89.086 E70.04392
G1 X95.563 Y88.719 E70.13399
G1 X90.138 Y94.144 E71.05513
G1 X90.138 Y93.123 E71.17772
G1 X94.898 Y88.364 E71.98585
G1 X94.220 Y88.021 E72.07709
G1 X90.138 Y92.102 E72.77006
G1 X90.138 Y91.081 E72.89265
G1 X93.541 Y87.678 E73.47047
G1 X93.009 Y87.425 E73.54125
G1 X92.575 Y87.623 E73.59852
G1 X90.138 Y90.060 E74.01230
G1 X90.138 Y89.039 E74.13489
G1 X90.694 Y88.483 E74.22927
G1 Z0.400 F7800.000
M104 S200 ; set temperature
M140 S60 ; set bed temperature
G1 Z0.700 F7800.000
G1 X111.385 Y114.279 F7800.000
G1 F3600
G1 X88.615 Y114.279 E75.41893
G1 X88.615 Y88.366 E76.77271
G1 X88.640 Y88.089 E76.78729
G1 X88.687 Y87.924 E76.79625
G1 X88.790 Y87.722 E76.80810
G1 X88.985 Y87.488 E76.82400
G1 X89.117 Y87.390 E76.83256
G1 X89.295 Y87.293 E76.84319
G1 X92.612 Y85.776 E77.03375
G1 X92.892 Y85.805 E77.04843
G1 X93.667 Y86.144 E77.09263
G1 X94.685 Y86.642 E77.15182
G1 X95.704 Y87.172 E77.21185
G1 X96.707 Y87.723 E77.27161
G1 X98.438 Y88.747 E77.37668
G1 X99.403 Y89.360 E77.43645
G1 X100.359 Y89.999 E77.49650
G1 X101.298 Y90.660 E77.55651
G1 X102.887 Y91.854 E77.66033
G1 X104.490 Y93.167 E77.76862
G1 X105.398 Y93.960 E77.83158
G1 X106.283 Y94.774 E77.89438
G1 X108.282 Y96.741 E78.04092
G1 X111.385 Y96.741 E78.20307
G1 X111.385 Y114.219 E79.11618
G1 X111.804 Y114.698 F7800.000
G1 F3600
G1 X88.196 Y114.698 E80.34961
G1 X88.196 Y88.348 E81.72626
G1 X88.225 Y88.024 E81.74325
G1 X88.301 Y87.758 E81.75767
G1 X88.435 Y87.496 E81.77309
G1 X88.713 Y87.169 E81.79547
G1 X88.890 Y87.037 E81.80703
G1 X89.108 Y86.918 E81.81999
G1 X92.538 Y85.350 E82.01705
G1 X92.918 Y85.381 E82.03696
G1 X93.025 Y85.406 E82.04270
G1 X93.843 Y85.763 E82.08936
G1 X94.873 Y86.268 E82.14929
G1 X95.902 Y86.802 E82.20984
G1 X96.914 Y87.359 E82.27020
G1 X98.657 Y88.390 E82.37597
G1 X99.632 Y89.009 E82.43634
G1 X100.596 Y89.654 E82.49691
G1 X101.543 Y90.321 E82.55744
G1 X103.147 Y91.526 E82.66224
G1 X104.761 Y92.847 E82.77123
G1 X105.678 Y93.648 E82.83482
G1 X106.571 Y94.470 E82.89827
G1 X108.453 Y96.322 E83.03622
G1 X111.804 Y96.322 E83.21129
G1 X111.804 Y114.638 E84.16817
G1 X112.223 Y115.116 F7800.000
G1 F3600
G1 X87.777 Y115.116 E85.44537
G1 X87.777 Y88.329 E86.84489
G1 X87.810 Y87.959 E86.86428
G1 X87.915 Y87.593 E86.88416
G1 X88.080 Y87.269 E86.90316
G1 X88.304 Y86.982 E86.92218
G1 X88.440 Y86.850 E86.93208
G1 X88.663 Y86.683 E86.94664
G1 X88.920 Y86.543 E86.96193
G1 X92.449 Y84.930 E87.16467
G1 X92.983 Y84.966 E87.19264
G1 X93.157 Y85.007 E87.20198
G1 X94.019 Y85.383 E87.25110
G1 X95.062 Y85.894 E87.31178
G1 X96.099 Y86.433 E87.37284
G1 X97.122 Y86.995 E87.43380
G1 X98.876 Y88.032 E87.54027
G1 X99.861 Y88.658 E87.60124
G1 X100.833 Y89.308 E87.66232
G1 X101.788 Y89.981 E87.72337
G1 X103.407 Y91.197 E87.82917
G1 X105.032 Y92.527 E87.93885
G1 X105.957 Y93.336 E88.00307
G1 X106.860 Y94.167 E88.06717
G1 X108.625 Y95.903 E88.19653
G1 X112.223 Y95.903 E88.38452
G1 X112.223 Y115.056 E89.38517
G1 X112.620 Y115.514 F7800.000
G1 F1800
G1 X87.380 Y115.514 E90.56769
G1 X87.380 Y88.311 E91.84213
G1 X87.417 Y87.898 E91.86156
G1 X87.469 Y87.665 E91.87272
G1 X87.549 Y87.436 E91.88407
G1 X87.744 Y87.055 E91.90414
G1 X88.008 Y86.717 E91.92424
G1 X88.181 Y86.547 E91.93560
G1 X88.448 Y86.348 E91.95120
G1 X88.742 Y86.188 E91.96689
G1 X92.338 Y84.543 E92.15215
G1 X92.475 Y84.525 E92.15862
G1 X93.046 Y84.573 E92.18543
G1 X93.283 Y84.629 E92.19687
G1 X94.186 Y85.023 E92.24301
G1 X95.241 Y85.539 E92.29806
G1 X96.287 Y86.082 E92.35325
G1 X97.319 Y86.650 E92.40843
G1 X99.083 Y87.694 E92.50449
G1 X100.078 Y88.326 E92.55968
G1 X101.057 Y88.981 E92.61490
G1 X102.021 Y89.659 E92.67008
G1 X102.967 Y90.359 E92.72524
G1 X103.654 Y90.886 E92.76580
G1 X105.288 Y92.224 E92.86475
G1 X106.222 Y93.040 E92.92287
G1 X107.134 Y93.879 E92.98090
G1 X108.788 Y95.506 E93.08959
G1 X112.620 Y95.506 E93.26915
G1 X112.620 Y115.454 E94.20369
G1 X112.262 Y115.336 F7800.000
G1 X111.129 Y97.323 F7800.000
G1 F1200
G1 X110.804 Y96.997 E94.22785
G1 X110.209 Y96.997 E94.25900
G1 X111.129 Y97.917 E94.32723
G1 X111.129 Y98.512 E94.35838
G1 X109.615 Y96.997 E94.47066
G1 X109.020 Y96.997 E94.50182
G1 X111.129 Y99.106 E94.65816
G1 X111.129 Y99.700 E94.68931
G1 X108.426 Y96.997 E94.88971
G1 X107.947 Y96.997 E94.91481
G1 X105.831 Y94.914 E95.07045
G1 X104.862 Y94.028 E95.13928
G1 X111.129 Y100.295 E95.60386
G1 X111.129 Y100.889 E95.63502
G1 X101.644 Y91.404 E96.33818
G1 X100.889 Y90.836 E96.38770
G1 X99.563 Y89.917 E96.47224
G1 X111.129 Y101.483 E97.32964
G1 X111.129 Y102.078 E97.36079
G1 X97.901 Y88.849 E98.34141
G1 X96.446 Y87.988 E98.43005
G1 X111.129 Y102.672 E99.51856
G1 X111.129 Y103.266 E99.54972
G1 X95.130 Y87.267 E100.73576
G1 X93.919 Y86.650 E100.80701
G1 X111.129 Y103.861 E102.08283
G1 X111.129 Y104.455 E102.11399
G1 X92.818 Y86.143 E103.47145
G1 X92.587 Y86.045 E103.48460
G1 X92.524 Y86.040 E103.48792
G1 X92.246 Y86.167 E103.50390
G1 X111.129 Y105.050 E104.90371
G1 X111.129 Y105.644 E104.93486
G1 X91.839 Y86.353 E106.36490
G1 X91.431 Y86.539 E106.38841
G1 X111.129 Y106.238 E107.84868
G1 X111.129 Y106.833 E107.87984
G1 X91.023 Y86.726 E109.37035
G1 X90.615 Y86.912 E109.39385
G1 X111.129 Y107.427 E110.91460
G1 X111.129 Y108.021 E110.94575
G1 X90.207 Y87.099 E112.49673
G1 X89.799 Y87.285 E112.52024
G1 X111.129 Y108.616 E114.10146
G1 X111.129 Y109.210 E114.13261
G1 X89.391 Y87.472 E115.74406
G1 X89.188 Y87.576 E115.75604
G1 X89.038 Y87.713 E115.76668
G1 X111.129 Y109.804 E117.40432
G1 X111.129 Y110.399 E117.43548
G1 X88.877 Y88.147 E119.08503
G1 X88.871 Y88.734 E119.11583
G1 X111.129 Y110.993 E120.76590
G1 X111.129 Y111.587 E120.79705
G1 X88.871 Y89.328 E122.44712
G1 X88.871 Y89.923 E122.47827
G1 X111.129 Y112.182 E124.12834
G1 X111.129 Y112.776 E124.15949
G1 X88.871 Y90.517 E125.80955
G1 X88.871 Y91.111 E125.84071
G1 X111.129 Y113.370 E127.49077
G1 X111.129 Y113.965 E127.52193
G1 X88.871 Y91.706 E129.17199
G1 X88.871 Y92.300 E129.20315
G1 X110.593 Y114.023 E130.81345
G1 X109.999 Y114.023 E130.84461
G1 X88.871 Y92.894 E132.41085
G1 X88.871 Y93.489 E132.44201
G1 X109.404 Y114.023 E133.96419
G1 X108.810 Y114.023 E133.99535
G1 X88.871 Y94.083 E135.47348
G1 X88.871 Y94.678 E135.50463
G1 X108.216 Y114.023 E136.93870
G1 X107.621 Y114.023 E136.96985
G1 X88.871 Y95.272 E138.35986
G1 X88.871 Y95.866 E138.39102
G1 X107.027 Y114.023 E139.73696
G1 X106.433 Y114.023 E139.76812
G1 X88.871 Y96.461 E141.07001
G1 X88.871 Y97.055 E141.10116
G1 X105.838 Y114.023 E142.35899
G1 X105.244 Y114.023 E142.39015
G1 X88.871 Y97.649 E143.60392
G1 X88.871 Y98.244 E143.63507
G1 X104.650 Y114.023 E144.80478
G1 X104.055 Y114.023 E144.83594
G1 X88.871 Y98.838 E145.96159
G1 X88.871 Y99.432 E145.99275
G1 X103.461 Y114.023 E147.07434
G1 X102.867 Y114.023 E147.10549
G1 X88.871 Y100.027 E148.14303
G1 X88.871 Y100.621 E148.17418
G1 X102.272 Y114.023 E149.16766
G1 X101.678 Y114.023 E149.19881
G1 X88.871 Y101.215 E150.14823
G1 X88.871 Y101.810 E150.17938
G1 X101.084 Y114.023 E151.08474
G1 X100.489 Y114.023 E151.11589
G1 X88.871 Y102.404 E151.97719
G1 X88.871 Y102.998 E152.00834
G1 X99.895 Y114.023 E152.82558
G1 X99.300 Y114.023 E152.85673
G1 X88.871 Y103.593 E153.62991
G1 X88.871 Y104.187 E153.66107
G1 X98.706 Y114.023 E154.39018
G1 X98.112 Y114.023 E154.42134
G1 X88.871 Y104.781 E155.10640
G1 X88.871 Y105.376 E155.13755
G1 X97.517 Y114.023 E155.77855
G1 X96.923 Y114.023 E155.80971
G1 X88.871 Y105.970 E156.40665
G1 X88.871 Y106.565 E156.43780
G1 X96.329 Y114.023 E156.99068
G1 X95.734 Y114.023 E157.02184
G1 X88.871 Y107.159 E157.53066
G1 X88.871 Y107.753 E157.56181
G1 X95.140 Y114.023 E158.02657
G1 X94.546 Y114.023 E158.05773
G1 X88.871 Y108.348 E158.47843
G1 X88.871 Y108.942 E158.50959
G1 X93.951 Y114.023 E158.88623
G1 X93.357 Y114.023 E158.91738
G1 X88.871 Y109.536 E159.24997
G1 X88.871 Y110.131 E159.28112
G1 X92.763 Y114.023 E159.56965
G1 X92.168 Y114.023 E159.60080
G1 X88.871 Y110.725 E159.84527
G1 X88.871 Y111.319 E159.87642
G1 X91.574 Y114.023 E160.07683
G1 X90.980 Y114.023 E160.10798
G1 X88.871 Y111.914 E160.26433
G1 X88.871 Y112.508 E160.29549
G1 X90.385 Y114.023 E160.40777
G1 X89.791 Y114.023 E160.43893
G1 X88.871 Y113.102 E160.50716
