; G-Code generated by Simplify3D(R) Version 4.1.2
; Sep 27, 2024 at 8:17:34 PM
; Settings Summary
;   processName,MQ - (X)% Fill Fast - Z(Y)
;   applyToModels,Booklet and Notes Holder
;   profileName,Creality Ender 3 Pro
;   profileVersion,2019-04-06 08:00:00
;   baseProfile,
;   printMaterial,PLA
;   printQuality,Medium
;   printExtruders,
;   extruderName,Primary Extruder
;   extruderToolheadNumber,0
;   extruderDiameter,0.4
;   extruderAutoWidth,1
;   extruderWidth,0.48
;   extrusionMultiplier,0.9
;   extruderUseRetract,1
;   extruderRetractionDistance,4
;   extruderExtraRestartDistance,0
;   extruderRetractionZLift,0
;   extruderRetractionSpeed,2400
;   extruderUseCoasting,0
;   extruderCoastingDistance,0.2
;   extruderUseWipe,0
;   extruderWipeDistance,5
;   primaryExtruder,0
;   layerHeight,0.25
;   topSolidLayers,3
;   bottomSolidLayers,3
;   perimeterOutlines,2
;   printPerimetersInsideOut,1
;   startPointOption,2
;   startPointOriginX,0
;   startPointOriginY,0
;   sequentialIslands,0
;   spiralVaseMode,0
;   firstLayerHeightPercentage,120
;   firstLayerWidthPercentage,150
;   firstLayerUnderspeed,0.5
;   useRaft,0
;   raftExtruder,0
;   raftTopLayers,3
;   raftBaseLayers,2
;   raftOffset,3
;   raftSeparationDistance,0.14
;   raftTopInfill,100
;   aboveRaftSpeedMultiplier,0.3
;   useSkirt,0
;   skirtExtruder,0
;   skirtLayers,1
;   skirtOutlines,5
;   skirtOffset,4
;   usePrimePillar,0
;   primePillarExtruder,999
;   primePillarWidth,12
;   primePillarLocation,7
;   primePillarSpeedMultiplier,1
;   useOozeShield,0
;   oozeShieldExtruder,999
;   oozeShieldOffset,2
;   oozeShieldOutlines,1
;   oozeShieldSidewallShape,1
;   oozeShieldSidewallAngle,30
;   oozeShieldSpeedMultiplier,1
;   infillExtruder,0
;   internalInfillPattern,Rectilinear
;   externalInfillPattern,Rectilinear
;   infillPercentage,5
;   outlineOverlapPercentage,15
;   infillExtrusionWidthPercentage,100
;   minInfillLength,5
;   infillLayerInterval,1
;   internalInfillAngles,45,-45
;   overlapInternalInfillAngles,0
;   externalInfillAngles,45,-45
;   generateSupport,0
;   supportExtruder,0
;   supportInfillPercentage,30
;   supportExtraInflation,0
;   supportBaseLayers,0
;   denseSupportExtruder,0
;   denseSupportLayers,0
;   denseSupportInfillPercentage,70
;   supportLayerInterval,1
;   supportHorizontalPartOffset,0.3
;   supportUpperSeparationLayers,1
;   supportLowerSeparationLayers,1
;   supportType,0
;   supportGridSpacing,4
;   maxOverhangAngle,45
;   supportAngles,0
;   temperatureName,Primary Extruder,Heated Bed
;   temperatureNumber,0,0
;   temperatureSetpointCount,1,1
;   temperatureSetpointLayers,1,1
;   temperatureSetpointTemperatures,210,60
;   temperatureStabilizeAtStartup,1,1
;   temperatureHeatedBed,0,1
;   fanLayers,1,2
;   fanSpeeds,0,100
;   blipFanToFullPower,0
;   adjustSpeedForCooling,1
;   minSpeedLayerTime,15
;   minCoolingSpeedSlowdown,20
;   increaseFanForCooling,0
;   minFanLayerTime,45
;   maxCoolingFanSpeed,100
;   increaseFanForBridging,0
;   bridgingFanSpeed,100
;   use5D,1
;   relativeEdistances,0
;   allowEaxisZeroing,1
;   independentExtruderAxes,0
;   includeM10123,0
;   stickySupport,1
;   applyToolheadOffsets,0
;   gcodeXoffset,0
;   gcodeYoffset,0
;   gcodeZoffset,0
;   overrideMachineDefinition,1
;   machineTypeOverride,0
;   strokeXoverride,220
;   strokeYoverride,220
;   strokeZoverride,250
;   originOffsetXoverride,-5
;   originOffsetYoverride,-5
;   originOffsetZoverride,0
;   homeXdirOverride,-1
;   homeYdirOverride,-1
;   homeZdirOverride,-1
;   flipXoverride,1
;   flipYoverride,-1
;   flipZoverride,1
;   toolheadOffsets,0,0|0,0|0,0|0,0|0,0|0,0
;   overrideFirmwareConfiguration,1
;   firmwareTypeOverride,RepRap (Marlin/Repetier/Sprinter)
;   GPXconfigOverride,r2
;   baudRateOverride,115200
;   overridePrinterModels,1
;   printerModelsOverride
;   startingGcode,G28 ; home all axes,G1 X5 Y10 Z0.2 F3000 ; get ready to prime,G92 E0 ; reset extrusion distance,G1 X160 E15 F600 ; prime nozzle,G1 X180 F5000 ; quick wipe
;   layerChangeGcode,
;   retractionGcode,
;   toolChangeGcode,
;   endingGcode,G28 X0 ; home X axis,G91 ; relative positioning,G0 Z+50.0 ; z axis up 50mm,M106 S0 ; turn off cooling fan,M104 S0 ; turn off extruder,M140 S0 ; turn off bed,M84 ; disable motors
;   exportFileFormat,gcode
;   celebration,0
;   celebrationSong,Random Song
;   postProcessing,
;   defaultSpeed,4200
;   outlineUnderspeed,0.5
;   solidInfillUnderspeed,0.9
;   supportUnderspeed,0.9
;   rapidXYspeed,4800
;   rapidZspeed,1000
;   minBridgingArea,50
;   bridgingExtraInflation,0
;   bridgingExtrusionMultiplier,1
;   bridgingSpeedMultiplier,1
;   useFixedBridgingAngle,0
;   fixedBridgingAngle,0
;   applyBridgingToPerimeters,0
;   filamentDiameters,1.75|1.75|1.75|1.75|1.75|1.75
;   filamentPricesPerKg,46|46|46|46|46|46
;   filamentDensities,1.25|1.25|1.25|1.25|1.25|1.25
;   useMinPrintHeight,0
;   minPrintHeight,0
;   useMaxPrintHeight,0
;   maxPrintHeight,0
;   useDiaphragm,0
;   diaphragmLayerInterval,20
;   robustSlicing,1
;   mergeAllIntoSolid,0
;   onlyRetractWhenCrossingOutline,1
;   retractBetweenLayers,1
;   useRetractionMinTravel,0
;   retractionMinTravel,3
;   retractWhileWiping,0
;   onlyWipeOutlines,1
;   avoidCrossingOutline,0
;   maxMovementDetourFactor,3
;   toolChangeRetractionDistance,12
;   toolChangeExtraRestartDistance,-0.5
;   toolChangeRetractionSpeed,600
;   externalThinWallType,0
;   internalThinWallType,2
;   thinWallAllowedOverlapPercentage,10
;   singleExtrusionMinLength,1
;   singleExtrusionMinPrintingWidthPercentage,50
;   singleExtrusionMaxPrintingWidthPercentage,200
;   singleExtrusionEndpointExtension,0.2
;   horizontalSizeCompensation,0
G90
M82
M106 S0
M140 S60
M190 S60
M104 S210 T0
M109 S210 T0
G28 ; home all axes
G1 X5 Y10 Z0.2 F3000 ; get ready to prime
G92 E0 ; reset extrusion distance
G1 X160 E15 F600 ; prime nozzle
G1 X180 F5000 ; quick wipe
; process MQ - (X)% Fill Fast - Z(Y)
; layer 1, Z = 0.300
T0
G92 E0.0000
G1 E-4.0000 F2400
; feature inner perimeter
; tool H0.300 W0.720
G1 Z0.300 F1000
G1 X85.746 Y21.211 F4800
G1 E0.0000 F2400
G92 E0.0000
G1 X144.254 Y21.211 E4.7287 F1575
G1 X144.254 Y97.014 E10.8553
G1 X146.343 Y97.048 E11.0242
G1 X147.369 Y97.096 E11.1072
G1 X148.255 Y97.166 E11.1790
G1 X149.454 Y97.295 E11.2765
G1 X150.505 Y97.448 E11.3623
G1 X151.540 Y97.633 E11.4473
G1 X152.557 Y97.851 E11.5313
G1 X153.569 Y98.104 E11.6156
G1 X154.355 Y98.326 E11.6817
G1 X155.028 Y98.535 E11.7386
G1 X155.910 Y98.836 E11.8140
G1 X156.674 Y99.124 E11.8800
G1 X157.429 Y99.433 E11.9459
G1 X158.071 Y99.717 E12.0026
G1 X158.902 Y100.114 E12.0771
G1 X159.615 Y100.485 E12.1420
G1 X160.217 Y100.822 E12.1978
G1 X160.991 Y101.285 E12.2706
G1 X161.648 Y101.712 E12.3340
G1 X162.286 Y102.157 E12.3969
G1 X162.819 Y102.556 E12.4507
G1 X163.494 Y103.096 E12.5206
G1 X164.060 Y103.586 E12.5810
G1 X164.556 Y104.048 E12.6358
G1 X165.182 Y104.675 E12.7074
G1 X165.705 Y105.247 E12.7701
G1 X166.203 Y105.841 E12.8327
G1 X166.673 Y106.453 E12.8951
G1 X167.055 Y106.998 E12.9489
G1 X167.524 Y107.732 E13.0192
G1 X167.898 Y108.391 E13.0805
G1 X168.269 Y109.128 E13.1472
G1 X168.577 Y109.832 E13.2093
G1 X168.856 Y110.572 E13.2733
G1 X169.088 Y111.311 E13.3358
G1 X169.276 Y112.045 E13.3971
G1 X169.420 Y112.775 E13.4572
G1 X169.508 Y113.398 E13.5081
G1 X169.585 Y114.242 E13.5766
G1 X169.606 Y115.000 E13.6379
G1 X169.585 Y115.758 E13.6991
G1 X169.508 Y116.602 E13.7676
G1 X169.420 Y117.225 E13.8185
G1 X169.276 Y117.955 E13.8786
G1 X169.088 Y118.689 E13.9399
G1 X168.856 Y119.428 E14.0024
G1 X168.577 Y120.168 E14.0664
G1 X168.269 Y120.872 E14.1285
G1 X167.898 Y121.609 E14.1952
G1 X167.524 Y122.268 E14.2565
G1 X167.055 Y123.002 E14.3268
G1 X166.673 Y123.547 E14.3806
G1 X166.203 Y124.159 E14.4430
G1 X165.705 Y124.753 E14.5056
G1 X165.182 Y125.325 E14.5683
G1 X164.556 Y125.953 E14.6399
G1 X164.060 Y126.414 E14.6947
G1 X163.494 Y126.904 E14.7551
G1 X162.819 Y127.444 E14.8250
G1 X162.286 Y127.843 E14.8788
G1 X161.648 Y128.288 E14.9417
G1 X160.991 Y128.715 E15.0050
G1 X160.218 Y129.178 E15.0779
G1 X159.615 Y129.515 E15.1337
G1 X158.902 Y129.886 E15.1987
G1 X158.071 Y130.283 E15.2730
G1 X157.430 Y130.567 E15.3298
G1 X156.674 Y130.876 E15.3958
G1 X155.910 Y131.164 E15.4617
G1 X155.028 Y131.465 E15.5370
G1 X154.355 Y131.674 E15.5940
G1 X153.569 Y131.896 E15.6600
G1 X152.557 Y132.149 E15.7444
G1 X151.540 Y132.367 E15.8284
G1 X150.505 Y132.552 E15.9134
G1 X149.454 Y132.705 E15.9992
G1 X148.255 Y132.834 E16.0967
G1 X147.369 Y132.904 E16.1685
G1 X146.343 Y132.952 E16.2515
G1 X144.254 Y132.986 E16.4204
G1 X144.254 Y208.789 E22.5470
G1 X85.746 Y208.789 E27.2757
G1 X85.746 Y132.986 E33.4023
G1 X83.657 Y132.952 E33.5712
G1 X82.631 Y132.904 E33.6541
G1 X81.595 Y132.822 E33.7382
G1 X80.548 Y132.705 E33.8233
G1 X79.495 Y132.552 E33.9092
G1 X78.460 Y132.367 E33.9943
G1 X77.443 Y132.149 E34.0783
G1 X76.431 Y131.896 E34.1626
G1 X75.646 Y131.675 E34.2286
G1 X74.864 Y131.430 E34.2948
G1 X74.196 Y131.201 E34.3518
G1 X73.325 Y130.876 E34.4270
G1 X72.571 Y130.567 E34.4928
G1 X71.828 Y130.237 E34.5586
G1 X71.198 Y129.935 E34.6150
G1 X70.384 Y129.515 E34.6890
G1 X69.689 Y129.125 E34.7535
G1 X69.010 Y128.715 E34.8176
G1 X68.440 Y128.346 E34.8724
G1 X67.713 Y127.842 E34.9440
G1 X67.099 Y127.382 E35.0060
G1 X66.507 Y126.905 E35.0674
G1 X66.016 Y126.481 E35.1199
G1 X65.367 Y125.879 E35.1914
G1 X64.820 Y125.327 E35.2542
G1 X64.295 Y124.753 E35.3171
G1 X63.797 Y124.159 E35.3797
G1 X63.389 Y123.629 E35.4338
G1 X62.886 Y122.915 E35.5043
G1 X62.478 Y122.270 E35.5660
G1 X62.102 Y121.609 E35.6275
G1 X61.731 Y120.872 E35.6942
G1 X61.423 Y120.168 E35.7563
G1 X61.144 Y119.428 E35.8202
G1 X60.912 Y118.689 E35.8828
G1 X60.724 Y117.955 E35.9441
G1 X60.580 Y117.225 E36.0041
G1 X60.492 Y116.602 E36.0550
G1 X60.415 Y115.758 E36.1236
G1 X60.394 Y115.000 E36.1848
G1 X60.415 Y114.242 E36.2461
G1 X60.492 Y113.398 E36.3146
G1 X60.580 Y112.774 E36.3655
G1 X60.724 Y112.045 E36.4256
G1 X60.912 Y111.311 E36.4869
G1 X61.144 Y110.572 E36.5494
G1 X61.423 Y109.832 E36.6134
G1 X61.731 Y109.128 E36.6755
G1 X62.102 Y108.391 E36.7421
G1 X62.478 Y107.730 E36.8036
G1 X62.887 Y107.083 E36.8655
G1 X63.327 Y106.453 E36.9276
G1 X63.797 Y105.841 E36.9900
G1 X64.295 Y105.247 E37.0526
G1 X64.819 Y104.673 E37.1154
G1 X65.368 Y104.119 E37.1784
G1 X65.939 Y103.587 E37.2415
G1 X66.586 Y103.030 E37.3105
G1 X67.098 Y102.618 E37.3636
G1 X67.714 Y102.157 E37.4258
G1 X68.352 Y101.712 E37.4887
G1 X69.011 Y101.284 E37.5521
G1 X69.689 Y100.875 E37.6162
G1 X70.386 Y100.485 E37.6807
G1 X71.100 Y100.114 E37.7458
G1 X71.827 Y99.763 E37.8110
G1 X72.674 Y99.390 E37.8858
G1 X73.324 Y99.124 E37.9426
G1 X74.195 Y98.799 E38.0177
G1 X74.971 Y98.536 E38.0840
G1 X75.645 Y98.326 E38.1410
G1 X76.323 Y98.135 E38.1979
G1 X77.445 Y97.850 E38.2915
G1 X78.460 Y97.633 E38.3754
G1 X79.495 Y97.448 E38.4604
G1 X80.548 Y97.295 E38.5464
G1 X81.595 Y97.178 E38.6315
G1 X82.631 Y97.096 E38.7155
G1 X83.657 Y97.048 E38.7985
G1 X85.746 Y97.014 E38.9674
G1 X85.746 Y21.211 E45.0939
; feature outer perimeter
G1 X85.026 Y20.491 F4800
G92 E0.0000
G1 X144.974 Y20.491 E4.8451 F1050
G1 X144.974 Y96.306 E10.9726
G1 X146.366 Y96.328 E11.0852
G1 X147.414 Y96.378 E11.1699
G1 X148.321 Y96.449 E11.2435
G1 X149.544 Y96.581 E11.3429
G1 X150.620 Y96.737 E11.4308
G1 X151.678 Y96.927 E11.5177
G1 X152.719 Y97.149 E11.6037
G1 X153.754 Y97.408 E11.6899
G1 X154.560 Y97.635 E11.7576
G1 X155.252 Y97.851 E11.8161
G1 X156.153 Y98.159 E11.8932
G1 X156.937 Y98.453 E11.9608
G1 X157.712 Y98.771 E12.0285
G1 X158.372 Y99.063 E12.0869
G1 X159.223 Y99.470 E12.1631
G1 X159.956 Y99.851 E12.2299
G1 X160.578 Y100.199 E12.2875
G1 X161.372 Y100.674 E12.3622
G1 X162.050 Y101.115 E12.4276
G1 X162.708 Y101.573 E12.4924
G1 X163.260 Y101.986 E12.5481
G1 X163.955 Y102.542 E12.6201
G1 X164.541 Y103.050 E12.6827
G1 X165.056 Y103.530 E12.7396
G1 X165.703 Y104.178 E12.8136
G1 X166.247 Y104.773 E12.8788
G1 X166.764 Y105.390 E12.9439
G1 X167.254 Y106.027 E13.0088
G1 X167.653 Y106.598 E13.0651
G1 X168.140 Y107.360 E13.1382
G1 X168.533 Y108.051 E13.2025
G1 X168.920 Y108.821 E13.2722
G1 X169.244 Y109.560 E13.3374
G1 X169.537 Y110.337 E13.4045
G1 X169.781 Y111.113 E13.4702
G1 X169.978 Y111.886 E13.5347
G1 X170.130 Y112.654 E13.5979
G1 X170.224 Y113.315 E13.6518
G1 X170.304 Y114.200 E13.7237
G1 X170.327 Y115.000 E13.7884
G1 X170.304 Y115.800 E13.8531
G1 X170.224 Y116.685 E13.9249
G1 X170.130 Y117.346 E13.9788
G1 X169.978 Y118.114 E14.0421
G1 X169.781 Y118.887 E14.1066
G1 X169.537 Y119.663 E14.1723
G1 X169.244 Y120.440 E14.2394
G1 X168.920 Y121.179 E14.3046
G1 X168.533 Y121.949 E14.3743
G1 X168.140 Y122.640 E14.4386
G1 X167.653 Y123.402 E14.5117
G1 X167.254 Y123.973 E14.5679
G1 X166.764 Y124.610 E14.6329
G1 X166.247 Y125.227 E14.6980
G1 X165.703 Y125.822 E14.7632
G1 X165.056 Y126.471 E14.8372
G1 X164.541 Y126.950 E14.8940
G1 X163.955 Y127.458 E14.9567
G1 X163.260 Y128.014 E15.0286
G1 X162.708 Y128.426 E15.0844
G1 X162.050 Y128.885 E15.1492
G1 X161.372 Y129.326 E15.2145
G1 X160.578 Y129.801 E15.2893
G1 X159.956 Y130.149 E15.3469
G1 X159.223 Y130.530 E15.4137
G1 X158.372 Y130.937 E15.4899
G1 X157.712 Y131.230 E15.5483
G1 X156.937 Y131.547 E15.6159
G1 X156.154 Y131.841 E15.6836
G1 X155.251 Y132.149 E15.7607
G1 X154.560 Y132.365 E15.8192
G1 X153.754 Y132.592 E15.8869
G1 X152.720 Y132.851 E15.9730
G1 X151.678 Y133.073 E16.0591
G1 X150.620 Y133.263 E16.1460
G1 X149.544 Y133.419 E16.2339
G1 X148.321 Y133.551 E16.3333
G1 X147.414 Y133.622 E16.4068
G1 X146.366 Y133.672 E16.4916
G1 X144.974 Y133.694 E16.6041
G1 X144.974 Y209.509 E22.7316
G1 X85.026 Y209.509 E27.5768
G1 X85.026 Y133.694 E33.7043
G1 X83.634 Y133.672 E33.8168
G1 X82.586 Y133.622 E33.9016
G1 X81.526 Y133.539 E33.9875
G1 X80.456 Y133.419 E34.0745
G1 X79.380 Y133.263 E34.1624
G1 X78.322 Y133.073 E34.2493
G1 X77.280 Y132.851 E34.3354
G1 X76.246 Y132.592 E34.4215
G1 X75.440 Y132.365 E34.4892
G1 X74.640 Y132.114 E34.5570
G1 X73.954 Y131.879 E34.6156
G1 X73.062 Y131.546 E34.6925
G1 X72.288 Y131.230 E34.7601
G1 X71.526 Y130.891 E34.8276
G1 X70.877 Y130.579 E34.8857
G1 X70.043 Y130.149 E34.9616
G1 X69.327 Y129.747 E35.0279
G1 X68.628 Y129.326 E35.0939
G1 X68.039 Y128.944 E35.1506
G1 X67.292 Y128.426 E35.2241
G1 X66.657 Y127.951 E35.2882
G1 X66.045 Y127.458 E35.3517
G1 X65.536 Y127.017 E35.4061
G1 X64.866 Y126.397 E35.4799
G1 X64.298 Y125.823 E35.5452
G1 X63.753 Y125.227 E35.6104
G1 X63.235 Y124.610 E35.6755
G1 X62.810 Y124.056 E35.7320
G1 X62.287 Y123.315 E35.8053
G1 X61.860 Y122.641 E35.8698
G1 X61.467 Y121.949 E35.9341
G1 X61.080 Y121.179 E36.0038
G1 X60.756 Y120.440 E36.0690
G1 X60.463 Y119.662 E36.1361
G1 X60.219 Y118.887 E36.2019
G1 X60.022 Y118.114 E36.2663
G1 X59.870 Y117.346 E36.3296
G1 X59.776 Y116.685 E36.3835
G1 X59.696 Y115.800 E36.4553
G1 X59.673 Y115.000 E36.5200
G1 X59.696 Y114.200 E36.5848
G1 X59.776 Y113.315 E36.6566
G1 X59.870 Y112.654 E36.7105
G1 X60.022 Y111.886 E36.7738
G1 X60.219 Y111.113 E36.8382
G1 X60.463 Y110.338 E36.9040
G1 X60.756 Y109.560 E36.9711
G1 X61.080 Y108.821 E37.0363
G1 X61.467 Y108.051 E37.1060
G1 X61.860 Y107.359 E37.1703
G1 X62.287 Y106.684 E37.2349
G1 X62.746 Y106.027 E37.2996
G1 X63.236 Y105.390 E37.3646
G1 X63.753 Y104.773 E37.4297
G1 X64.298 Y104.177 E37.4949
G1 X64.867 Y103.603 E37.5602
G1 X65.459 Y103.050 E37.6257
G1 X66.126 Y102.477 E37.6968
G1 X66.657 Y102.050 E37.7518
G1 X67.292 Y101.573 E37.8160
G1 X67.950 Y101.115 E37.8808
G1 X68.628 Y100.674 E37.9462
G1 X69.327 Y100.253 E38.0122
G1 X70.044 Y99.851 E38.0786
G1 X70.777 Y99.470 E38.1454
