; G-Code generated by Simplify3D(R) Version 4.1.2
; Oct 8, 2024 at 3:14:21 PM
; Settings Summary
;   processName,HQ - 10% Fill Fast - Z50
;   applyToModels,Phone Stand A V2 - iPhone 15
;   profileName,Creality Ender 3 Pro
;   profileVersion,2019-04-06 08:00:00
;   baseProfile,
;   printMaterial,PLA
;   printQuality,High
;   printExtruders,
;   extruderName,Primary Extruder
;   extruderToolheadNumber,0
;   extruderDiameter,0.4
;   extruderAutoWidth,0
;   extruderWidth,0.48
;   extrusionMultiplier,0.9
;   extruderUseRetract,1
;   extruderRetractionDistance,4
;   extruderExtraRestartDistance,0
;   extruderRetractionZLift,0
;   extruderRetractionSpeed,2400
;   extruderUseCoasting,0
;   extruderCoastingDistance,0.2
;   extruderUseWipe,0
;   extruderWipeDistance,5
;   primaryExtruder,0
;   layerHeight,0.2
;   topSolidLayers,4
;   bottomSolidLayers,4
;   perimeterOutlines,3
;   printPerimetersInsideOut,1
;   startPointOption,2
;   startPointOriginX,0
;   startPointOriginY,0
;   sequentialIslands,0
;   spiralVaseMode,0
;   firstLayerHeightPercentage,120
;   firstLayerWidthPercentage,150
;   firstLayerUnderspeed,0.5
;   useRaft,0
;   raftExtruder,0
;   raftTopLayers,3
;   raftBaseLayers,2
;   raftOffset,3
;   raftSeparationDistance,0.14
;   raftTopInfill,100
;   aboveRaftSpeedMultiplier,0.3
;   useSkirt,1
;   skirtExtruder,0
;   skirtLayers,2
;   skirtOutlines,1
;   skirtOffset,4
;   usePrimePillar,0
;   primePillarExtruder,999
;   primePillarWidth,12
;   primePillarLocation,7
;   primePillarSpeedMultiplier,1
;   useOozeShield,0
;   oozeShieldExtruder,999
;   oozeShieldOffset,2
;   oozeShieldOutlines,1
;   oozeShieldSidewallShape,1
;   oozeShieldSidewallAngle,30
;   oozeShieldSpeedMultiplier,1
;   infillExtruder,0
;   internalInfillPattern,Rectilinear
;   externalInfillPattern,Rectilinear
;   infillPercentage,10
;   outlineOverlapPercentage,15
;   infillExtrusionWidthPercentage,100
;   minInfillLength,5
;   infillLayerInterval,1
;   internalInfillAngles,45,-45
;   overlapInternalInfillAngles,0
;   externalInfillAngles,45,-45
;   generateSupport,0
;   supportExtruder,0
;   supportInfillPercentage,40
;   supportExtraInflation,0
;   supportBaseLayers,0
;   denseSupportExtruder,0
;   denseSupportLayers,0
;   denseSupportInfillPercentage,70
;   supportLayerInterval,1
;   supportHorizontalPartOffset,0.3
;   supportUpperSeparationLayers,1
;   supportLowerSeparationLayers,1
;   supportType,0
;   supportGridSpacing,4
;   maxOverhangAngle,45
;   supportAngles,0
;   temperatureName,Primary Extruder,Heated Bed
;   temperatureNumber,0,0
;   temperatureSetpointCount,1,1
;   temperatureSetpointLayers,1,1
;   temperatureSetpointTemperatures,210,60
;   temperatureStabilizeAtStartup,1,1
;   temperatureHeatedBed,0,1
;   fanLayers,1,2
;   fanSpeeds,0,100
;   blipFanToFullPower,0
;   adjustSpeedForCooling,1
;   minSpeedLayerTime,15
;   minCoolingSpeedSlowdown,20
;   increaseFanForCooling,0
;   minFanLayerTime,45
;   maxCoolingFanSpeed,100
;   increaseFanForBridging,0
;   bridgingFanSpeed,100
;   use5D,1
;   relativeEdistances,0
;   allowEaxisZeroing,1
;   independentExtruderAxes,0
;   includeM10123,0
;   stickySupport,1
;   applyToolheadOffsets,0
;   gcodeXoffset,0
;   gcodeYoffset,0
;   gcodeZoffset,0
;   overrideMachineDefinition,1
;   machineTypeOverride,0
;   strokeXoverride,220
;   strokeYoverride,220
;   strokeZoverride,250
;   originOffsetXoverride,-5
;   originOffsetYoverride,-5
;   originOffsetZoverride,0
;   homeXdirOverride,-1
;   homeYdirOverride,-1
;   homeZdirOverride,-1
;   flipXoverride,1
;   flipYoverride,-1
;   flipZoverride,1
;   toolheadOffsets,0,0|0,0|0,0|0,0|0,0|0,0
;   overrideFirmwareConfiguration,1
;   firmwareTypeOverride,RepRap (Marlin/Repetier/Sprinter)
;   GPXconfigOverride,r2
;   baudRateOverride,115200
;   overridePrinterModels,1
;   printerModelsOverride
;   startingGcode,G28 ; home all axes,G1 X5 Y10 Z0.2 F3000 ; get ready to prime,G92 E0 ; reset extrusion distance,G1 X160 E15 F600 ; prime nozzle,G1 X180 F5000 ; quick wipe
;   layerChangeGcode,
;   retractionGcode,
;   toolChangeGcode,
;   endingGcode,G28 X0 ; home X axis,G91 ; relative positioning,G0 Z+50.0 ; z axis up 50mm,M106 S0 ; turn off cooling fan,M104 S0 ; turn off extruder,M140 S0 ; turn off bed,M84 ; disable motors
;   exportFileFormat,gcode
;   celebration,0
;   celebrationSong,Random Song
;   postProcessing,
;   defaultSpeed,3400
;   outlineUnderspeed,0.5
;   solidInfillUnderspeed,0.8
;   supportUnderspeed,0.8
;   rapidXYspeed,4800
;   rapidZspeed,1000
;   minBridgingArea,50
;   bridgingExtraInflation,0
;   bridgingExtrusionMultiplier,1
;   bridgingSpeedMultiplier,1
;   useFixedBridgingAngle,0
;   fixedBridgingAngle,0
;   applyBridgingToPerimeters,0
;   filamentDiameters,1.75|1.75|1.75|1.75|1.75|1.75
;   filamentPricesPerKg,46|46|46|46|46|46
;   filamentDensities,1.25|1.25|1.25|1.25|1.25|1.25
;   useMinPrintHeight,0
;   minPrintHeight,0
;   useMaxPrintHeight,0
;   maxPrintHeight,0
;   useDiaphragm,0
;   diaphragmLayerInterval,20
;   robustSlicing,1
;   mergeAllIntoSolid,0
;   onlyRetractWhenCrossingOutline,1
;   retractBetweenLayers,1
;   useRetractionMinTravel,0
;   retractionMinTravel,3
;   retractWhileWiping,0
;   onlyWipeOutlines,1
;   avoidCrossingOutline,0
;   maxMovementDetourFactor,3
;   toolChangeRetractionDistance,12
;   toolChangeExtraRestartDistance,-0.5
;   toolChangeRetractionSpeed,600
;   externalThinWallType,0
;   internalThinWallType,2
;   thinWallAllowedOverlapPercentage,10
;   singleExtrusionMinLength,1
;   singleExtrusionMinPrintingWidthPercentage,50
;   singleExtrusionMaxPrintingWidthPercentage,200
;   singleExtrusionEndpointExtension,0.2
;   horizontalSizeCompensation,0
G90
M82
M106 S0
M140 S60
M190 S60
M104 S210 T0
M109 S210 T0
G28 ; home all axes
G1 X5 Y10 Z0.2 F3000 ; get ready to prime
G92 E0 ; reset extrusion distance
G1 X160 E15 F600 ; prime nozzle
G1 X180 F5000 ; quick wipe
; process HQ - 10% Fill Fast - Z50
; layer 1, Z = 0.240
T0
G92 E0.0000
G1 E-4.0000 F2400
; feature skirt
; tool H0.240 W0.720
G1 Z0.240 F1000
G1 X66.187 Y58.427 F4800
G1 E0.0000 F2400
G92 E0.0000
G1 X66.698 Y57.978 E0.0440 F1700
G1 X67.522 Y57.456 E0.1071
G1 X68.207 Y57.169 E0.1551
G1 X69.235 Y56.934 E0.2233
G1 X69.724 Y56.878 E0.2551
G1 X160.276 Y56.878 E6.1099
G1 X160.765 Y56.934 E6.1418
G1 X161.793 Y57.169 E6.2100
G1 X162.478 Y57.456 E6.2580
G1 X163.302 Y57.978 E6.3211
G1 X163.813 Y58.427 E6.3650
G1 X164.419 Y59.155 E6.4263
G1 X164.772 Y59.751 E6.4711
G1 X165.095 Y60.566 E6.5277
G1 X165.226 Y61.062 E6.5609
G1 X165.308 Y61.637 E6.5985
G1 X165.330 Y61.946 E6.6185
G1 X165.330 Y80.620 E7.8259
G1 X165.295 Y81.012 E7.8514
G1 X165.150 Y81.805 E7.9035
G1 X164.915 Y82.466 E7.9488
G1 X164.450 Y83.315 E8.0115
G1 X164.028 Y83.859 E8.0559
G1 X163.286 Y84.557 E8.1218
G1 X162.663 Y84.968 E8.1701
G1 X161.642 Y85.415 E8.2422
G1 X160.866 Y85.597 E8.2937
G1 X159.878 Y85.645 E8.3577
G1 X159.772 Y85.647 E8.3645
G1 X156.129 Y85.647 E8.6000
G1 X156.022 Y85.645 E8.6070
G1 X155.002 Y85.594 E8.6730
G1 X154.159 Y85.381 E8.7292
G1 X153.039 Y84.843 E8.8096
G1 X152.420 Y84.401 E8.8587
G1 X151.788 Y83.755 E8.9172
G1 X151.430 Y83.274 E8.9559
G1 X150.987 Y82.465 E9.0156
G1 X150.753 Y81.807 E9.0607
G1 X150.609 Y81.021 E9.1124
G1 X150.573 Y80.638 E9.1372
G1 X150.570 Y80.068 E9.1741
G1 X150.570 Y80.058 E9.1748
G1 X150.560 Y71.130 E9.7520
G1 X136.663 Y71.137 E10.6506
G1 X136.657 Y100.765 E12.5663
G1 X154.685 Y100.760 E13.7319
G1 X154.989 Y100.781 E13.7516
G1 X155.951 Y100.916 E13.8144
G1 X156.307 Y100.997 E13.8380
G1 X157.017 Y101.222 E13.8862
G1 X157.516 Y101.452 E13.9217
G1 X158.002 Y101.756 E13.9588
G1 X158.103 Y101.823 E13.9666
G1 X158.546 Y102.135 E14.0017
G1 X159.050 Y102.628 E14.0472
G1 X159.684 Y103.489 E14.1164
G1 X160.060 Y104.311 E14.1748
G1 X160.262 Y105.209 E14.2343
G1 X160.316 Y105.690 E14.2656
G1 X160.315 Y121.204 E15.2687
G1 X160.315 Y121.219 E15.2697
G1 X160.311 Y121.782 E15.3061
G1 X160.237 Y122.331 E15.3419
G1 X159.998 Y123.228 E15.4019
G1 X159.595 Y124.030 E15.4600
G1 X158.890 Y124.918 E15.5333
G1 X158.278 Y125.449 E15.5857
G1 X157.260 Y126.045 E15.6619
G1 X156.671 Y126.283 E15.7030
G1 X155.940 Y126.461 E15.7516
G1 X155.673 Y126.509 E15.7692
G1 X154.872 Y126.600 E15.8213
G1 X154.623 Y126.614 E15.8374
G1 X136.655 Y126.611 E16.9992
G1 X136.645 Y167.876 E19.6673
G1 X136.641 Y168.010 E19.6760
G1 X136.606 Y168.580 E19.7129
G1 X136.504 Y169.117 E19.7482
G1 X136.240 Y169.938 E19.8040
G1 X135.956 Y170.511 E19.8454
G1 X135.456 Y171.235 E19.9022
G1 X135.036 Y171.688 E19.9422
G1 X134.368 Y172.232 E19.9979
G1 X133.835 Y172.552 E20.0381
G1 X133.061 Y172.877 E20.0924
G1 X132.484 Y173.032 E20.1310
G1 X131.886 Y173.107 E20.1699
G1 X131.615 Y173.124 E20.1875
G1 X98.385 Y173.124 E22.3361
G1 X98.114 Y173.107 E22.3536
G1 X97.516 Y173.032 E22.3926
G1 X96.939 Y172.877 E22.4312
G1 X96.165 Y172.552 E22.4855
G1 X95.632 Y172.232 E22.5257
G1 X94.963 Y171.688 E22.5814
G1 X94.544 Y171.235 E22.6214
G1 X94.044 Y170.511 E22.6782
G1 X93.760 Y169.938 E22.7196
G1 X93.496 Y169.117 E22.7754
G1 X93.394 Y168.580 E22.8107
G1 X93.359 Y168.010 E22.8476
G1 X93.355 Y167.876 E22.8563
G1 X93.345 Y126.611 E25.5244
G1 X75.377 Y126.614 E26.6861
G1 X75.128 Y126.600 E26.7022
G1 X74.327 Y126.509 E26.7544
G1 X74.060 Y126.461 E26.7719
G1 X73.319 Y126.281 E26.8212
G1 X72.713 Y126.032 E26.8636
G1 X71.616 Y125.377 E26.9462
G1 X70.956 Y124.770 E27.0042
G1 X70.334 Y123.902 E27.0732
G1 X70.003 Y123.214 E27.1226
G1 X69.786 Y122.436 E27.1748
G1 X69.705 Y121.899 E27.2099
G1 X69.685 Y121.092 E27.2621
G1 X69.685 Y121.038 E27.2656
G1 X69.684 Y105.690 E28.2580
G1 X69.738 Y105.209 E28.2893
G1 X69.940 Y104.311 E28.3488
G1 X70.316 Y103.489 E28.4072
G1 X70.950 Y102.628 E28.4764
G1 X71.453 Y102.135 E28.5219
G1 X71.897 Y101.823 E28.5570
G1 X71.998 Y101.756 E28.5648
G1 X72.484 Y101.452 E28.6019
G1 X72.983 Y101.222 E28.6374
G1 X73.693 Y100.997 E28.6856
G1 X74.049 Y100.916 E28.7092
G1 X75.011 Y100.781 E28.7720
G1 X75.315 Y100.760 E28.7917
G1 X93.343 Y100.765 E29.9573
G1 X93.337 Y71.137 E31.8730
G1 X79.440 Y71.130 E32.7716
G1 X79.430 Y80.058 E33.3488
G1 X79.430 Y80.068 E33.3494
G1 X79.427 Y80.638 E33.3863
G1 X79.391 Y81.021 E33.4112
G1 X79.247 Y81.807 E33.4629
G1 X79.013 Y82.465 E33.5080
G1 X78.569 Y83.274 E33.5677
G1 X78.212 Y83.755 E33.6064
G1 X77.580 Y84.401 E33.6648
G1 X76.961 Y84.843 E33.7140
G1 X75.841 Y85.381 E33.7943
G1 X74.998 Y85.594 E33.8506
G1 X73.978 Y85.645 E33.9166
G1 X73.871 Y85.647 E33.9236
G1 X70.228 Y85.647 E34.1591
G1 X70.122 Y85.645 E34.1659
G1 X69.134 Y85.597 E34.2299
G1 X68.358 Y85.415 E34.2814
G1 X67.337 Y84.968 E34.3535
G1 X66.715 Y84.557 E34.4017
G1 X65.972 Y83.859 E34.4676
G1 X65.550 Y83.315 E34.5121
G1 X65.084 Y82.465 E34.5748
G1 X64.850 Y81.805 E34.6201
G1 X64.705 Y81.012 E34.6722
G1 X64.670 Y80.619 E34.6977
G1 X64.673 Y61.727 E35.9192
G1 X64.775 Y61.067 E35.9624
G1 X65.125 Y59.960 E36.0375
G1 X65.532 Y59.215 E36.0923
G1 X66.187 Y58.427 E36.1586
G92 E0.0000
G1 E-4.0000 F2400
; feature inner perimeter
G1 X71.191 Y63.366 F4800
G1 E0.0000 F2400
G92 E0.0000
G1 X154.489 Y63.374 E5.3859 F1275
G1 X158.812 Y63.364 E5.6654
G1 X158.803 Y65.151 E5.7810
G1 X158.812 Y79.154 E6.6863
G1 X157.088 Y79.156 E6.7978
G1 X157.099 Y71.439 E7.2968
G1 X157.079 Y67.976 E7.5207
G1 X156.949 Y67.395 E7.5592
G1 X156.763 Y66.910 E7.5928
G1 X156.520 Y66.466 E7.6256
G1 X156.221 Y66.059 E7.6581
G1 X155.872 Y65.694 E7.6909
G1 X155.450 Y65.354 E7.7258
G1 X155.034 Y65.120 E7.7567
G1 X154.609 Y64.912 E7.7873
G1 X154.099 Y64.754 E7.8219
G1 X153.601 Y64.663 E7.8546
G1 X153.154 Y64.637 E7.8835
G1 X130.144 Y64.639 E9.3713
G1 X130.172 Y67.866 E9.5800
G1 X130.159 Y69.942 E9.7142
G1 X130.163 Y107.232 E12.1253
G1 X150.554 Y107.236 E13.4437
G1 X152.519 Y107.224 E13.5707
G1 X153.578 Y107.241 E13.6392
G1 X153.569 Y110.340 E13.8395
G1 X153.580 Y120.147 E14.4736
G1 X130.163 Y120.145 E15.9877
G1 X130.159 Y147.381 E17.7488
G1 X130.178 Y150.793 E17.9694
G1 X130.180 Y166.637 E18.9938
G1 X99.820 Y166.638 E20.9569
G1 X99.822 Y150.793 E21.9813
G1 X99.841 Y147.381 E22.2020
G1 X99.837 Y120.145 E23.9630
G1 X76.420 Y120.147 E25.4771
G1 X76.431 Y110.338 E26.1113
G1 X76.422 Y107.241 E26.3115
G1 X77.481 Y107.224 E26.3800
G1 X79.446 Y107.236 E26.5070
G1 X99.837 Y107.232 E27.8255
G1 X99.841 Y69.942 E30.2365
G1 X99.828 Y67.867 E30.3707
G1 X99.856 Y64.639 E30.5794
G1 X76.846 Y64.637 E32.0672
G1 X76.399 Y64.663 E32.0961
G1 X75.902 Y64.754 E32.1288
G1 X75.391 Y64.912 E32.1634
G1 X74.967 Y65.120 E32.1940
G1 X74.550 Y65.354 E32.2249
G1 X74.128 Y65.694 E32.2599
G1 X73.779 Y66.059 E32.2926
G1 X73.480 Y66.466 E32.3252
G1 X73.237 Y66.910 E32.3579
G1 X73.051 Y67.395 E32.3915
G1 X72.921 Y67.976 E32.4300
G1 X72.901 Y71.439 E32.6539
G1 X72.912 Y79.158 E33.1530
G1 X71.188 Y79.158 E33.2645
G1 X71.197 Y65.151 E34.1702
G1 X71.191 Y63.366 E34.2856
G1 X70.469 Y62.646 F4800
G92 E0.0000
G1 X154.488 Y62.654 E5.4325 F1275
G1 X159.535 Y62.642 E5.7589
G1 X159.523 Y65.153 E5.9212
G1 X159.533 Y79.873 E6.8729
G1 X156.367 Y79.877 E7.0777
G1 X156.379 Y71.440 E7.6232
G1 X156.360 Y68.058 E7.8419
G1 X156.258 Y67.604 E7.8720
G1 X156.108 Y67.213 E7.8990
G1 X155.911 Y66.853 E7.9255
G1 X155.669 Y66.523 E7.9520
G1 X155.384 Y66.225 E7.9787
G1 X155.045 Y65.953 E8.0068
G1 X154.699 Y65.758 E8.0325
G1 X154.342 Y65.583 E8.0582
G1 X153.927 Y65.454 E8.0863
G1 X153.515 Y65.380 E8.1133
G1 X153.133 Y65.357 E8.1381
G1 X130.871 Y65.359 E9.5775
G1 X130.892 Y67.866 E9.7396
G1 X130.879 Y69.944 E9.8740
G1 X130.883 Y106.512 E12.2384
G1 X150.552 Y106.516 E13.5101
G1 X152.523 Y106.504 E13.6376
G1 X153.442 Y106.519 E13.6970
G1 X153.801 Y106.594 E13.7207
G1 X154.300 Y106.490 E13.7537
G1 X154.289 Y110.340 E14.0026
G1 X154.301 Y120.867 E14.6833
G1 X130.883 Y120.865 E16.1974
G1 X130.879 Y147.379 E17.9118
G1 X130.898 Y150.791 E18.1324
G1 X130.901 Y167.357 E19.2035
G1 X99.099 Y167.358 E21.2597
G1 X99.102 Y150.791 E22.3308
G1 X99.121 Y147.379 E22.5515
G1 X99.117 Y120.865 E24.2658
G1 X75.699 Y120.867 E25.7799
G1 X75.711 Y110.339 E26.4607
G1 X75.700 Y106.490 E26.7096
G1 X76.199 Y106.594 E26.7425
G1 X76.558 Y106.519 E26.7662
G1 X77.477 Y106.504 E26.8257
G1 X79.448 Y106.516 E26.9531
G1 X99.117 Y106.512 E28.2248
G1 X99.121 Y69.944 E30.5892
G1 X99.108 Y67.866 E30.7236
G1 X99.129 Y65.359 E30.8857
G1 X76.867 Y65.357 E32.3252
G1 X76.485 Y65.380 E32.3499
G1 X76.073 Y65.454 E32.3769
G1 X75.658 Y65.583 E32.4051
G1 X75.302 Y65.758 E32.4307
G1 X74.954 Y65.953 E32.4565
G1 X74.616 Y66.225 E32.4846
G1 X74.331 Y66.523 E32.5112
G1 X74.089 Y66.853 E32.5377
G1 X73.892 Y67.213 E32.5642
G1 X73.742 Y67.604 E32.5913
G1 X73.640 Y68.058 E32.6214
G1 X73.621 Y71.440 E32.8400
G1 X73.633 Y79.878 E33.3856
G1 X70.467 Y79.878 E33.5903
G1 X70.477 Y65.152 E34.5425
G1 X70.469 Y62.646 E34.7045
; feature outer perimeter
G1 X69.992 Y61.925 F4800
G92 E0.0000
G1 X154.488 Y61.934 E5.4633 F850
G1 X159.691 Y61.922 E5.7997
G1 X160.006 Y61.925 E5.8201
G1 X160.072 Y61.933 E5.8244
G1 X160.179 Y61.992 E5.8323
G1 X160.241 Y62.075 E5.8389
G1 X160.253 Y62.138 E5.8431
G1 X160.256 Y62.482 E5.8654
G1 X160.243 Y65.153 E6.0381
G1 X160.253 Y80.375 E7.0223
G1 X160.222 Y80.491 E7.0300
G1 X160.152 Y80.552 E7.0360
G1 X160.070 Y80.588 E7.0418
G1 X160.047 Y80.592 E7.0434
G1 X155.903 Y80.598 E7.3113
G1 X155.824 Y80.584 E7.3165
G1 X155.753 Y80.553 E7.3215
G1 X155.678 Y80.486 E7.3280
G1 X155.649 Y80.375 E7.3354
G1 X155.646 Y80.047 E7.3566
G1 X155.659 Y71.443 E7.9129
G1 X155.640 Y68.140 E8.1265
G1 X155.567 Y67.813 E8.1482
G1 X155.453 Y67.516 E8.1687
G1 X155.302 Y67.241 E8.1890
G1 X155.116 Y66.987 E8.2094
G1 X154.896 Y66.757 E8.2300
