; G-Code generated by Simplify3D(R) Version 4.1.2
; Oct 24, 2024 at 2:04:48 PM
; Settings Summary
;   processName,Gen. - X<50% - Fill[SPEED] Y - ZZ
;   applyToModels,1-Boat
;   profileName,Creality Ender 3 Pro
;   profileVersion,2019-04-06 08:00:00
;   baseProfile,
;   printMaterial,PLA
;   printQuality,High
;   printExtruders,
;   extruderName,Primary Extruder
;   extruderToolheadNumber,0
;   extruderDiameter,0.4
;   extruderAutoWidth,1
;   extruderWidth,0.48
;   extrusionMultiplier,0.9
;   extruderUseRetract,1
;   extruderRetractionDistance,4
;   extruderExtraRestartDistance,0
;   extruderRetractionZLift,0
;   extruderRetractionSpeed,3600
;   extruderUseCoasting,0
;   extruderCoastingDistance,0.2
;   extruderUseWipe,0
;   extruderWipeDistance,5
;   primaryExtruder,0
;   layerHeight,0.2
;   topSolidLayers,3
;   bottomSolidLayers,3
;   perimeterOutlines,2
;   printPerimetersInsideOut,0
;   startPointOption,2
;   startPointOriginX,0
;   startPointOriginY,0
;   sequentialIslands,0
;   spiralVaseMode,0
;   firstLayerHeightPercentage,120
;   firstLayerWidthPercentage,150
;   firstLayerUnderspeed,0.5
;   useRaft,0
;   raftExtruder,0
;   raftTopLayers,3
;   raftBaseLayers,2
;   raftOffset,3
;   raftSeparationDistance,0.14
;   raftTopInfill,100
;   aboveRaftSpeedMultiplier,0.3
;   useSkirt,0
;   skirtExtruder,0
;   skirtLayers,2
;   skirtOutlines,1
;   skirtOffset,4
;   usePrimePillar,0
;   primePillarExtruder,999
;   primePillarWidth,12
;   primePillarLocation,7
;   primePillarSpeedMultiplier,1
;   useOozeShield,0
;   oozeShieldExtruder,999
;   oozeShieldOffset,2
;   oozeShieldOutlines,1
;   oozeShieldSidewallShape,1
;   oozeShieldSidewallAngle,30
;   oozeShieldSpeedMultiplier,1
;   infillExtruder,0
;   internalInfillPattern,Rectilinear
;   externalInfillPattern,Rectilinear
;   infillPercentage,25
;   outlineOverlapPercentage,15
;   infillExtrusionWidthPercentage,100
;   minInfillLength,5
;   infillLayerInterval,1
;   internalInfillAngles,45,-45
;   overlapInternalInfillAngles,0
;   externalInfillAngles,45,-45
;   generateSupport,0
;   supportExtruder,0
;   supportInfillPercentage,40
;   supportExtraInflation,0
;   supportBaseLayers,0
;   denseSupportExtruder,0
;   denseSupportLayers,0
;   denseSupportInfillPercentage,70
;   supportLayerInterval,1
;   supportHorizontalPartOffset,0.3
;   supportUpperSeparationLayers,1
;   supportLowerSeparationLayers,1
;   supportType,0
;   supportGridSpacing,4
;   maxOverhangAngle,45
;   supportAngles,0
;   temperatureName,Primary Extruder,Heated Bed
;   temperatureNumber,0,0
;   temperatureSetpointCount,1,1
;   temperatureSetpointLayers,1,1
;   temperatureSetpointTemperatures,200,60
;   temperatureStabilizeAtStartup,1,1
;   temperatureHeatedBed,0,1
;   fanLayers,1,2
;   fanSpeeds,0,100
;   blipFanToFullPower,0
;   adjustSpeedForCooling,1
;   minSpeedLayerTime,15
;   minCoolingSpeedSlowdown,20
;   increaseFanForCooling,0
;   minFanLayerTime,45
;   maxCoolingFanSpeed,100
;   increaseFanForBridging,0
;   bridgingFanSpeed,100
;   use5D,1
;   relativeEdistances,0
;   allowEaxisZeroing,1
;   independentExtruderAxes,0
;   includeM10123,0
;   stickySupport,1
;   applyToolheadOffsets,0
;   gcodeXoffset,0
;   gcodeYoffset,0
;   gcodeZoffset,0
;   overrideMachineDefinition,1
;   machineTypeOverride,0
;   strokeXoverride,220
;   strokeYoverride,220
;   strokeZoverride,250
;   originOffsetXoverride,-5
;   originOffsetYoverride,-5
;   originOffsetZoverride,0
;   homeXdirOverride,-1
;   homeYdirOverride,-1
;   homeZdirOverride,-1
;   flipXoverride,1
;   flipYoverride,-1
;   flipZoverride,1
;   toolheadOffsets,0,0|0,0|0,0|0,0|0,0|0,0
;   overrideFirmwareConfiguration,1
;   firmwareTypeOverride,RepRap (Marlin/Repetier/Sprinter)
;   GPXconfigOverride,r2
;   baudRateOverride,115200
;   overridePrinterModels,1
;   printerModelsOverride
;   startingGcode,G28 ; home all axes,G1 X5 Y10 Z0.2 F3000 ; get ready to prime,G92 E0 ; reset extrusion distance,G1 X160 E15 F600 ; prime nozzle,G1 X180 F5000 ; quick wipe
;   layerChangeGcode,
;   retractionGcode,
;   toolChangeGcode,
;   endingGcode,G28 X0 ; home X axis,G91 ; relative positioning,G0 Z+50.0 ; z axis up 50mm,M106 S0 ; turn off cooling fan,M104 S0 ; turn off extruder,M140 S0 ; turn off bed,M84 ; disable motors
;   exportFileFormat,gcode
;   celebration,0
;   celebrationSong,Random Song
;   postProcessing,
;   defaultSpeed,3600
;   outlineUnderspeed,0.5
;   solidInfillUnderspeed,0.8
;   supportUnderspeed,0.8
;   rapidXYspeed,2400
;   rapidZspeed,1000
;   minBridgingArea,50
;   bridgingExtraInflation,0
;   bridgingExtrusionMultiplier,1
;   bridgingSpeedMultiplier,1
;   useFixedBridgingAngle,0
;   fixedBridgingAngle,0
;   applyBridgingToPerimeters,0
;   filamentDiameters,1.75|1.75|1.75|1.75|1.75|1.75
;   filamentPricesPerKg,46|46|46|46|46|46
;   filamentDensities,1.25|1.25|1.25|1.25|1.25|1.25
;   useMinPrintHeight,0
;   minPrintHeight,0
;   useMaxPrintHeight,0
;   maxPrintHeight,0
;   useDiaphragm,0
;   diaphragmLayerInterval,20
;   robustSlicing,1
;   mergeAllIntoSolid,0
;   onlyRetractWhenCrossingOutline,1
;   retractBetweenLayers,1
;   useRetractionMinTravel,0
;   retractionMinTravel,3
;   retractWhileWiping,0
;   onlyWipeOutlines,1
;   avoidCrossingOutline,0
;   maxMovementDetourFactor,3
;   toolChangeRetractionDistance,12
;   toolChangeExtraRestartDistance,-0.5
;   toolChangeRetractionSpeed,600
;   externalThinWallType,0
;   internalThinWallType,2
;   thinWallAllowedOverlapPercentage,10
;   singleExtrusionMinLength,1
;   singleExtrusionMinPrintingWidthPercentage,50
;   singleExtrusionMaxPrintingWidthPercentage,200
;   singleExtrusionEndpointExtension,0.2
;   horizontalSizeCompensation,0
G90
M82
M106 S0
M140 S60
M190 S60
M104 S200 T0
M109 S200 T0
G28 ; home all axes
G1 X5 Y10 Z0.2 F3000 ; get ready to prime
G92 E0 ; reset extrusion distance
G1 X160 E15 F600 ; prime nozzle
G1 X180 F5000 ; quick wipe
; process Gen. - X<50% - Fill[SPEED] Y - ZZ
; layer 1, Z = 0.240
T0
G92 E0.0000
G1 E-4.0000 F3600
; feature outer perimeter
; tool H0.240 W0.720
G1 Z0.240 F1000
G1 X89.975 Y109.005 F2400
G1 E0.0000 F3600
G92 E0.0000
G1 X90.135 Y108.893 E0.0126 F900
G1 X90.274 Y108.821 E0.0227
G1 X90.388 Y108.776 E0.0307
G1 X90.583 Y108.724 E0.0437
G1 X90.800 Y108.697 E0.0578
G1 X114.180 Y107.273 E1.5723
G1 X115.008 Y107.247 E1.6259
G1 X115.562 Y107.255 E1.6617
G1 X116.112 Y107.285 E1.6973
G1 X117.102 Y107.392 E1.7618
G1 X117.997 Y107.548 E1.8205
G1 X118.967 Y107.784 E1.8850
G1 X119.875 Y108.069 E1.9465
G1 X120.684 Y108.380 E2.0026
G1 X121.156 Y108.588 E2.0360
G1 X121.663 Y108.835 E2.0724
G1 X122.382 Y109.227 E2.1254
G1 X123.271 Y109.789 E2.1934
G1 X124.003 Y110.323 E2.2520
G1 X124.441 Y110.679 E2.2885
G1 X124.847 Y111.035 E2.3234
G1 X125.454 Y111.621 E2.3779
G1 X125.830 Y112.020 E2.4133
G1 X126.214 Y112.461 E2.4512
G1 X126.672 Y113.037 E2.4988
G1 X127.036 Y113.541 E2.5389
G1 X127.375 Y114.057 E2.5789
G1 X127.647 Y114.510 E2.6130
G1 X127.715 Y114.652 E2.6232
G1 X127.755 Y114.779 E2.6318
G1 X127.779 Y114.925 E2.6414
G1 X127.780 Y115.059 E2.6500
G1 X127.764 Y115.181 E2.6580
G1 X127.715 Y115.345 E2.6690
G1 X127.646 Y115.492 E2.6796
G1 X127.467 Y115.794 E2.7023
G1 X126.959 Y116.569 E2.7622
G1 X126.671 Y116.965 E2.7938
G1 X126.262 Y117.481 E2.8364
G1 X125.793 Y118.018 E2.8825
G1 X125.862 Y117.874 E2.8928
G1 X125.898 Y117.677 E2.9057
G1 X125.892 Y117.448 E2.9206
G1 X125.821 Y117.204 E2.9370
G1 X125.680 Y117.008 E2.9526
G1 X125.525 Y116.891 E2.9652
G1 X125.222 Y116.776 E2.9861
G1 X124.751 Y116.724 E3.0168
G1 X124.469 Y116.728 E3.0350
G1 X124.180 Y116.751 E3.0538
G1 X125.396 Y115.043 E3.1893
G1 X125.644 Y114.664 E3.2186
G1 X125.757 Y114.408 E3.2367
G1 X125.810 Y114.181 E3.2517
G1 X125.815 Y113.891 E3.2705
G1 X125.730 Y113.565 E3.2923
G1 X125.604 Y113.369 E3.3074
G1 X125.456 Y113.245 E3.3199
G1 X125.243 Y113.157 E3.3347
G1 X125.053 Y113.125 E3.3472
G1 X122.767 Y113.128 E3.4950
G1 X122.491 Y113.169 E3.5131
G1 X122.256 Y113.258 E3.5293
G1 X122.067 Y113.412 E3.5451
G1 X121.964 Y113.571 E3.5573
G1 X121.900 Y113.753 E3.5698
G1 X121.873 Y114.019 E3.5871
G1 X121.923 Y114.291 E3.6050
G1 X122.089 Y114.565 E3.6257
G1 X122.363 Y114.735 E3.6466
G1 X122.632 Y114.803 E3.6645
G1 X122.996 Y114.837 E3.6881
G1 X123.258 Y114.841 E3.7051
G1 X123.484 Y114.823 E3.7197
G1 X122.268 Y116.498 E3.8536
G1 X122.042 Y116.836 E3.8799
G1 X121.912 Y117.105 E3.8992
G1 X121.844 Y117.375 E3.9172
G1 X121.841 Y117.648 E3.9349
G1 X121.878 Y117.838 E3.9474
G1 X121.942 Y118.010 E3.9592
G1 X122.052 Y118.188 E3.9728
G1 X122.237 Y118.353 E3.9888
G1 X122.459 Y118.440 E4.0042
G1 X122.647 Y118.463 E4.0164
G1 X123.234 Y118.434 E4.0544
G1 X124.963 Y118.439 E4.1662
G1 X125.178 Y118.421 E4.1802
G1 X125.413 Y118.363 E4.1959
G1 X125.505 Y118.315 E4.2026
G1 X125.065 Y118.762 E4.2432
G1 X124.438 Y119.323 E4.2976
G1 X123.691 Y119.913 E4.3591
G1 X122.979 Y120.405 E4.4151
G1 X122.246 Y120.851 E4.4706
G1 X121.477 Y121.258 E4.5268
G1 X120.760 Y121.588 E4.5778
G1 X119.872 Y121.933 E4.6394
G1 X119.111 Y122.176 E4.6911
G1 X118.309 Y122.384 E4.7446
G1 X117.536 Y122.540 E4.7957
G1 X116.737 Y122.655 E4.8478
G1 X115.932 Y122.727 E4.9001
G1 X115.145 Y122.753 E4.9510
G1 X114.321 Y122.735 E5.0043
G1 X90.800 Y121.303 E6.5279
G1 X90.589 Y121.277 E6.5417
G1 X90.299 Y121.189 E6.5613
G1 X90.132 Y121.105 E6.5734
G1 X89.969 Y120.990 E6.5863
G1 X89.792 Y120.808 E6.6027
G1 X89.677 Y120.641 E6.6158
G1 X89.595 Y120.474 E6.6278
G1 X89.509 Y120.177 E6.6478
G1 X89.478 Y119.842 E6.6696
G1 X89.482 Y110.049 E7.3027
G1 X89.532 Y109.716 E7.3246
G1 X89.593 Y109.531 E7.3371
G1 X89.679 Y109.353 E7.3499
G1 X89.739 Y109.260 E7.3571
G1 X89.852 Y109.121 E7.3686
G1 X89.975 Y109.005 E7.3796
; feature inner perimeter
G1 X90.431 Y109.564 F2400
G92 E0.0000
G1 X90.509 Y109.510 E0.0061 F1350
G1 X90.572 Y109.477 E0.0107
G1 X90.614 Y109.461 E0.0136
G1 X90.721 Y109.432 E0.0208
G1 X90.866 Y109.414 E0.0302
G1 X114.213 Y107.992 E1.5426
G1 X115.013 Y107.967 E1.5944
G1 X115.537 Y107.975 E1.6283
G1 X116.054 Y108.002 E1.6617
G1 X117.002 Y108.105 E1.7234
G1 X117.850 Y108.253 E1.7790
G1 X118.774 Y108.478 E1.8406
G1 X119.638 Y108.749 E1.8990
G1 X120.409 Y109.046 E1.9525
G1 X120.854 Y109.241 E1.9839
G1 X121.333 Y109.475 E2.0183
G1 X122.017 Y109.848 E2.0687
G1 X122.866 Y110.385 E2.1337
G1 X123.564 Y110.894 E2.1896
G1 X123.977 Y111.230 E2.2240
G1 X124.359 Y111.565 E2.2568
G1 X125.229 Y112.405 E2.3350
G1 X122.714 Y112.408 E2.4977
G1 X122.308 Y112.468 E2.5242
G1 X121.735 Y112.687 E2.5639
G1 X121.381 Y112.488 E2.5901
G1 X120.927 Y112.388 E2.6202
G1 X120.495 Y112.444 E2.6483
G1 X120.054 Y112.658 E2.6800
G1 X119.589 Y113.141 E2.7234
G1 X119.133 Y112.731 E2.7630
G1 X118.822 Y112.548 E2.7863
G1 X118.358 Y112.415 E2.8176
G1 X118.006 Y112.399 E2.8403
G1 X117.689 Y112.450 E2.8611
G1 X117.372 Y112.570 E2.8830
G1 X117.169 Y112.717 E2.8992
G1 X116.551 Y112.412 E2.9438
G1 X115.957 Y112.402 E2.9822
G1 X115.427 Y112.631 E3.0195
G1 X115.222 Y112.801 E3.0367
G1 X114.675 Y112.493 E3.0773
G1 X114.324 Y112.404 E3.1008
G1 X113.989 Y112.401 E3.1224
G1 X113.663 Y112.466 E3.1439
G1 X113.370 Y112.592 E3.1645
G1 X113.098 Y112.772 E3.1856
G1 X112.842 Y113.045 E3.2098
G1 X112.624 Y113.481 E3.2413
G1 X112.582 Y113.936 E3.2709
G1 X112.628 Y114.270 E3.2927
G1 X112.762 Y114.667 E3.3198
G1 X113.310 Y115.654 E3.3928
G1 X112.155 Y115.314 E3.4706
G1 X111.691 Y115.284 E3.5007
G1 X111.701 Y114.981 E3.5203
G1 X111.679 Y114.407 E3.5574
G1 X111.628 Y113.993 E3.5844
G1 X111.477 Y113.356 E3.6267
G1 X111.352 Y113.020 E3.6499
G1 X111.211 Y112.722 E3.6712
G1 X111.047 Y112.441 E3.6922
G1 X110.859 Y112.179 E3.7131
G1 X110.644 Y111.933 E3.7342
G1 X110.359 Y111.674 E3.7591
G1 X110.102 Y111.491 E3.7796
G1 X109.806 Y111.326 E3.8015
G1 X109.269 Y111.132 E3.8384
G1 X108.607 Y111.012 E3.8819
G1 X108.003 Y110.970 E3.9211
G1 X106.568 Y110.956 E4.0138
G1 X106.105 Y111.035 E4.0442
G1 X105.709 Y111.209 E4.0722
G1 X105.405 Y111.445 E4.0970
G1 X105.151 Y111.805 E4.1255
G1 X104.793 Y111.447 E4.1582
G1 X104.551 Y111.259 E4.1781
G1 X104.281 Y111.102 E4.1982
G1 X103.980 Y110.976 E4.2193
G1 X103.627 Y110.877 E4.2430
G1 X103.277 Y110.819 E4.2660
G1 X102.707 Y110.788 E4.3029
G1 X102.285 Y110.816 E4.3302
G1 X101.910 Y110.879 E4.3548
G1 X101.527 Y110.989 E4.3806
G1 X101.098 Y111.185 E4.4111
G1 X100.813 Y111.387 E4.4337
G1 X100.480 Y111.123 E4.4612
G1 X100.049 Y110.989 E4.4903
G1 X99.757 Y110.961 E4.5093
G1 X96.516 Y110.976 E4.7189
G1 X95.880 Y110.928 E4.7601
G1 X95.329 Y111.000 E4.7960
G1 X94.627 Y111.428 E4.8492
G1 X94.267 Y111.196 E4.8769
G1 X94.002 Y111.061 E4.8961
G1 X93.706 Y110.949 E4.9166
G1 X93.387 Y110.865 E4.9379
G1 X93.045 Y110.814 E4.9603
G1 X92.694 Y110.792 E4.9830
G1 X92.247 Y110.804 E5.0120
G1 X91.644 Y110.904 E5.0514
G1 X91.308 Y111.011 E5.0742
G1 X91.008 Y111.138 E5.0953
G1 X90.716 Y111.297 E5.1168
G1 X90.201 Y111.658 E5.1575
G1 X90.202 Y110.104 E5.2580
G1 X90.235 Y109.883 E5.2724
G1 X90.262 Y109.802 E5.2779
G1 X90.314 Y109.694 E5.2857
G1 X90.381 Y109.612 E5.2925
G1 X90.431 Y109.564 E5.2970
G92 E0.0000
G1 E-4.0000 F3600
G1 X92.332 Y113.847 F2400
G1 E0.0000 F3600
G92 E0.0000
G1 X92.931 Y114.208 E0.0452 F1350
G1 X93.191 Y114.336 E0.0640
G1 X93.583 Y114.460 E0.0906
G1 X94.061 Y114.486 E0.1215
G1 X94.536 Y114.340 E0.1537
G1 X94.851 Y114.126 E0.1783
G1 X95.060 Y113.907 E0.1978
G1 X95.334 Y114.061 E0.2182
G1 X95.882 Y114.132 E0.2539
G1 X96.202 Y114.093 E0.2748
G1 X96.219 Y116.904 E0.4565
G1 X96.172 Y117.679 E0.5067
G1 X96.342 Y118.265 E0.5461
G1 X96.708 Y118.668 E0.5814
G1 X97.035 Y118.852 E0.6056
G1 X97.363 Y118.959 E0.6279
G1 X97.839 Y119.001 E0.6588
G1 X98.375 Y118.878 E0.6944
G1 X98.718 Y118.666 E0.7204
G1 X98.962 Y118.418 E0.7429
G1 X99.134 Y118.144 E0.7638
G1 X99.250 Y117.847 E0.7845
G1 X99.324 Y117.432 E0.8117
G1 X99.306 Y116.515 E0.8710
G1 X99.306 Y114.095 E1.0275
G1 X99.862 Y114.057 E1.0635
G1 X100.261 Y113.965 E1.0900
G1 X100.575 Y113.798 E1.1130
G1 X100.914 Y114.104 E1.1425
G1 X100.808 Y114.528 E1.1707
G1 X100.802 Y114.863 E1.1924
G1 X100.855 Y115.179 E1.2131
G1 X101.057 Y115.661 E1.2469
G1 X100.559 Y116.053 E1.2879
G1 X100.320 Y116.351 E1.3125
G1 X100.145 Y116.805 E1.3440
G1 X100.117 Y117.296 E1.3758
G1 X100.215 Y117.752 E1.4060
G1 X100.408 Y118.152 E1.4347
G1 X100.716 Y118.507 E1.4651
G1 X101.068 Y118.756 E1.4929
G1 X101.355 Y118.896 E1.5136
G1 X101.742 Y119.025 E1.5400
G1 X102.229 Y119.115 E1.5720
G1 X102.873 Y119.136 E1.6136
G1 X103.222 Y119.110 E1.6363
G1 X103.528 Y119.058 E1.6564
G1 X103.822 Y118.978 E1.6760
G1 X104.128 Y118.857 E1.6973
G1 X104.512 Y118.640 E1.7258
G1 X104.773 Y118.442 E1.7470
G1 X105.135 Y118.093 E1.7796
G1 X105.546 Y118.641 E1.8238
G1 X105.995 Y118.918 E1.8579
G1 X106.471 Y119.005 E1.8893
G1 X107.062 Y118.956 E1.9276
G1 X107.862 Y118.964 E1.9793
G1 X108.277 Y118.948 E2.0062
G1 X108.809 Y118.889 E2.0408
G1 X109.390 Y118.750 E2.0794
G1 X109.716 Y118.621 E2.1021
G1 X109.979 Y118.473 E2.1216
G1 X110.347 Y118.891 E2.1576
G1 X110.734 Y119.177 E2.1887
G1 X111.092 Y119.336 E2.2141
G1 X111.447 Y119.423 E2.2377
G1 X111.812 Y119.448 E2.2614
G1 X112.178 Y119.408 E2.2852
G1 X112.556 Y119.297 E2.3107
G1 X112.997 Y119.051 E2.3433
G1 X113.153 Y118.911 E2.3569
G1 X113.650 Y119.122 E2.3918
G1 X114.211 Y119.177 E2.4282
G1 X114.632 Y119.041 E2.4567
G1 X115.128 Y118.737 E2.4944
G1 X115.492 Y119.011 E2.5239
G1 X115.870 Y119.153 E2.5499
G1 X116.407 Y119.193 E2.5847
G1 X116.217 Y119.767 E2.6239
G1 X116.203 Y120.126 E2.6471
G1 X116.249 Y120.431 E2.6670
G1 X116.348 Y120.722 E2.6869
G1 X116.502 Y121.013 E2.7082
G1 X116.785 Y121.338 E2.7361
G1 X117.522 Y121.814 E2.7928
G1 X116.654 Y121.940 E2.8495
