; generated by Slic3r 1.3.0 on 2024-10-24 at 14:04:21

; external perimeters extrusion width = 0.44mm (3.38mm^3/s)
; perimeters extrusion width = 0.48mm (7.54mm^3/s)
; infill extrusion width = 0.48mm (10.05mm^3/s)
; solid infill extrusion width = 0.48mm (2.51mm^3/s)
; top infill extrusion width = 0.48mm (1.88mm^3/s)
; support material extrusion width = 0.44mm (6.76mm^3/s)

M107
M190 S65 ; set bed temperature and wait for it to be reached
M104 S205 ; set temperature
G28 ; home all axes
G1 Z5 F5000 ; lift nozzle

; Filament gcode

M109 S205 ; set temperature and wait for it to be reached
G21 ; set units to millimeters
G90 ; use absolute coordinates
M82 ; use absolute distances for extrusion
G92 E0
G1 Z0.400 F7800.000
G1 E-2.00000 F2400.00000
G92 E0
G1 X64.832 Y84.117 F7800.000
G1 E2.00000 F2400.00000
G1 F1800
G1 X67.026 Y82.380 E2.33227
G1 X68.454 Y81.673 E2.52157
G1 X69.925 Y81.147 E2.70703
G1 X70.173 Y81.094 E2.73724
G1 X107.697 Y75.137 E7.24959
G1 X110.006 Y75.173 E7.52382
G1 X111.870 Y75.824 E7.75834
G1 X121.690 Y80.981 E9.07559
G1 X122.491 Y81.425 E9.18437
G1 X123.726 Y82.177 E9.35606
G1 X125.380 Y83.282 E9.59230
G1 X126.126 Y83.807 E9.70070
G1 X127.093 Y84.546 E9.84528
G1 X128.522 Y85.710 E10.06407
G1 X129.829 Y86.876 E10.27212
G1 X132.084 Y89.148 E10.65237
G1 X133.473 Y90.735 E10.90273
G1 X133.935 Y91.315 E10.99078
G1 X135.761 Y93.754 E11.35272
G1 X136.224 Y94.449 E11.45189
G1 X136.609 Y95.121 E11.54386
G1 X136.909 Y95.744 E11.62601
G1 X137.173 Y96.411 E11.71114
G1 X137.330 Y96.892 E11.77123
G1 X137.693 Y98.164 E11.92836
G1 X137.934 Y100.460 E12.20258
G1 X137.691 Y101.845 E12.36956
G1 X137.205 Y103.498 E12.57413
G1 X137.030 Y103.967 E12.63358
G1 X136.806 Y104.482 E12.70032
G1 X136.504 Y105.077 E12.77961
G1 X136.209 Y105.575 E12.84827
G1 X135.893 Y106.057 E12.91674
G1 X135.443 Y106.687 E13.00875
G1 X133.650 Y109.047 E13.36070
G1 X132.261 Y110.660 E13.61357
G1 X129.934 Y113.023 E14.00736
G1 X128.530 Y114.279 E14.23112
G1 X126.915 Y115.592 E14.47830
G1 X125.957 Y116.316 E14.62098
G1 X125.284 Y116.790 E14.71871
G1 X123.479 Y117.980 E14.97548
G1 X122.513 Y118.566 E15.10967
G1 X121.816 Y118.957 E15.20450
G1 X119.053 Y120.386 E15.57401
G1 X118.505 Y120.635 E15.64553
G1 X112.499 Y123.046 E16.41409
G1 X110.017 Y123.529 E16.71444
G1 X103.120 Y123.548 E17.53354
G1 X102.152 Y123.481 E17.64879
G1 X70.484 Y118.957 E21.44801
G1 X69.811 Y118.827 E21.52944
G1 X69.247 Y118.675 E21.59881
G1 X68.659 Y118.479 E21.67241
G1 X68.104 Y118.255 E21.74347
G1 X67.603 Y118.016 E21.80945
G1 X67.104 Y117.744 E21.87693
G1 X66.577 Y117.415 E21.95073
G1 X66.110 Y117.083 E22.01880
G1 X65.600 Y116.670 E22.09671
G1 X64.144 Y114.878 E22.37094
G1 X63.291 Y111.603 E22.77283
G1 X63.291 Y88.397 E25.52897
G1 X63.688 Y86.122 E25.80320
G1 X64.803 Y84.169 E26.07029
G1 E24.07029 F2400.00000
G92 E0
G1 X100.815 Y106.324 F7800.000
G1 E2.00000 F2400.00000
G1 F1800
G1 X99.835 Y106.340 E2.11630
G1 X99.213 Y106.316 E2.19028
G1 X78.895 Y105.067 E4.60792
G1 X78.846 Y104.720 E4.64945
G1 X79.321 Y104.551 E4.70938
G1 X79.711 Y104.347 E4.76166
G1 X80.165 Y104.022 E4.82790
G1 X80.655 Y103.513 E4.91190
G1 X80.948 Y104.010 E4.98046
G1 X81.701 Y104.559 E5.09117
G1 X82.623 Y104.766 E5.20329
G1 X83.498 Y104.648 E5.30818
G1 X84.197 Y104.267 E5.40278
G1 X84.797 Y103.589 E5.51027
G1 X85.209 Y104.065 E5.58511
G1 X85.711 Y104.420 E5.65811
G1 X86.224 Y104.649 E5.72477
G1 X86.748 Y104.796 E5.78950
G1 X87.323 Y104.875 E5.85838
G1 X87.926 Y104.885 E5.93003
G1 X88.528 Y104.825 E6.00182
G1 X89.224 Y104.636 E6.08747
G1 X89.806 Y104.349 E6.16463
G1 X90.042 Y104.167 E6.19998
G1 X90.430 Y104.482 E6.25924
G1 X91.024 Y104.705 E6.33458
G1 X91.597 Y104.752 E6.40292
G1 X92.100 Y104.705 E6.46295
G1 X92.884 Y104.713 E6.55601
G1 X93.543 Y104.679 E6.63436
G1 X94.299 Y104.557 E6.72539
G1 X94.777 Y104.396 E6.78525
G1 X95.349 Y104.825 E6.87018
G1 X95.849 Y105.047 E6.93511
G1 X96.331 Y105.165 E6.99418
G1 X96.828 Y105.199 E7.05323
G1 X97.325 Y105.145 E7.11265
G1 X97.848 Y104.991 E7.17740
G1 X98.237 Y104.774 E7.23028
G1 X98.368 Y104.846 E7.24803
G1 X99.407 Y104.948 E7.37210
G1 X100.082 Y104.638 E7.46020
G1 X100.177 Y104.710 E7.47431
G1 X100.441 Y104.790 E7.50715
G1 X100.476 Y105.387 E7.57815
G1 X100.589 Y105.850 E7.63471
G1 X100.789 Y106.270 E7.69005
G1 X102.088 Y106.900 F7800.000
G1 F1800
G1 X101.580 Y106.972 E7.75101
G1 X100.729 Y107.040 E7.85236
G1 X99.827 Y107.055 E7.95951
G1 X99.177 Y107.029 E8.03678
G1 X75.854 Y105.595 E10.81200
G1 X75.608 Y105.554 E10.84167
G1 X75.418 Y105.453 E10.86718
G1 X75.285 Y105.288 E10.89230
G1 X75.224 Y105.133 E10.91218
G1 X75.194 Y104.871 E10.94339
G1 X75.195 Y103.360 E11.12293
G1 X76.046 Y103.848 E11.23947
G1 X76.386 Y103.983 E11.28295
G1 X76.752 Y104.084 E11.32802
G1 X77.109 Y104.144 E11.37106
G1 X77.635 Y104.172 E11.43363
G1 X78.139 Y104.139 E11.49356
G1 X78.604 Y104.049 E11.54978
G1 X79.034 Y103.895 E11.60408
G1 X79.336 Y103.737 E11.64454
G1 X79.696 Y103.480 E11.69710
G1 X80.031 Y103.132 E11.75444
G1 X80.344 Y102.619 E11.82576
G1 X80.531 Y101.967 E11.90640
G1 X80.301 Y101.224 E11.99881
G1 X79.829 Y100.731 E12.07980
G1 X79.255 Y100.472 E12.15454
G1 X78.753 Y100.414 E12.21460
G1 X78.299 Y100.490 E12.26927
G1 X77.971 Y100.639 E12.31207
G1 X77.702 Y100.839 E12.35186
G1 X77.582 Y100.981 E12.37385
G1 X77.368 Y100.887 E12.40167
G1 X77.275 Y100.730 E12.42326
G1 X77.227 Y100.559 E12.44439
G1 X77.192 Y100.316 E12.47359
G1 X77.177 Y99.928 E12.51966
G1 X77.196 Y99.580 E12.56104
G1 X77.278 Y99.193 E12.60801
G1 X77.398 Y98.934 E12.64191
G1 X78.148 Y99.358 E12.74425
G1 X78.577 Y99.494 E12.79766
G1 X79.065 Y99.520 E12.85571
G1 X79.582 Y99.362 E12.91994
G1 X80.098 Y98.967 E12.99707
G1 X80.264 Y99.074 E13.02047
G1 X80.786 Y99.167 E13.08346
G1 X81.168 Y99.128 E13.12913
G1 X81.185 Y101.904 E13.45881
G1 X81.140 Y102.651 E13.54779
G1 X81.244 Y103.105 E13.60313
G1 X81.488 Y103.520 E13.66031
G1 X82.002 Y103.895 E13.73581
G1 X82.654 Y104.041 E13.81516
G1 X83.272 Y103.958 E13.88919
G1 X83.745 Y103.700 E13.95324
G1 X84.092 Y103.308 E14.01540
G1 X84.279 Y102.876 E14.07123
G1 X84.357 Y102.443 E14.12353
G1 X84.343 Y99.139 E14.51588
G1 X84.996 Y99.070 E14.59391
G1 X85.446 Y98.930 E14.64989
G1 X85.560 Y98.843 E14.66694
G1 X85.881 Y99.095 E14.71538
G1 X85.769 Y99.543 E14.77023
G1 X85.778 Y100.030 E14.82812
G1 X86.014 Y100.705 E14.91298
G1 X85.541 Y101.001 E14.97925
G1 X85.201 Y101.488 E15.04978
G1 X85.073 Y102.105 E15.12464
G1 X85.139 Y102.635 E15.18809
G1 X85.365 Y103.154 E15.25533
G1 X85.693 Y103.532 E15.31474
G1 X86.066 Y103.797 E15.36911
G1 X86.467 Y103.976 E15.42122
G1 X86.894 Y104.095 E15.47391
G1 X87.378 Y104.162 E15.53186
G1 X87.897 Y104.170 E15.59352
G1 X88.398 Y104.121 E15.65336
G1 X88.970 Y103.965 E15.72372
G1 X89.427 Y103.740 E15.78429
G1 X89.918 Y103.362 E15.85780
G1 X90.137 Y103.098 E15.89858
G1 X90.410 Y103.546 E15.96096
G1 X90.790 Y103.854 E16.01900
G1 X91.182 Y104.002 E16.06873
G1 X91.593 Y104.035 E16.11773
G1 X92.070 Y103.991 E16.17467
G1 X92.869 Y103.998 E16.26951
G1 X93.467 Y103.968 E16.34067
G1 X94.127 Y103.861 E16.42007
G1 X94.705 Y103.666 E16.49247
G1 X94.974 Y103.515 E16.52919
G1 X95.302 Y103.897 E16.58905
G1 X95.713 Y104.205 E16.64997
G1 X96.081 Y104.368 E16.69776
G1 X96.442 Y104.457 E16.74192
G1 X96.813 Y104.482 E16.78614
G1 X97.185 Y104.442 E16.83051
G1 X97.570 Y104.329 E16.87819
G1 X98.017 Y104.079 E16.93907
G1 X98.184 Y103.930 E16.96559
G1 X98.583 Y104.150 E17.01974
G1 X99.285 Y104.218 E17.10346
G1 X99.897 Y103.937 E17.18346
G1 X100.086 Y103.749 E17.21516
G1 X100.505 Y104.063 E17.27726
G1 X101.002 Y104.214 E17.33899
G1 X101.312 Y104.207 E17.37584
G1 X101.165 Y104.932 E17.46377
G1 X101.185 Y105.281 E17.50522
G1 X101.265 Y105.609 E17.54537
G1 X101.471 Y106.041 E17.60217
G1 X101.870 Y106.454 E17.67039
G1 X102.139 Y106.589 E17.70618
G1 X102.098 Y106.841 E17.73650
G1 E15.73650 F2400.00000
G92 E0
G1 X97.267 Y96.586 F7800.000
G1 E2.00000 F2400.00000
G1 F1800
G1 X96.606 Y95.814 E2.12059
G1 X95.891 Y95.243 E2.22928
G1 X95.309 Y94.959 E2.30617
G1 X95.374 Y94.635 E2.34538
G1 X99.272 Y94.396 E2.80929
G1 X100.042 Y94.373 E2.90069
G1 X100.934 Y94.404 E3.00679
G1 X101.634 Y94.473 E3.09028
G1 X102.318 Y94.580 E3.17252
G1 X103.249 Y94.791 E3.28583
G1 X104.162 Y95.070 E3.39927
G1 X104.874 Y95.341 E3.48972
G1 X105.520 Y95.635 E3.57402
G1 X105.458 Y95.965 E3.61388
G1 X105.156 Y95.982 E3.64974
G1 X104.577 Y96.264 E3.72621
G1 X103.763 Y95.991 E3.82816
G1 X102.855 Y95.913 E3.93642
G1 X102.248 Y96.069 E4.01086
G1 X102.167 Y96.017 E4.02230
G1 X100.748 Y95.900 E4.19144
G1 X100.200 Y96.136 E4.26230
G1 X99.582 Y95.945 E4.33912
G1 X98.716 Y95.935 E4.44195
G1 X97.647 Y96.269 E4.57492
G1 X97.313 Y96.547 E4.62661
G1 X97.052 Y97.692 F7800.000
G1 F1800
G1 X96.571 Y96.871 E4.73960
G1 X96.108 Y96.330 E4.82423
G1 X95.507 Y95.851 E4.91554
G1 X94.824 Y95.517 E5.00584
G1 X94.099 Y95.328 E5.09475
G1 X93.460 Y95.244 E5.17128
G1 X91.661 Y95.203 E5.38502
G1 X91.048 Y95.268 E5.45824
G1 X90.257 Y95.573 E5.55889
G1 X90.094 Y95.733 E5.58603
G1 X89.946 Y95.619 E5.60824
G1 X89.459 Y95.356 E5.67391
G1 X89.039 Y95.207 E5.72692
G1 X88.527 Y95.096 E5.78912
G1 X88.087 Y95.049 E5.84167
G1 X87.618 Y95.042 E5.89730
G1 X87.185 Y95.073 E5.94893
G1 X86.636 Y95.171 E6.01507
G1 X86.096 Y95.353 E6.08281
G1 X85.838 Y95.487 E6.11728
G1 X85.417 Y95.298 E6.17211
G1 X84.925 Y95.216 E6.23134
G1 X81.541 Y95.227 E6.63327
G1 X81.121 Y95.197 E6.68325
G1 X81.123 Y94.796 E6.73084
G1 X99.240 Y93.682 E8.88657
G1 X100.043 Y93.659 E8.98201
G1 X100.982 Y93.691 E9.09354
G1 X101.725 Y93.764 E9.18220
G1 X102.452 Y93.879 E9.26968
G1 X103.432 Y94.100 E9.38895
G1 X104.394 Y94.394 E9.50844
G1 X105.149 Y94.682 E9.60444
G1 X105.873 Y95.012 E9.69887
G1 X106.691 Y95.450 E9.80906
G1 X107.494 Y95.957 E9.92195
G1 X108.397 Y96.614 E10.05456
G1 X107.455 Y96.680 E10.16671
G1 X106.923 Y96.795 E10.23142
G1 X106.794 Y96.859 E10.24846
G1 X106.183 Y96.640 E10.32550
G1 X105.340 Y96.687 E10.42586
G1 X104.506 Y97.093 E10.53591
G1 X104.196 Y96.890 E10.57994
G1 X103.617 Y96.695 E10.65250
G1 X102.915 Y96.635 E10.73618
G1 X102.125 Y96.838 E10.83304
G1 X101.932 Y96.714 E10.86030
G1 X100.867 Y96.626 E10.98722
G1 X100.193 Y96.917 E11.07438
G1 X100.082 Y96.848 E11.08988
G1 X99.470 Y96.658 E11.16601
G1 X98.821 Y96.651 E11.24306
G1 X97.995 Y96.909 E11.34584
G1 X97.098 Y97.654 E11.48432
G1 E9.48432 F2400.00000
G92 E0
G1 X80.387 Y95.205 F7800.000
G1 E2.00000 F2400.00000
G1 F1800
G1 X79.575 Y95.518 E2.10334
G1 X79.306 Y95.372 E2.13961
G1 X79.015 Y95.271 E2.17629
G1 X79.062 Y94.923 E2.21799
G1 X80.308 Y94.846 E2.36625
G1 X80.374 Y95.147 E2.40276
G1 E0.40276 F2400.00000
G92 E0
G1 X75.198 Y96.597 F7800.000
G1 E2.00000 F2400.00000
G1 F1800
G1 X75.198 Y95.055 E2.18319
G1 X75.230 Y94.851 E2.20769
G1 X75.295 Y94.693 E2.22802
G1 X75.450 Y94.523 E2.25535
G1 X75.645 Y94.438 E2.28058
G1 X75.850 Y94.405 E2.30520
G1 X99.208 Y92.969 E5.08457
G1 X100.045 Y92.944 E5.18406
G1 X101.029 Y92.978 E5.30101
G1 X101.815 Y93.056 E5.39485
G1 X102.587 Y93.177 E5.48756
G1 X103.615 Y93.409 E5.61279
G1 X104.626 Y93.718 E5.73834
G1 X105.425 Y94.023 E5.83989
G1 X106.190 Y94.371 E5.93971
G1 X107.050 Y94.832 E6.05565
G1 X107.896 Y95.366 E6.17437
G1 X108.599 Y95.878 E6.27774
G1 X109.351 Y96.507 E6.39419
G1 X110.253 Y97.371 E6.54249
G1 X107.876 Y97.367 E6.82482
G1 X107.556 Y97.389 E6.86286
G1 X107.159 Y97.475 E6.91107
G1 X106.751 Y97.676 E6.96507
G1 X106.577 Y97.540 E6.99132
G1 X106.079 Y97.361 E7.05421
G1 X105.523 Y97.392 E7.12029
G1 X105.056 Y97.620 E7.18200
G1 X104.725 Y97.935 E7.23631
G1 X104.574 Y98.154 E7.26793
G1 X104.288 Y97.803 E7.32169
G1 X103.882 Y97.537 E7.37936
G1 X103.471 Y97.399 E7.43087
G1 X102.975 Y97.357 E7.48996
G1 X102.367 Y97.513 E7.56458
G1 X102.146 Y97.699 E7.59882
G1 X101.697 Y97.411 E7.66216
G1 X100.986 Y97.353 E7.74686
G1 X100.409 Y97.601 E7.82146
G1 X100.207 Y97.769 E7.85263
G1 X99.782 Y97.502 E7.91230
G1 X99.358 Y97.371 E7.96496
G1 X98.926 Y97.366 E8.01623
G1 X98.343 Y97.548 E8.08882
G1 X97.820 Y97.983 E8.16962
G1 X97.546 Y98.620 E8.25195
G1 X97.579 Y99.234 E8.32499
G1 X97.722 Y99.655 E8.37782
G1 X98.081 Y100.322 E8.46780
G1 X97.862 Y100.553 E8.50562
G1 X97.548 Y100.394 E8.54739
G1 X97.167 Y100.282 E8.59456
G1 X96.725 Y100.249 E8.64717
G1 X96.736 Y99.980 E8.67910
G1 X96.712 Y99.385 E8.74981
G1 X96.601 Y98.680 E8.83452
G1 X96.499 Y98.316 E8.87947
G1 X96.312 Y97.842 E8.93996
G1 X95.987 Y97.288 E9.01628
G1 X95.609 Y96.846 E9.08533
G1 X95.123 Y96.458 E9.15925
G1 X94.574 Y96.190 E9.23173
G1 X93.962 Y96.030 E9.30686
G1 X93.406 Y95.957 E9.37353
G1 X91.691 Y95.919 E9.57728
G1 X91.217 Y95.968 E9.63384
G1 X90.651 Y96.187 E9.70587
G1 X90.101 Y96.723 E9.79708
G1 X89.832 Y96.434 E9.84401
G1 X89.555 Y96.219 E9.88558
G1 X89.168 Y96.011 E9.93783
G1 X88.843 Y95.895 E9.97884
G1 X88.413 Y95.802 E10.03108
G1 X88.043 Y95.763 E10.07523
G1 X87.638 Y95.757 E10.12332
G1 X87.273 Y95.783 E10.16684
G1 X86.814 Y95.865 E10.22218
G1 X86.376 Y96.012 E10.27712
G1 X85.969 Y96.223 E10.33158
G1 X85.809 Y96.344 E10.35537
G1 X85.613 Y96.168 E10.38664
G1 X85.209 Y95.988 E10.43923
G1 X84.867 Y95.931 E10.48041
G1 X81.516 Y95.942 E10.87838
G1 X80.873 Y95.895 E10.95496
G1 X80.481 Y95.934 E11.00171
G1 X80.059 Y96.097 E11.05544
G1 X79.660 Y96.431 E11.11719
G1 X79.421 Y96.248 E11.15301
G1 X79.017 Y96.028 E11.20768
G1 X78.558 Y95.868 E11.26537
G1 X78.055 Y95.780 E11.32600
G1 X77.584 Y95.757 E11.38195
G1 X76.927 Y95.811 E11.46030
G1 X76.599 Y95.881 E11.50012
G1 X76.155 Y96.034 E11.55584
G1 X75.836 Y96.188 E11.59800
G1 X75.248 Y96.565 E11.68091
G1 E9.68091 F2400.00000
G92 E0
G1 X104.775 Y105.896 F7800.000
G1 E2.00000 F2400.00000
G1 F1800
G1 X105.002 Y105.605 E2.04391
G1 X105.174 Y105.316 E2.08374
G1 X105.475 Y104.652 E2.17037
G1 X106.110 Y102.963 E2.38468
G1 X106.344 Y103.520 E2.45643
G1 X106.794 Y103.989 E2.53358
G1 X107.272 Y104.176 E2.59458
G1 X107.619 Y104.220 E2.63607
G1 X107.970 Y104.202 E2.67789
G1 X108.075 Y104.507 E2.71614
G1 X107.320 Y105.007 E2.82377
G1 X106.707 Y105.361 E2.90780
G1 X105.918 Y105.759 E3.01276
G1 X104.977 Y106.159 E3.13415
G1 X104.812 Y105.944 E3.16641
G1 E1.16641 F2400.00000
G92 E0
G1 X110.569 Y101.101 F7800.000
G1 E2.00000 F2400.00000
G1 F1800
G1 X111.019 Y100.468 E2.09226
G1 X111.308 Y100.025 E2.15505
G1 X111.486 Y99.626 E2.20690
G1 X111.590 Y99.071 E2.27397
G1 X112.136 Y99.970 E2.39890
G1 X112.089 Y100.109 E2.41637
G1 X111.846 Y100.524 E2.47351
G1 X111.443 Y101.133 E2.56015
G1 X111.203 Y101.458 E2.60815
G1 X110.894 Y101.223 E2.65427
G1 X110.625 Y101.122 E2.68840
G1 E0.68840 F2400.00000
G92 E0
G1 X106.951 Y103.121 F7800.000
G1 E2.00000 F2400.00000
G1 F1800
G1 X107.201 Y103.381 E2.04277
G1 X107.449 Y103.479 E2.07449
G1 X107.645 Y103.503 E2.09798
G1 X108.235 Y103.474 E2.16805
G1 X110.406 Y103.480 E2.42590
G1 X109.849 Y104.006 E2.51683
G1 X109.286 Y104.489 E2.60494
G1 X108.718 Y104.928 E2.69016
G1 X108.208 Y105.287 E2.76427
G1 X107.691 Y105.617 E2.83715
G1 X107.047 Y105.990 E2.92551
G1 X106.219 Y106.407 E3.03564
G1 X105.324 Y106.788 E3.15118
G1 X104.415 Y107.104 E3.26547
G1 X103.487 Y107.361 E3.37983
G1 X102.538 Y107.558 E3.49491
G1 X101.658 Y107.682 E3.60039
G1 X100.764 Y107.754 E3.70700
G1 X99.819 Y107.769 E3.81919
G1 X99.141 Y107.743 E3.89976
G1 X75.773 Y106.306 E6.68039
G1 X75.429 Y106.248 E6.72173
G1 X75.114 Y106.112 E6.76254
G1 X74.965 Y106.008 E6.78408
G1 X74.840 Y105.890 E6.80454
G1 X74.671 Y105.658 E6.83860
G1 X74.592 Y105.496 E6.86008
G1 X74.531 Y105.310 E6.88323
G1 X74.494 Y105.111 E6.90733
G1 X74.480 Y104.894 E6.93318
G1 X74.481 Y101.443 E7.34304
G1 X74.828 Y101.375 E7.38496
G1 X75.063 Y101.954 E7.45919
G1 X75.224 Y102.229 E7.49705
