; generated by PrusaSlicer 2.8.1+win64 on 2024-10-24 at 18:10:15 UTC

; 

; external perimeters extrusion width = 0.42mm
; perimeters extrusion width = 0.44mm
; infill extrusion width = 0.44mm
; solid infill extrusion width = 0.44mm
; top infill extrusion width = 0.40mm
; first layer extrusion width = 0.42mm

M201 X500 Y500 Z100 E5000 ; sets maximum accelerations, mm/sec^2
M203 X500 Y500 Z10 E60 ; sets maximum feedrates, mm / sec
M204 S500 T1000 ; sets acceleration (S) and retract acceleration (R), mm/sec^2
M205 X8.00 Y8.00 Z0.40 E5.00 ; sets the jerk limits, mm/sec
M205 S0 T0 ; sets the minimum extruding and travel feed rate, mm/sec

; printing object Minimal.stl id:0 copy 0
; stop printing object Minimal.stl id:0 copy 0

;TYPE:Custom
G90 ; use absolute coordinates
M83 ; extruder relative mode
M104 S150 ; set temporary nozzle temp to prevent oozing during homing
M140 S60 ; set final bed temp
G4 S30 ; allow partial nozzle warmup
G28 ; home all axis
G1 Z50 F240
G1 X2.0 Y10 F3000
M104 S210 ; set final nozzle temp
M190 S60 ; wait for bed temp to stabilize
M109 S210 ; wait for nozzle temp to stabilize
G1 Z0.28 F240
G92 E0
G1 X2.0 Y140 E10 F1500 ; prime the nozzle
G1 X2.3 Y140 F5000
G92 E0
G1 X2.3 Y10 E10 F1200 ; prime the nozzle
G92 E0
G21 ; set units to millimeters
G90 ; use absolute coordinates
M83 ; use relative distances for extrusion
; Filament gcode
M107
;LAYER_CHANGE
;Z:0.2
;HEIGHT:0.2
G1 E-5 F3600
G1 Z.2 F9000
G1 X100.986 Y99.387
G1 Z.2
G1 E5 F2400
M204 S500
;TYPE:Skirt/Brim
;WIDTH:0.42
G1 F1200
G1 X101.785 Y98.74 E.03224
G1 X102.661 Y98.248 E.0315
G1 X106.868 Y96.382 E.1443
G1 X108.157 Y96.265 E.04058
G1 X109.37 Y96.382 E.03821
G1 X110.284 Y96.653 E.02989
G1 X113.587 Y98.252 E.11506
G1 X130.112 Y107.692 E.59671
G1 X131.331 Y108.844 E.05259
G1 X131.906 Y110.786 E.0635
G1 X131.906 Y131.234 E.64113
G1 X131.512 Y132.864 E.05258
G1 X130.416 Y134.133 E.05257
G1 X128.34 Y134.799 E.06836
G1 X102.66 Y134.799 E.80518
G1 X101.03 Y134.405 E.05258
G1 X99.76 Y133.309 E.0526
G1 X99.094 Y131.234 E.06833
G1 X99.094 Y103.801 E.86014
G1 X99.258 Y102.411 E.04388
G1 X99.623 Y101.317 E.03616
G1 X100.177 Y100.338 E.03527
G1 X100.947 Y99.433 E.03726
G1 X100.947 Y99.433 F9000
G1 X101.232 Y99.678
G1 F1200
G1 X101.252 Y99.654 E.00098
G1 X102.014 Y99.041 E.03066
G1 X102.818 Y98.591 E.02889
G1 X106.968 Y96.745 E.14241
G1 X108.126 Y96.641 E.03645
G1 X109.309 Y96.754 E.03726
G1 X110.133 Y96.999 E.02695
G1 X113.405 Y98.583 E.11398
G1 X129.925 Y108.019 E.59651
G1 X131.061 Y109.124 E.04969
G1 X131.529 Y110.786 E.05414
G1 X131.529 Y131.234 E.64113
G1 X131.135 Y132.769 E.04969
G1 X130.051 Y133.924 E.04967
G1 X128.34 Y134.422 E.05587
G1 X102.66 Y134.422 E.80518
G1 X101.125 Y134.029 E.04968
G1 X99.969 Y132.945 E.04969
G1 X99.471 Y131.234 E.05587
G1 X99.471 Y103.801 E.86014
G1 X99.627 Y102.488 E.04146
G1 X99.928 Y101.562 E.03053
G1 X100.5 Y100.532 E.03694
G1 X101.193 Y99.723 E.0334
G1 E-3.5 F3600
;WIPE_START
G1 F7200
G1 X101.232 Y99.678 E-.02829
G1 X101.252 Y99.654 E-.01484
G1 X102.014 Y99.041 E-.46453
G1 X102.818 Y98.591 E-.43765
G1 X103.885 Y98.116 E-.55469
;WIPE_END
; printing object Minimal.stl id:0 copy 0
G1 X107.98 Y100.907 F9000
G1 E5 F2400
;TYPE:Perimeter
;WIDTH:0.419999
G1 F1200
G1 X108.553 Y100.954 E.01803
G1 X109.416 Y101.329 E.0295
G1 X111.371 Y102.318 E.06869
G1 X112.335 Y102.846 E.03446
G1 X114.196 Y103.947 E.0678
G1 X115.122 Y104.536 E.03441
G1 X116.035 Y105.146 E.03443
G1 X117.835 Y106.438 E.06947
G1 X118.656 Y107.068 E.03245
G1 X120.208 Y108.342 E.06296
G1 X121.258 Y109.259 E.04371
G1 X122.079 Y110.017 E.03504
G1 X123.701 Y111.613 E.07135
G1 X124.016 Y111.798 E.01145
G1 X124.327 Y111.85 E.00989
G1 X127.276 Y111.85 E.09246
G1 X127.276 Y114.8 E.0925
G1 X127.276 Y130.17 E.48191
G1 X103.724 Y130.17 E.73846
G1 X103.724 Y103.992 E.82079
G1 X103.789 Y103.401 E.01864
G1 X103.963 Y103.014 E.0133
G1 X104.256 Y102.673 E.0141
G1 X104.618 Y102.444 E.01343
G1 X107.926 Y100.932 E.11404
G1 X107.926 Y100.932 F9000
G1 X107.913 Y100.523
G1 F1200
G1 X108.646 Y100.584 E.02306
G1 X109.575 Y100.987 E.03175
G1 X111.549 Y101.985 E.06935
G1 X112.521 Y102.518 E.03476
G1 X114.393 Y103.625 E.06819
G1 X115.328 Y104.221 E.03477
G1 X116.25 Y104.836 E.03475
G1 X118.06 Y106.135 E.06985
G1 X118.891 Y106.773 E.03285
G1 X120.58 Y108.159 E.06851
G1 X121.422 Y108.899 E.03515
G1 X122.25 Y109.658 E.03522
G1 X123.058 Y110.435 E.03515
G1 X123.926 Y111.306 E.03856
G1 X124.076 Y111.414 E.0058
G1 X124.327 Y111.473 E.00808
G1 X127.653 Y111.473 E.10428
G1 X127.653 Y114.8 E.10432
G1 X127.653 Y130.547 E.49374
G1 X103.347 Y130.547 E.7621
G1 X103.347 Y103.843 E.83728
G1 X103.423 Y103.296 E.01732
G1 X103.641 Y102.81 E.0167
G1 X103.997 Y102.396 E.01712
G1 X104.449 Y102.107 E.01682
G1 X107.858 Y100.548 E.11753
G1 X107.858 Y100.548 F9000
G1 X107.846 Y100.139
;TYPE:External perimeter
G1 F1200
G1 X108.739 Y100.213 E.0281
G1 X109.733 Y100.644 E.03397
G1 X110.733 Y101.136 E.03494
G1 X112.708 Y102.19 E.07019
G1 X114.59 Y103.304 E.06857
G1 X115.534 Y103.905 E.03509
G1 X116.465 Y104.526 E.03509
G1 X118.284 Y105.832 E.07021
G1 X119.125 Y106.478 E.03325
G1 X120.824 Y107.872 E.06891
G1 X121.674 Y108.618 E.03546
G1 X122.508 Y109.383 E.03548
G1 X123.322 Y110.166 E.03541
G1 X124.193 Y111.04 E.03869
G1 X124.327 Y111.096 E.00455
G1 X128.03 Y111.096 E.1161
G1 X128.03 Y114.8 E.11614
G1 X128.03 Y130.924 E.50556
G1 X102.97 Y130.924 E.78574
G1 X102.97 Y103.816 E.84995
G1 X103.057 Y103.191 E.01979
G1 X103.32 Y102.605 E.02014
G1 X103.738 Y102.118 E.02012
G1 X104.281 Y101.769 E.02024
G1 X107.791 Y100.164 E.12101
G1 E-3.5 F3600
;WIPE_START
G1 F7200
G1 X107.846 Y100.139 E-.0287
G1 X108.739 Y100.213 E-.42563
G1 X109.733 Y100.644 E-.51462
G1 X110.733 Y101.136 E-.52938
G1 X110.736 Y101.138 E-.00167
;WIPE_END
G1 X127.156 Y112.741 F9000
G1 E5 F2400
;TYPE:Solid infill
;WIDTH:0.423698
G1 F1200
G1 X126.555 Y112.141 E.02689
G1 X126.017 Y112.141 E.01703
G1 X126.986 Y113.11 E.04339
G1 X126.986 Y113.648 E.01703
G1 X125.478 Y112.141 E.0675
G1 X124.94 Y112.141 E.01703
G1 X126.986 Y114.187 E.09161
G1 X126.986 Y114.725 E.01703
G1 X124.401 Y112.141 E.11573
G1 X124.101 Y112.12 E.00952
G1 X123.919 Y112.072 E.00596
G1 X123.677 Y111.955 E.00851
G1 X126.986 Y115.264 E.14817
G1 X126.986 Y115.802 E.01703
G1 X118.497 Y107.313 E.38011
G1 X117.662 Y106.671 E.03335
G1 X116.438 Y105.793 E.04769
G1 X126.986 Y116.341 E.4723
G1 X126.986 Y116.879 E.01703
G1 X114.783 Y104.676 E.54641
G1 X114.043 Y104.194 E.02796
G1 X113.354 Y103.786 E.02535
G1 X126.986 Y117.418 E.61039
G1 X126.986 Y117.956 E.01703
G1 X112.051 Y103.021 E.66874
G1 X110.891 Y102.4 E.04166
G1 X126.986 Y118.495 E.72068
G1 X126.986 Y119.033 E.01703
G1 X109.802 Y101.849 E.76944
G1 X109.294 Y101.592 E.01803
G1 X108.786 Y101.372 E.01753
G1 X126.986 Y119.572 E.81493
G1 X126.986 Y120.11 E.01703
G1 X108.082 Y101.207 E.84643
G1 X108.032 Y101.202 E.00159
G1 X107.694 Y101.357 E.01177
G1 X126.986 Y120.649 E.86383
G1 X126.986 Y121.187 E.01703
G1 X107.324 Y101.526 E.88037
G1 X106.955 Y101.695 E.01285
G1 X126.986 Y121.726 E.89692
G1 X126.986 Y122.264 E.01703
G1 X106.585 Y101.864 E.91346
G1 X106.216 Y102.033 E.01285
G1 X126.986 Y122.803 E.93001
G1 X126.986 Y123.341 E.01703
G1 X105.846 Y102.202 E.94655
G1 X105.477 Y102.371 E.01285
G1 X126.986 Y123.88 E.9631
G1 X126.986 Y124.418 E.01703
G1 X105.107 Y102.54 E.97964
G1 X104.738 Y102.709 E.01285
G1 X126.986 Y124.957 E.99619
G1 X126.986 Y125.495 E.01703
G1 X104.419 Y102.929 E1.01045
G1 X104.211 Y103.171 E.0101
G1 X104.184 Y103.231 E.00208
G1 X126.986 Y126.034 E1.02102
G1 X126.986 Y126.572 E.01703
G1 X104.049 Y103.636 E1.02702
G1 X104.014 Y103.889 E.00809
G1 X104.014 Y104.139 E.00792
G1 X126.986 Y127.111 E1.02861
G1 X126.986 Y127.649 E.01703
G1 X104.014 Y104.678 E1.02859
G1 X104.014 Y105.216 E.01703
G1 X126.986 Y128.188 E1.02861
G1 X126.986 Y128.726 E.01703
G1 X104.014 Y105.755 E1.02859
G1 X104.014 Y106.293 E.01703
G1 X126.986 Y129.265 E1.02861
G1 X126.986 Y129.803 E.01703
G1 X104.014 Y106.832 E1.02859
G1 X104.014 Y107.37 E.01703
G1 X126.523 Y129.879 E1.00788
G1 X125.985 Y129.879 E.01703
G1 X104.014 Y107.909 E.98376
G1 X104.014 Y108.447 E.01703
G1 X125.446 Y129.879 E.95965
G1 X124.908 Y129.879 E.01703
G1 X104.014 Y108.986 E.93554
G1 X104.014 Y109.524 E.01703
G1 X124.369 Y129.879 E.91143
G1 X123.831 Y129.879 E.01703
G1 X104.014 Y110.063 E.88732
G1 X104.014 Y110.601 E.01703
G1 X123.292 Y129.879 E.8632
G1 X122.754 Y129.879 E.01703
G1 X104.014 Y111.14 E.83909
G1 X104.014 Y111.678 E.01703
G1 X122.215 Y129.879 E.81498
G1 X121.677 Y129.879 E.01703
G1 X104.014 Y112.217 E.79087
G1 X104.014 Y112.755 E.01703
G1 X121.138 Y129.879 E.76675
G1 X120.6 Y129.879 E.01703
G1 X104.014 Y113.294 E.74264
G1 X104.014 Y113.832 E.01703
G1 X120.061 Y129.879 E.71853
G1 X119.523 Y129.879 E.01703
G1 X104.014 Y114.371 E.69442
G1 X104.014 Y114.909 E.01703
G1 X118.984 Y129.879 E.67031
G1 X118.446 Y129.879 E.01703
G1 X104.014 Y115.448 E.64619
G1 X104.014 Y115.986 E.01703
G1 X117.907 Y129.879 E.62208
G1 X117.369 Y129.879 E.01703
G1 X104.014 Y116.525 E.59797
G1 X104.014 Y117.063 E.01703
G1 X116.83 Y129.879 E.57386
G1 X116.292 Y129.879 E.01703
G1 X104.014 Y117.602 E.54974
G1 X104.014 Y118.14 E.01703
G1 X115.753 Y129.879 E.52563
G1 X115.215 Y129.879 E.01703
G1 X104.014 Y118.679 E.50152
G1 X104.014 Y119.217 E.01703
G1 X114.676 Y129.879 E.47741
G1 X114.138 Y129.879 E.01703
G1 X104.014 Y119.756 E.4533
G1 X104.014 Y120.294 E.01703
G1 X113.599 Y129.879 E.42918
G1 X113.061 Y129.879 E.01703
G1 X104.014 Y120.833 E.40507
G1 X104.014 Y121.371 E.01703
G1 X112.522 Y129.879 E.38096
G1 X111.984 Y129.879 E.01703
G1 X104.014 Y121.91 E.35685
G1 X104.014 Y122.448 E.01703
G1 X111.445 Y129.879 E.33273
G1 X110.907 Y129.879 E.01703
G1 X104.014 Y122.987 E.30862
G1 X104.014 Y123.525 E.01703
G1 X110.368 Y129.879 E.28451
G1 X109.83 Y129.879 E.01703
G1 X104.014 Y124.064 E.2604
G1 X104.014 Y124.602 E.01703
G1 X109.291 Y129.879 E.23629
G1 X108.753 Y129.879 E.01703
G1 X104.014 Y125.141 E.21217
G1 X104.014 Y125.679 E.01703
G1 X108.214 Y129.879 E.18806
G1 X107.676 Y129.879 E.01703
G1 X104.014 Y126.218 E.16395
G1 X104.014 Y126.756 E.01703
G1 X107.137 Y129.879 E.13984
G1 X106.599 Y129.879 E.01703
G1 X104.014 Y127.295 E.11573
G1 X104.014 Y127.833 E.01703
G1 X106.06 Y129.879 E.09161
G1 X105.522 Y129.879 E.01703
G1 X104.014 Y128.372 E.0675
G1 X104.014 Y128.91 E.01703
G1 X104.983 Y129.879 E.04339
G1 X104.445 Y129.879 E.01703
G1 X103.844 Y129.279 E.02689
M106 S255
;LAYER_CHANGE
;Z:0.28
;HEIGHT:0.08
;BEFORE_LAYER_CHANGE
G92 E0
;0.28


G1 E-3.5 F3600
;WIPE_START
G1 F7200
G1 X104.445 Y129.879 E-.40339
G1 X104.983 Y129.879 E-.25555
G1 X104.014 Y128.91 E-.65093
G1 X104.014 Y128.509 E-.19013
;WIPE_END
G1 Z.28 F9000
;AFTER_LAYER_CHANGE
;0.28
M104 S205 ; set temperature
; stop printing object Minimal.stl id:0 copy 0
G1 Z.28
G1 X99.094 Y129.279
G1 E5 F2400
;TYPE:Skirt/Brim
;WIDTH:0.42
G1 X99.094 Y103.801 E.34136
G1 X99.258 Y102.411 E.01875
G1 X99.623 Y101.317 E.01545
G1 X100.177 Y100.338 E.01507
G1 X100.986 Y99.387 E.01673
G1 X101.785 Y98.74 E.01377
G1 X102.661 Y98.248 E.01346
G1 X106.868 Y96.382 E.06166
G1 X108.157 Y96.265 E.01734
G1 X109.37 Y96.382 E.01633
G1 X110.284 Y96.653 E.01277
G1 X113.587 Y98.252 E.04917
G1 X130.112 Y107.692 E.25499
G1 X131.331 Y108.844 E.02247
G1 X131.906 Y110.786 E.02714
G1 X131.906 Y131.234 E.27397
G1 X131.512 Y132.864 E.02247
G1 X130.416 Y134.133 E.02247
G1 X128.34 Y134.799 E.02921
G1 X102.66 Y134.799 E.34407
G1 X101.03 Y134.405 E.02247
G1 X99.76 Y133.309 E.02248
G1 X99.094 Y131.234 E.0292
G1 X99.094 Y129.339 E.02539
G1 X99.094 Y129.339 F9000
G1 X99.471 Y129.339
G1 F2400
G1 X99.471 Y103.801 E.34216
G1 X99.627 Y102.488 E.01772
G1 X99.928 Y101.562 E.01305
G1 X100.5 Y100.532 E.01579
G1 X101.252 Y99.654 E.01549
G1 X102.014 Y99.041 E.0131
G1 X102.818 Y98.591 E.01234
G1 X106.968 Y96.745 E.06086
G1 X108.126 Y96.641 E.01558
G1 X109.309 Y96.754 E.01592
G1 X110.133 Y96.999 E.01152
G1 X113.405 Y98.583 E.04871
G1 X129.925 Y108.019 E.2549
G1 X131.061 Y109.124 E.02123
G1 X131.529 Y110.786 E.02313
G1 X131.529 Y131.234 E.27397
G1 X131.135 Y132.769 E.02123
G1 X130.051 Y133.924 E.02122
G1 X128.34 Y134.422 E.02388
G1 X102.66 Y134.422 E.34407
G1 X101.125 Y134.029 E.02123
G1 X99.969 Y132.945 E.02123
G1 X99.471 Y131.234 E.02388
G1 X99.471 Y129.399 E.02459
G1 E-3.5 F3600
;WIPE_START
G1 F7200
G1 X99.471 Y129.339 E-.0285
G1 X99.471 Y126.241 E-1.4715
;WIPE_END
; printing object Minimal.stl id:0 copy 0
G1 X103.705 Y130.188 F9000
G1 E5 F2400
;TYPE:Perimeter
;WIDTH:0.439999
G1 X103.705 Y103.999 E.36831
G1 X103.772 Y103.397 E.00852
G1 X103.95 Y103.001 E.00611
G1 X104.227 Y102.676 E.00601
G1 X104.61 Y102.427 E.00642
G1 X107.973 Y100.89 E.052
G1 X108.546 Y100.927 E.00808
G1 X109.51 Y101.354 E.01483
G1 X111.39 Y102.307 E.02964
G1 X112.364 Y102.841 E.01562
G1 X114.189 Y103.921 E.02982
G1 X115.131 Y104.52 E.0157
G1 X116.063 Y105.143 E.01577
G1 X116.98 Y105.786 E.01575
G1 X117.882 Y106.451 E.01576
G1 X118.659 Y107.047 E.01377
G1 X120.192 Y108.305 E.02789
G1 X121.27 Y109.246 E.02012
G1 X122.114 Y110.025 E.01615
G1 X123.689 Y111.573 E.03106
G1 X124.035 Y111.775 E.00563
G1 X124.374 Y111.832 E.00483
G1 X127.295 Y111.832 E.04108
G1 X127.295 Y114.752 E.04107
G1 X127.295 Y130.188 E.21708
G1 X103.765 Y130.188 E.33091
G1 X103.765 Y130.188 F9000
G1 X103.282 Y130.611
G1 F2400
G1 X103.282 Y103.844 E.37644
G1 X103.361 Y103.279 E.00802
G1 X103.589 Y102.773 E.00781
G1 X103.936 Y102.365 E.00753
G1 X104.421 Y102.049 E.00814
G1 X107.894 Y100.461 E.05371
G1 X108.654 Y100.512 E.01071
G1 X109.691 Y100.972 E.01595
G1 X111.587 Y101.933 E.02989
G1 X112.573 Y102.474 E.01582
G1 X114.41 Y103.56 E.03001
G1 X115.362 Y104.166 E.01587
G1 X116.302 Y104.794 E.0159
G1 X117.226 Y105.443 E.01588
G1 X118.136 Y106.113 E.01589
G1 X118.922 Y106.716 E.01393
G1 X120.592 Y108.086 E.03038
G1 X121.462 Y108.848 E.01626
G1 X122.314 Y109.63 E.01626
G1 X123.939 Y111.228 E.03205
G1 X124.103 Y111.346 E.00284
G1 X124.374 Y111.409 E.00391
G1 X127.718 Y111.409 E.04703
G1 X127.718 Y114.752 E.04701
G1 X127.718 Y130.611 E.22303
G1 X103.342 Y130.611 E.34281
G1 X103.342 Y130.611 F9000
G1 X102.87 Y131.024
;TYPE:External perimeter
;WIDTH:0.419999
G1 F1500
G1 X102.87 Y103.815 E.36455
G1 X102.961 Y103.163 E.00882
G1 X103.236 Y102.55 E.009
G1 X103.652 Y102.062 E.00859
G1 X103.848 Y101.915 E.00328
G1 X104.237 Y101.679 E.0061
G1 X107.817 Y100.042 E.05274
G1 X108.786 Y100.119 E.01302
G1 X109.868 Y100.599 E.01586
G1 X111.78 Y101.568 E.02872
G1 X112.778 Y102.115 E.01525
G1 X114.626 Y103.208 E.02877
G1 X115.587 Y103.82 E.01526
G1 X116.535 Y104.453 E.01527
G1 X117.467 Y105.108 E.01526
G1 X118.384 Y105.783 E.01526
G1 X119.179 Y106.392 E.01342
G1 X120.859 Y107.771 E.02912
G1 X121.737 Y108.54 E.01564
G1 X122.597 Y109.33 E.01565
G1 X123.436 Y110.137 E.0156
G1 X124.231 Y110.937 E.01511
G1 X124.374 Y110.996 E.00207
G1 X128.13 Y110.996 E.05032
G1 X128.13 Y114.752 E.05032
G1 X128.13 Y131.024 E.21802
G1 X102.93 Y131.024 E.33763
G1 E-3.5 F3600
;WIPE_START
G1 F7200
G1 X102.87 Y131.024 E-.0285
G1 X102.87 Y127.926 E-1.4715
;WIPE_END
G1 X104.537 Y102.699 F9000
G1 E5 F2400
;TYPE:Solid infill
;WIDTH:0.357168
G1 X104.125 Y103.112 E.0066
;WIDTH:0.439999
G1 X104.074 Y103.59 E.00676
G1 X105.082 Y102.581 E.02006
G1 X105.246 Y102.491 E.00263
;WIDTH:0.398584
G1 X105.409 Y102.402 E.00236
;WIDTH:0.357168
G1 X105.368 Y102.413 E.00048
G1 X105.349 Y102.342 E.00083
G1 X105.42 Y102.361 E.00083
G1 X105.42 Y102.361 F9000
G1 X106.53 Y101.849
G1 F2400
G1 X106.459 Y101.83 E.00083
G1 X106.478 Y101.901 E.00083
G1 X106.519 Y101.89 E.00048
;WIDTH:0.398584
G1 X106.355 Y101.98 E.00237
;WIDTH:0.439999
G1 X106.192 Y102.069 E.00261
G1 X104.031 Y104.23 E.04298
G1 X104.031 Y104.828 E.00841
G1 X107.301 Y101.558 E.06504
G1 X107.301 Y101.558 F9000
G1 X108.225 Y101.232
G1 F2400
G1 X104.031 Y105.426 E.08341
G1 X104.031 Y106.024 E.00841
G1 X108.703 Y101.352 E.09292
G1 X109.117 Y101.536 E.00637
G1 X104.031 Y106.622 E.10115
G1 X104.031 Y107.22 E.00841
G1 X109.524 Y101.727 E.10925
G1 X109.921 Y101.928 E.00626
G1 X104.031 Y107.818 E.11714
G1 X104.031 Y108.416 E.00841
G1 X110.318 Y102.129 E.12504
G1 X110.715 Y102.33 E.00626
