; G-Code generated by Simplify3D(R) Version 4.1.2
; Sep 20, 2024 at 6:49:39 PM
; Settings Summary
;   processName,23-Wood PLA
;   applyToModels,Minimal
;   profileName,Wood PLA
;   profileVersion,2024-09-20 12:31:00
;   baseProfile,Creality Ender 3 Pro (modified)
;   printMaterial,PLA
;   printQuality,Fast
;   printExtruders,
;   extruderName,Primary Extruder
;   extruderToolheadNumber,0
;   extruderDiameter,0.4
;   extruderAutoWidth,1
;   extruderWidth,0.48
;   extrusionMultiplier,0.9
;   extruderUseRetract,1
;   extruderRetractionDistance,6
;   extruderExtraRestartDistance,-1.5
;   extruderRetractionZLift,0
;   extruderRetractionSpeed,5200
;   extruderUseCoasting,0
;   extruderCoastingDistance,0.2
;   extruderUseWipe,0
;   extruderWipeDistance,5
;   primaryExtruder,0
;   layerHeight,0.2
;   topSolidLayers,3
;   bottomSolidLayers,3
;   perimeterOutlines,2
;   printPerimetersInsideOut,0
;   startPointOption,2
;   startPointOriginX,0
;   startPointOriginY,0
;   sequentialIslands,0
;   spiralVaseMode,0
;   firstLayerHeightPercentage,120
;   firstLayerWidthPercentage,150
;   firstLayerUnderspeed,0.5
;   useRaft,0
;   raftExtruder,0
;   raftTopLayers,3
;   raftBaseLayers,2
;   raftOffset,3
;   raftSeparationDistance,0.14
;   raftTopInfill,100
;   aboveRaftSpeedMultiplier,0.3
;   useSkirt,0
;   skirtExtruder,0
;   skirtLayers,5
;   skirtOutlines,5
;   skirtOffset,4
;   usePrimePillar,0
;   primePillarExtruder,999
;   primePillarWidth,12
;   primePillarLocation,7
;   primePillarSpeedMultiplier,1
;   useOozeShield,0
;   oozeShieldExtruder,999
;   oozeShieldOffset,2
;   oozeShieldOutlines,1
;   oozeShieldSidewallShape,1
;   oozeShieldSidewallAngle,30
;   oozeShieldSpeedMultiplier,1
;   infillExtruder,0
;   internalInfillPattern,Rectilinear
;   externalInfillPattern,Rectilinear
;   infillPercentage,5
;   outlineOverlapPercentage,15
;   infillExtrusionWidthPercentage,100
;   minInfillLength,5
;   infillLayerInterval,1
;   internalInfillAngles,45,-45
;   overlapInternalInfillAngles,0
;   externalInfillAngles,45,-45
;   generateSupport,1
;   supportExtruder,0
;   supportInfillPercentage,20
;   supportExtraInflation,0
;   supportBaseLayers,0
;   denseSupportExtruder,0
;   denseSupportLayers,0
;   denseSupportInfillPercentage,70
;   supportLayerInterval,2
;   supportHorizontalPartOffset,2.5
;   supportUpperSeparationLayers,1
;   supportLowerSeparationLayers,0
;   supportType,1
;   supportGridSpacing,4
;   maxOverhangAngle,45
;   supportAngles,0
;   temperatureName,Primary Extruder,Heated Bed
;   temperatureNumber,0,0
;   temperatureSetpointCount,1,1
;   temperatureSetpointLayers,1,1
;   temperatureSetpointTemperatures,190,60
;   temperatureStabilizeAtStartup,1,1
;   temperatureHeatedBed,0,1
;   fanLayers,1,2
;   fanSpeeds,0,100
;   blipFanToFullPower,0
;   adjustSpeedForCooling,1
;   minSpeedLayerTime,15
;   minCoolingSpeedSlowdown,20
;   increaseFanForCooling,0
;   minFanLayerTime,45
;   maxCoolingFanSpeed,100
;   increaseFanForBridging,0
;   bridgingFanSpeed,100
;   use5D,1
;   relativeEdistances,0
;   allowEaxisZeroing,1
;   independentExtruderAxes,0
;   includeM10123,0
;   stickySupport,1
;   applyToolheadOffsets,0
;   gcodeXoffset,0
;   gcodeYoffset,0
;   gcodeZoffset,0
;   overrideMachineDefinition,1
;   machineTypeOverride,0
;   strokeXoverride,220
;   strokeYoverride,220
;   strokeZoverride,250
;   originOffsetXoverride,-5
;   originOffsetYoverride,-5
;   originOffsetZoverride,0
;   homeXdirOverride,-1
;   homeYdirOverride,-1
;   homeZdirOverride,-1
;   flipXoverride,1
;   flipYoverride,-1
;   flipZoverride,1
;   toolheadOffsets,0,0|0,0|0,0|0,0|0,0|0,0
;   overrideFirmwareConfiguration,1
;   firmwareTypeOverride,RepRap (Marlin/Repetier/Sprinter)
;   GPXconfigOverride,r2
;   baudRateOverride,115200
;   overridePrinterModels,1
;   printerModelsOverride
;   startingGcode,G28 ; home all axes,G1 X5 Y10 Z0.2 F3000 ; get ready to prime,G92 E0 ; reset extrusion distance,G1 X160 E15 F600 ; prime nozzle,G1 X180 F5000 ; quick wipe
;   layerChangeGcode,
;   retractionGcode,
;   toolChangeGcode,
;   endingGcode,G28 X0 ; home X axis,G91 ; relative positioning,G0 Z+50.0 ; z axis up 50mm,M106 S0 ; turn off cooling fan,M104 S0 ; turn off extruder,M140 S0 ; turn off bed,M84 ; disable motors
;   exportFileFormat,gcode
;   celebration,0
;   celebrationSong,Random Song
;   postProcessing,
;   defaultSpeed,6000
;   outlineUnderspeed,0.5
;   solidInfillUnderspeed,0.8
;   supportUnderspeed,0.8
;   rapidXYspeed,2400
;   rapidZspeed,1000
;   minBridgingArea,50
;   bridgingExtraInflation,0
;   bridgingExtrusionMultiplier,1
;   bridgingSpeedMultiplier,1
;   useFixedBridgingAngle,0
;   fixedBridgingAngle,0
;   applyBridgingToPerimeters,0
;   filamentDiameters,1.75|1.75|1.75|1.75|1.75|1.75
;   filamentPricesPerKg,46|46|46|46|46|46
;   filamentDensities,1.25|1.25|1.25|1.25|1.25|1.25
;   useMinPrintHeight,0
;   minPrintHeight,0
;   useMaxPrintHeight,0
;   maxPrintHeight,0
;   useDiaphragm,0
;   diaphragmLayerInterval,20
;   robustSlicing,1
;   mergeAllIntoSolid,0
;   onlyRetractWhenCrossingOutline,1
;   retractBetweenLayers,1
;   useRetractionMinTravel,0
;   retractionMinTravel,3
;   retractWhileWiping,0
;   onlyWipeOutlines,1
;   avoidCrossingOutline,0
;   maxMovementDetourFactor,3
;   toolChangeRetractionDistance,12
;   toolChangeExtraRestartDistance,-0.5
;   toolChangeRetractionSpeed,600
;   externalThinWallType,0
;   internalThinWallType,2
;   thinWallAllowedOverlapPercentage,10
;   singleExtrusionMinLength,1
;   singleExtrusionMinPrintingWidthPercentage,50
;   singleExtrusionMaxPrintingWidthPercentage,200
;   singleExtrusionEndpointExtension,0.2
;   horizontalSizeCompensation,0
G90
M82
M106 S0
M140 S60
M190 S60
M104 S190 T0
M109 S190 T0
G28 ; home all axes
G1 X5 Y10 Z0.2 F3000 ; get ready to prime
G92 E0 ; reset extrusion distance
G1 X160 E15 F600 ; prime nozzle
G1 X180 F5000 ; quick wipe
; process 23-Wood PLA
; layer 1, Z = 0.240
T0
G92 E0.0000
G1 E-6.0000 F5200
; feature outer perimeter
; tool H0.240 W0.720
G1 Z0.240 F1000
G1 X103.051 Y101.876 F2400
G1 E-1.5000 F5200
G92 E0.0000
G1 X103.274 Y101.653 E0.0204 F1500
G1 X103.522 Y101.468 E0.0404
G1 X103.874 Y101.281 E0.0661
G1 X107.342 Y99.695 E0.3127
G1 X107.362 Y99.689 E0.3141
G1 X108.232 Y99.763 E0.3705
G1 X109.207 Y100.188 E0.4393
G1 X110.269 Y100.711 E0.5158
G1 X111.204 Y101.197 E0.5840
G1 X112.188 Y101.736 E0.6565
G1 X113.101 Y102.263 E0.7247
G1 X114.060 Y102.844 E0.7972
G1 X115.007 Y103.447 E0.8698
G1 X115.939 Y104.070 E0.9422
G1 X116.857 Y104.713 E1.0147
G1 X117.706 Y105.335 E1.0828
G1 X118.594 Y106.017 E1.1552
G1 X119.479 Y106.728 E1.2285
G1 X120.286 Y107.405 E1.2967
G1 X121.140 Y108.155 E1.3702
G1 X121.977 Y108.923 E1.4436
G1 X122.737 Y109.651 E1.5116
G1 X123.728 Y110.646 E1.6025
G1 X127.480 Y110.646 E1.8451
G1 X127.480 Y130.374 E3.1206
G1 X102.520 Y130.374 E4.7345
G1 X102.520 Y103.294 E6.4854
G1 X102.541 Y103.005 E6.5042
G1 X102.604 Y102.704 E6.5241
G1 X102.711 Y102.409 E6.5444
G1 X102.862 Y102.130 E6.5648
G1 X103.051 Y101.876 E6.5853
; feature inner perimeter
G1 X103.597 Y102.348 F2400
G92 E0.0000
G1 X103.747 Y102.198 E0.0137 F2250
G1 X103.908 Y102.078 E0.0267
G1 X104.192 Y101.927 E0.0475
G1 X107.485 Y100.422 E0.2816
G1 X108.053 Y100.471 E0.3184
G1 X108.905 Y100.841 E0.3785
G1 X109.944 Y101.353 E0.4534
G1 X110.865 Y101.832 E0.5205
G1 X111.834 Y102.364 E0.5920
G1 X112.734 Y102.883 E0.6592
G1 X113.681 Y103.456 E0.7307
G1 X114.613 Y104.049 E0.8022
G1 X115.533 Y104.664 E0.8737
G1 X116.438 Y105.298 E0.9451
G1 X117.274 Y105.912 E1.0122
G1 X118.149 Y106.583 E1.0835
G1 X119.022 Y107.284 E1.1559
G1 X119.817 Y107.952 E1.2230
G1 X120.659 Y108.691 E1.2955
G1 X121.484 Y109.448 E1.3679
G1 X122.232 Y110.165 E1.4349
G1 X123.429 Y111.366 E1.5445
G1 X126.760 Y111.366 E1.7599
G1 X126.760 Y129.654 E2.9423
G1 X103.240 Y129.654 E4.4631
G1 X103.240 Y103.319 E6.1659
G1 X103.255 Y103.105 E6.1798
G1 X103.298 Y102.902 E6.1932
G1 X103.370 Y102.705 E6.2067
G1 X103.471 Y102.518 E6.2205
G1 X103.597 Y102.348 E6.2342
; feature solid layer
G1 X112.805 Y103.641 F2400
G92 E0.0000
G1 X126.148 Y116.984 E1.2201 F2400
G1 X126.148 Y118.003 E1.2859
G1 X110.455 Y102.309 E2.7210
G1 X109.667 Y101.900 E2.7783
G1 X108.647 Y101.396 E2.8519
G1 X108.430 Y101.302 E2.8672
G1 X126.148 Y119.021 E4.4874
G1 X126.148 Y120.039 E4.5533
G1 X107.292 Y101.183 E6.2775
G1 X106.594 Y101.502 E6.3271
G1 X126.148 Y121.057 E8.1152
G1 X126.148 Y122.075 E8.1811
G1 X105.895 Y101.822 E10.0330
G1 X105.196 Y102.141 E10.0827
G1 X126.148 Y123.094 E11.9986
G1 X126.148 Y124.112 E12.0644
G1 X104.497 Y102.461 E14.0442
G1 X104.463 Y102.477 E14.0467
G1 X104.236 Y102.597 E14.0632
G1 X104.148 Y102.662 E14.0703
G1 X104.062 Y102.749 E14.0783
G1 X103.988 Y102.848 E14.0862
G1 X103.945 Y102.927 E14.0921
G1 X126.148 Y125.130 E16.1223
G1 X126.148 Y126.148 E16.1881
G1 X103.852 Y103.852 E18.2269
G1 X103.852 Y104.870 E18.2927
G1 X126.148 Y127.167 E20.3315
G1 X126.148 Y128.185 E20.3973
G1 X103.852 Y105.889 E22.4361
G1 X103.852 Y106.907 E22.5019
G1 X125.987 Y129.042 E24.5259
G1 X124.969 Y129.042 E24.5918
G1 X103.852 Y107.925 E26.5227
G1 X103.852 Y108.943 E26.5885
G1 X123.951 Y129.042 E28.4263
G1 X122.932 Y129.042 E28.4921
G1 X103.852 Y109.961 E30.2368
G1 X103.852 Y110.980 E30.3027
G1 X121.914 Y129.042 E31.9542
G1 X120.896 Y129.042 E32.0201
G1 X103.852 Y111.998 E33.5786
G1 X103.852 Y113.016 E33.6444
G1 X119.878 Y129.042 E35.1098
G1 X118.859 Y129.042 E35.1756
G1 X103.852 Y114.034 E36.5479
G1 X103.852 Y115.053 E36.6137
G1 X117.841 Y129.042 E37.8929
G1 X116.823 Y129.042 E37.9587
G1 X103.852 Y116.071 E39.1448
G1 X103.852 Y117.089 E39.2106
G1 X115.805 Y129.042 E40.3036
G1 X114.786 Y129.042 E40.3694
G1 X103.852 Y118.107 E41.3693
G1 X103.852 Y119.125 E41.4351
G1 X113.768 Y129.042 E42.3418
G1 X112.750 Y129.042 E42.4077
G1 X103.852 Y120.144 E43.2213
G1 X103.852 Y121.162 E43.2872
G1 X111.732 Y129.042 E44.0077
G1 X110.714 Y129.042 E44.0735
G1 X103.852 Y122.180 E44.7010
G1 X103.852 Y123.198 E44.7668
G1 X109.695 Y129.042 E45.3011
G1 X108.677 Y129.042 E45.3670
G1 X103.852 Y124.216 E45.8082
G1 X103.852 Y125.235 E45.8740
G1 X107.659 Y129.042 E46.2221
G1 X106.641 Y129.042 E46.2880
G1 X103.852 Y126.253 E46.5430
G1 X103.852 Y127.271 E46.6088
G1 X105.622 Y129.042 E46.7707
G1 X104.604 Y129.042 E46.8366
G1 X103.852 Y128.289 E46.9054
G1 X122.101 Y110.901 F2400
G92 E0.0000
G1 X121.781 Y110.581 E0.0292 F2400
G1 X121.065 Y109.894 E0.0934
G1 X120.251 Y109.146 E0.1649
G1 X119.418 Y108.416 E0.2365
G1 X118.633 Y107.757 E0.3028
G1 X117.772 Y107.065 E0.3742
G1 X116.907 Y106.401 E0.4447
G1 X116.081 Y105.795 E0.5109
G1 X115.736 Y105.554 E0.5381
G1 X126.148 Y115.966 E1.4902
G1 X126.148 Y114.948 E1.5560
G1 X123.179 Y111.978 E1.8276
G1 X124.197 Y111.978 E1.8934
G1 X126.148 Y113.930 E2.0719
G1 X126.148 Y112.911 E2.1377
G1 X125.215 Y111.978 E2.2231
G92 E0.0000
G1 E-6.0000 F5200
; layer 2, Z = 0.440
M106 S255
; feature outer perimeter
; tool H0.200 W0.480
G1 Z0.440 F1000
G1 X123.778 Y110.526 F2400
G1 E-1.5000 F5200
G92 E0.0000
G1 X127.600 Y110.526 E0.1373 F3000
G1 X127.600 Y130.494 E0.8546
G1 X102.400 Y130.494 E1.7598
G1 X102.401 Y103.255 E2.7383
G1 X102.421 Y102.988 E2.7478
G1 X102.488 Y102.671 E2.7595
G1 X102.602 Y102.360 E2.7714
G1 X102.760 Y102.066 E2.7834
G1 X102.960 Y101.797 E2.7954
G1 X103.195 Y101.562 E2.8074
G1 X103.459 Y101.364 E2.8192
G1 X103.701 Y101.231 E2.8291
G1 X107.373 Y99.559 E2.9741
G1 X108.218 Y99.630 E3.0045
G1 X108.270 Y99.645 E3.0065
G1 X109.216 Y100.059 E3.0436
G1 X110.418 Y100.653 E3.0917
G1 X111.269 Y101.096 E3.1262
G1 X112.279 Y101.650 E3.1676
G1 X113.111 Y102.130 E3.2021
G1 X114.097 Y102.726 E3.2435
G1 X115.070 Y103.344 E3.2848
G1 X116.027 Y103.984 E3.3262
G1 X116.969 Y104.646 E3.3676
G1 X117.742 Y105.213 E3.4020
G1 X118.655 Y105.912 E3.4433
G1 X119.583 Y106.658 E3.4861
G1 X120.318 Y107.275 E3.5206
G1 X121.215 Y108.060 E3.5634
G1 X122.091 Y108.865 E3.6061
G1 X122.946 Y109.689 E3.6488
G1 X123.778 Y110.526 E3.6911
; feature inner perimeter
G1 X123.578 Y111.006 F2400
G92 E0.0000
G1 X127.120 Y111.006 E0.1272 F4500
G1 X127.120 Y130.014 E0.8100
G1 X102.880 Y130.014 E1.6808
G1 X102.881 Y103.273 E2.6413
G1 X102.898 Y103.056 E2.6491
G1 X102.951 Y102.803 E2.6584
G1 X103.041 Y102.557 E2.6678
G1 X103.166 Y102.324 E2.6773
G1 X103.324 Y102.112 E2.6868
G1 X103.510 Y101.926 E2.6963
G1 X103.721 Y101.768 E2.7057
G1 X103.916 Y101.660 E2.7138
G1 X107.458 Y100.048 E2.8535
G1 X108.120 Y100.103 E2.8774
G1 X109.014 Y100.494 E2.9124
G1 X110.200 Y101.081 E2.9600
G1 X111.042 Y101.519 E2.9941
G1 X112.044 Y102.069 E3.0351
G1 X112.866 Y102.543 E3.0692
G1 X113.845 Y103.134 E3.1103
G1 X114.807 Y103.746 E3.1513
G1 X115.756 Y104.380 E3.1922
G1 X116.689 Y105.036 E3.2332
G1 X117.454 Y105.597 E3.2673
G1 X118.359 Y106.290 E3.3082
G1 X119.278 Y107.029 E3.3506
G1 X120.005 Y107.640 E3.3847
G1 X120.894 Y108.418 E3.4271
G1 X121.762 Y109.215 E3.4695
G1 X122.609 Y110.032 E3.5118
G1 X123.578 Y111.006 E3.5611
; feature solid layer
G1 X126.190 Y129.606 F2400
G92 E0.0000
G1 X126.712 Y129.083 E0.0266 F4800
G1 X126.712 Y128.404 E0.0509
G1 X125.511 Y129.606 E0.1120
G1 X124.832 Y129.606 E0.1364
G1 X126.712 Y127.725 E0.2319
G1 X126.712 Y127.046 E0.2563
G1 X124.153 Y129.606 E0.3863
G1 X123.474 Y129.606 E0.4107
G1 X126.712 Y126.368 E0.5752
G1 X126.712 Y125.689 E0.5996
G1 X122.796 Y129.606 E0.7985
G1 X122.117 Y129.606 E0.8229
G1 X126.712 Y125.010 E1.0564
G1 X126.712 Y124.331 E1.0808
G1 X121.438 Y129.606 E1.3487
G1 X120.759 Y129.606 E1.3731
G1 X126.712 Y123.652 E1.6755
G1 X126.712 Y122.973 E1.6999
G1 X120.080 Y129.606 E2.0368
G1 X119.401 Y129.606 E2.0612
G1 X126.712 Y122.295 E2.4326
G1 X126.712 Y121.616 E2.4570
G1 X118.723 Y129.606 E2.8629
G1 X118.044 Y129.606 E2.8873
G1 X126.712 Y120.937 E3.3276
G1 X126.712 Y120.258 E3.3520
G1 X117.365 Y129.606 E3.8269
G1 X116.686 Y129.606 E3.8513
G1 X126.712 Y119.579 E4.3606
G1 X126.712 Y118.901 E4.3850
G1 X116.007 Y129.606 E4.9288
G1 X115.328 Y129.606 E4.9532
G1 X126.712 Y118.222 E5.5315
G1 X126.712 Y117.543 E5.5559
G1 X114.650 Y129.606 E6.1687
G1 X113.971 Y129.606 E6.1930
G1 X126.712 Y116.864 E6.8403
G1 X126.712 Y116.185 E6.8647
G1 X113.292 Y129.606 E7.5465
G1 X112.613 Y129.606 E7.5708
G1 X126.712 Y115.506 E8.2871
G1 X126.712 Y114.828 E8.3115
G1 X111.934 Y129.606 E9.0622
G1 X111.256 Y129.606 E9.0866
G1 X126.712 Y114.149 E9.8718
G1 X126.712 Y113.470 E9.8962
G1 X110.577 Y129.606 E10.7159
G1 X109.898 Y129.606 E10.7402
G1 X126.712 Y112.791 E11.5944
G1 X126.712 Y112.112 E11.6188
G1 X109.219 Y129.606 E12.5075
G1 X108.540 Y129.606 E12.5318
G1 X126.712 Y111.433 E13.4550
G1 X126.712 Y111.414 E13.4557
G1 X126.053 Y111.414 E13.4794
G1 X107.861 Y129.606 E14.4035
G1 X107.183 Y129.606 E14.4279
G1 X125.374 Y111.414 E15.3520
G1 X124.695 Y111.414 E15.3764
G1 X106.504 Y129.606 E16.3005
G1 X105.825 Y129.606 E16.3249
G1 X124.017 Y111.414 E17.2491
G1 X123.409 Y111.414 E17.2709
G1 X123.373 Y111.379 E17.2727
G1 X105.146 Y129.606 E18.1986
G1 X104.467 Y129.606 E18.2230
G1 X123.035 Y111.038 E19.1662
G1 X122.696 Y110.698 E19.1835
G1 X103.788 Y129.606 E20.1440
G1 X103.288 Y129.606 E20.1620
G1 X103.288 Y129.428 E20.1684
G1 X122.358 Y110.357 E21.1372
G1 X122.323 Y110.323 E21.1389
G1 X122.013 Y110.024 E21.1544
G1 X103.288 Y128.749 E22.1056
G1 X103.288 Y128.070 E22.1300
G1 X121.667 Y109.690 E23.0637
G1 X121.482 Y109.512 E23.0729
G1 X121.318 Y109.361 E23.0810
G1 X103.288 Y127.391 E23.9969
G1 X103.288 Y126.712 E24.0213
G1 X120.964 Y109.036 E24.9192
G1 X120.622 Y108.721 E24.9359
G1 X120.610 Y108.711 E24.9365
G1 X103.288 Y126.033 E25.8164
G1 X103.288 Y125.354 E25.8408
