; generated by Slic3r 1.3.0 on 2024-10-24 at 14:12:21

; external perimeters extrusion width = 0.44mm (3.38mm^3/s)
; perimeters extrusion width = 0.48mm (7.54mm^3/s)
; infill extrusion width = 0.48mm (10.05mm^3/s)
; solid infill extrusion width = 0.48mm (2.51mm^3/s)
; top infill extrusion width = 0.48mm (1.88mm^3/s)

M107
M190 S65 ; set bed temperature and wait for it to be reached
M104 S205 ; set temperature
G28 ; home all axes
G1 Z5 F5000 ; lift nozzle

; Filament gcode

M109 S205 ; set temperature and wait for it to be reached
G21 ; set units to millimeters
G90 ; use absolute coordinates
M82 ; use absolute distances for extrusion
G92 E0
G1 Z0.300 F7800.000
G1 E-2.00000 F2400.00000
G92 E0
G1 X83.173 Y82.000 F7800.000
G1 E2.00000 F2400.00000
G1 F1800
G1 X83.586 Y81.595 E2.03866
G1 X84.147 Y81.127 E2.08745
G1 X84.609 Y80.789 E2.12572
G1 X84.999 Y80.538 E2.15669
G1 X85.491 Y80.265 E2.19427
G1 X85.926 Y80.047 E2.22676
G1 X89.560 Y78.386 E2.49369
G1 X90.541 Y78.029 E2.56345
G1 X92.238 Y77.788 E2.67798
G1 X92.872 Y77.810 E2.72031
G1 X93.820 Y77.889 E2.78392
G1 X94.378 Y77.959 E2.82146
G1 X95.165 Y78.140 E2.87540
G1 X95.980 Y78.435 E2.93329
G1 X97.197 Y78.974 E3.02222
G1 X98.255 Y79.494 E3.10100
G1 X99.388 Y80.081 E3.18626
G1 X100.617 Y80.754 E3.27981
G1 X116.089 Y89.615 E4.47094
G1 X117.838 Y91.074 E4.62311
G1 X118.980 Y93.045 E4.77528
G1 X119.376 Y95.286 E4.92734
G1 X119.376 Y115.734 E6.29335
G1 X118.979 Y117.977 E6.44552
G1 X117.837 Y119.947 E6.59769
G1 X116.087 Y121.406 E6.74986
G1 X112.840 Y122.269 E6.97429
G1 X87.160 Y122.269 E8.68991
G1 X84.917 Y121.872 E8.84208
G1 X82.946 Y120.730 E8.99426
G1 X81.487 Y118.980 E9.14643
G1 X80.624 Y115.734 E9.37086
G1 X80.624 Y88.301 E11.20352
G1 X80.679 Y87.312 E11.26969
G1 X80.792 Y86.585 E11.31882
G1 X80.912 Y86.037 E11.35631
G1 X81.039 Y85.590 E11.38733
G1 X81.317 Y84.827 E11.44159
G1 X81.532 Y84.348 E11.47670
G1 X81.920 Y83.629 E11.53128
G1 X82.315 Y83.034 E11.57899
G1 X82.535 Y82.737 E11.60367
G1 X83.132 Y82.044 E11.66477
G1 E9.66477 F2400.00000
G92 E0
G1 X110.934 Y113.827 F7800.000
G1 E2.00000 F2400.00000
G1 F1800
G1 X89.066 Y113.827 E3.46084
G1 X89.066 Y88.373 E5.16131
G1 X89.079 Y88.202 E5.17278
G1 X89.120 Y88.060 E5.18264
G1 X89.174 Y87.958 E5.19033
G1 X89.272 Y87.841 E5.20054
G1 X89.495 Y87.698 E5.21823
G1 X92.626 Y86.267 E5.44823
G1 X92.855 Y86.283 E5.46353
G1 X93.549 Y86.588 E5.51419
G1 X94.509 Y87.060 E5.58564
G1 X96.424 Y88.082 E5.73068
G1 X98.249 Y89.161 E5.87233
G1 X99.161 Y89.742 E5.94456
G1 X100.960 Y90.974 E6.09021
G1 X102.629 Y92.226 E6.22957
G1 X104.280 Y93.581 E6.37230
G1 X105.106 Y94.305 E6.44570
G1 X105.922 Y95.055 E6.51970
G1 X106.648 Y95.751 E6.58686
G1 X108.086 Y97.193 E6.72294
G1 X110.934 Y97.193 E6.91316
G1 X110.934 Y113.767 E8.02038
G1 X111.469 Y114.362 F7800.000
G1 F1800
G1 X88.531 Y114.362 E9.55279
G1 X88.531 Y88.353 E11.29039
G1 X88.548 Y88.125 E11.30562
G1 X88.629 Y87.842 E11.32529
G1 X88.720 Y87.671 E11.33824
G1 X88.920 Y87.436 E11.35889
G1 X89.092 Y87.307 E11.37320
G1 X89.256 Y87.219 E11.38567
G1 X92.528 Y85.722 E11.62603
G1 X92.985 Y85.755 E11.65665
G1 X93.775 Y86.102 E11.71426
G1 X94.751 Y86.581 E11.78689
G1 X96.690 Y87.617 E11.93372
G1 X98.529 Y88.705 E12.07652
G1 X99.454 Y89.293 E12.14974
G1 X101.273 Y90.539 E12.29700
G1 X102.962 Y91.806 E12.43808
G1 X104.627 Y93.173 E12.58197
G1 X105.464 Y93.907 E12.65637
G1 X106.289 Y94.664 E12.73117
G1 X107.023 Y95.368 E12.79912
G1 X108.309 Y96.657 E12.92074
G1 X111.469 Y96.657 E13.13189
G1 X111.469 Y114.302 E14.31068
G1 X112.005 Y114.898 F7800.000
G1 F1800
G1 X87.995 Y114.898 E15.91465
G1 X87.995 Y88.332 E17.68939
G1 X88.017 Y88.049 E17.70838
G1 X88.062 Y87.835 E17.72301
G1 X88.138 Y87.625 E17.73792
G1 X88.266 Y87.384 E17.75612
G1 X88.413 Y87.187 E17.77255
G1 X88.568 Y87.030 E17.78731
G1 X88.802 Y86.855 E17.80684
G1 X89.017 Y86.739 E17.82312
G1 X92.430 Y85.178 E18.07385
G1 X93.116 Y85.228 E18.11979
G1 X94.001 Y85.616 E18.18435
G1 X94.992 Y86.103 E18.25815
G1 X96.955 Y87.151 E18.40676
G1 X98.810 Y88.248 E18.55074
G1 X99.747 Y88.845 E18.62494
G1 X101.585 Y90.103 E18.77380
G1 X103.295 Y91.387 E18.91661
G1 X104.973 Y92.764 E19.06166
G1 X105.822 Y93.508 E19.13706
G1 X106.655 Y94.274 E19.21266
G1 X107.398 Y94.986 E19.28139
G1 X108.531 Y96.122 E19.38856
G1 X112.005 Y96.122 E19.62064
G1 X112.005 Y114.838 E20.87100
G1 X112.540 Y115.434 F7800.000
G1 F1800
G1 X87.460 Y115.434 E22.54654
G1 X87.460 Y88.312 E24.35840
G1 X87.485 Y87.973 E24.38115
G1 X87.546 Y87.687 E24.40064
G1 X87.647 Y87.407 E24.42053
G1 X87.812 Y87.097 E24.44399
G1 X88.006 Y86.836 E24.46570
G1 X88.216 Y86.625 E24.48564
G1 X88.513 Y86.403 E24.51040
G1 X88.777 Y86.259 E24.53049
G1 X92.332 Y84.634 E24.79159
G1 X93.247 Y84.700 E24.85286
G1 X94.227 Y85.130 E24.92437
G1 X95.234 Y85.625 E24.99934
G1 X96.233 Y86.145 E25.07457
G1 X97.220 Y86.686 E25.14974
G1 X99.090 Y87.792 E25.29488
G1 X100.039 Y88.396 E25.37006
G1 X100.976 Y89.022 E25.44532
G1 X101.898 Y89.668 E25.52054
G1 X103.628 Y90.967 E25.66508
G1 X105.320 Y92.356 E25.81129
G1 X106.180 Y93.109 E25.88768
G1 X107.022 Y93.883 E25.96408
G1 X107.773 Y94.603 E26.03360
G1 X108.753 Y95.586 E26.12632
G1 X112.540 Y95.586 E26.37933
G1 X112.540 Y115.374 E27.70125
G1 X112.182 Y115.256 F7800.000
G1 E25.70125 F2400.00000
G92 E0
G1 X110.190 Y113.500 F7800.000
G1 E2.00000 F2400.00000
G1 F1800
G1 X110.606 Y113.083 E2.03969
G1 X110.606 Y112.319 E2.09109
G1 X109.426 Y113.500 E2.20348
G1 X108.663 Y113.500 E2.25489
G1 X110.606 Y111.556 E2.43999
G1 X110.606 Y110.792 E2.49139
G1 X107.899 Y113.500 E2.74919
G1 X107.136 Y113.500 E2.80060
G1 X110.606 Y110.029 E3.13110
G1 X110.606 Y109.265 E3.18251
G1 X106.372 Y113.500 E3.58571
G1 X105.609 Y113.500 E3.63712
G1 X110.606 Y108.502 E4.11302
G1 X110.606 Y107.738 E4.16443
G1 X104.845 Y113.500 E4.71304
G1 X104.082 Y113.500 E4.76445
G1 X110.606 Y106.975 E5.38576
G1 X110.606 Y106.211 E5.43717
G1 X103.318 Y113.500 E6.13119
G1 X102.555 Y113.500 E6.18260
G1 X110.606 Y105.448 E6.94931
G1 X110.606 Y104.684 E7.00072
G1 X101.791 Y113.500 E7.84015
G1 X101.028 Y113.500 E7.89155
G1 X110.606 Y103.921 E8.80368
G1 X110.606 Y103.158 E8.85509
G1 X100.264 Y113.500 E9.83992
G1 X99.501 Y113.500 E9.89133
G1 X110.606 Y102.394 E10.94886
G1 X110.606 Y101.631 E11.00027
G1 X98.737 Y113.500 E12.13050
G1 X97.974 Y113.500 E12.18191
G1 X110.606 Y100.867 E13.38485
G1 X110.606 Y100.104 E13.43626
G1 X97.210 Y113.500 E14.71190
G1 X96.447 Y113.500 E14.76331
G1 X110.606 Y99.340 E16.11165
G1 X110.606 Y98.577 E16.16306
G1 X95.683 Y113.500 E17.58411
G1 X94.920 Y113.500 E17.63552
G1 X110.606 Y97.813 E19.12927
G1 X110.606 Y97.520 E19.14899
G1 X110.136 Y97.520 E19.18068
G1 X94.156 Y113.500 E20.70232
G1 X93.393 Y113.500 E20.75373
G1 X109.372 Y97.520 E22.27538
G1 X108.609 Y97.520 E22.32679
G1 X92.629 Y113.500 E23.84843
G1 X91.866 Y113.500 E23.89984
G1 X107.959 Y97.407 E25.43231
G1 X107.578 Y97.024 E25.46866
G1 X91.102 Y113.500 E27.03753
G1 X90.339 Y113.500 E27.08894
G1 X107.197 Y96.642 E28.69422
G1 X106.815 Y96.260 E28.73057
G1 X89.575 Y113.500 E30.37225
G1 X89.394 Y113.500 E30.38449
G1 X89.394 Y112.918 E30.42366
G1 X106.433 Y95.878 E32.04624
G1 X106.043 Y95.505 E32.08260
G1 X89.394 Y112.154 E33.66808
G1 X89.394 Y111.391 E33.71949
G1 X105.651 Y95.133 E35.26762
G1 X105.253 Y94.768 E35.30401
G1 X89.394 Y110.627 E36.81424
G1 X89.394 Y109.864 E36.86565
G1 X104.853 Y94.405 E38.33777
G1 X104.446 Y94.048 E38.37420
G1 X89.394 Y109.100 E39.80759
G1 X89.394 Y108.337 E39.85899
G1 X104.036 Y93.694 E41.25334
G1 X103.617 Y93.350 E41.28987
G1 X89.394 Y107.573 E42.64428
G1 X89.394 Y106.810 E42.69568
G1 X103.198 Y93.006 E44.01016
G1 X102.778 Y92.662 E44.04669
G1 X89.394 Y106.046 E45.32123
G1 X89.394 Y105.283 E45.37264
G1 X102.353 Y92.324 E46.60669
G1 X101.917 Y91.996 E46.64341
G1 X89.394 Y104.520 E47.83593
G1 X89.394 Y103.756 E47.88734
G1 X101.481 Y91.669 E49.03833
G1 X101.045 Y91.342 E49.07505
G1 X89.394 Y102.993 E50.18450
G1 X89.394 Y102.229 E50.23591
G1 X100.599 Y91.024 E51.30291
G1 X100.145 Y90.714 E51.33989
G1 X89.394 Y101.466 E52.36374
G1 X89.394 Y100.702 E52.41515
G1 X99.692 Y90.404 E53.39583
G1 X99.239 Y90.093 E53.43282
G1 X89.394 Y99.939 E54.37035
G1 X89.394 Y99.175 E54.42175
G1 X98.777 Y89.792 E55.31532
G1 X98.311 Y89.495 E55.35256
G1 X89.394 Y98.412 E56.20169
G1 X89.394 Y97.648 E56.25310
G1 X97.835 Y89.207 E57.05691
G1 X97.355 Y88.923 E57.09444
G1 X89.394 Y96.885 E57.85257
G1 X89.394 Y96.121 E57.90397
G1 X96.875 Y88.640 E58.61642
G1 X96.396 Y88.356 E58.65395
G1 X89.394 Y95.358 E59.32071
G1 X89.394 Y94.594 E59.37212
G1 X95.899 Y88.089 E59.99158
G1 X95.401 Y87.823 E60.02957
G1 X89.394 Y93.831 E60.60163
G1 X89.394 Y93.067 E60.65304
G1 X94.903 Y87.558 E61.17770
G1 X94.404 Y87.294 E61.21574
G1 X89.394 Y92.304 E61.69282
G1 X89.394 Y91.540 E61.74423
G1 X93.892 Y87.042 E62.17256
G1 X93.374 Y86.796 E62.21114
G1 X89.394 Y90.777 E62.59020
G1 X89.394 Y90.013 E62.64161
G1 X92.697 Y86.710 E62.95616
G1 X91.290 Y87.353 E63.06030
G1 X89.394 Y89.250 E63.24091
G1 X89.406 Y88.487 E63.29232
G1 X89.845 Y88.036 E63.33466
M104 S200 ; set temperature
M140 S60 ; set bed temperature
G1 Z0.600 F7800.000
G1 X111.385 Y114.279 F7800.000
G1 F3600
G1 X88.615 Y114.279 E64.52432
G1 X88.615 Y88.364 E65.87822
G1 X88.638 Y88.101 E65.89204
G1 X88.692 Y87.912 E65.90230
G1 X88.790 Y87.721 E65.91349
G1 X88.987 Y87.487 E65.92950
G1 X89.117 Y87.390 E65.93795
G1 X89.295 Y87.293 E65.94858
G1 X92.598 Y85.782 E66.13834
G1 X92.893 Y85.807 E66.15376
G1 X93.900 Y86.256 E66.21137
G1 X95.707 Y87.173 E66.31723
G1 X96.692 Y87.714 E66.37597
G1 X98.450 Y88.754 E66.48266
G1 X99.404 Y89.361 E66.54177
G1 X100.350 Y89.993 E66.60119
G1 X101.279 Y90.647 E66.66056
G1 X102.892 Y91.858 E66.76596
G1 X104.511 Y93.184 E66.87527
G1 X105.400 Y93.962 E66.93700
G1 X106.268 Y94.760 E66.99859
G1 X108.282 Y96.741 E67.14617
G1 X111.385 Y96.741 E67.30831
G1 X111.385 Y114.219 E68.22143
G1 X111.804 Y114.698 F7800.000
G1 F3600
G1 X88.196 Y114.698 E69.45486
G1 X88.196 Y88.346 E70.83160
G1 X88.223 Y88.037 E70.84778
G1 X88.306 Y87.745 E70.86364
G1 X88.435 Y87.495 E70.87833
G1 X88.607 Y87.273 E70.89305
G1 X88.714 Y87.168 E70.90084
G1 X88.890 Y87.037 E70.91232
G1 X89.108 Y86.918 E70.92528
G1 X92.524 Y85.356 E71.12154
G1 X93.020 Y85.405 E71.14760
G1 X94.080 Y85.878 E71.20821
G1 X95.902 Y86.803 E71.31498
G1 X96.900 Y87.350 E71.37443
G1 X98.669 Y88.397 E71.48182
G1 X99.633 Y89.010 E71.54153
G1 X100.587 Y89.648 E71.60145
G1 X101.524 Y90.307 E71.66134
G1 X103.153 Y91.530 E71.76774
G1 X104.782 Y92.865 E71.87776
G1 X105.680 Y93.650 E71.94012
G1 X106.557 Y94.457 E72.00234
G1 X108.453 Y96.322 E72.14133
G1 X111.804 Y96.322 E72.31640
G1 X111.804 Y114.638 E73.27328
G1 X112.223 Y115.116 F7800.000
G1 F3600
G1 X87.777 Y115.116 E74.55048
G1 X87.777 Y88.328 E75.95006
G1 X87.808 Y87.974 E75.96862
G1 X87.852 Y87.774 E75.97928
G1 X87.921 Y87.579 E75.99011
G1 X88.080 Y87.269 E76.00831
G1 X88.294 Y86.994 E76.02653
G1 X88.441 Y86.849 E76.03728
G1 X88.663 Y86.683 E76.05179
G1 X88.920 Y86.543 E76.06708
G1 X92.449 Y84.929 E76.26983
G1 X93.033 Y84.978 E76.30042
G1 X93.155 Y85.007 E76.30697
G1 X94.260 Y85.500 E76.37019
G1 X96.098 Y86.432 E76.47787
G1 X97.107 Y86.986 E76.53802
G1 X98.888 Y88.040 E76.64611
G1 X99.862 Y88.659 E76.70643
G1 X100.824 Y89.302 E76.76686
G1 X101.769 Y89.967 E76.82726
G1 X103.413 Y91.202 E76.93467
G1 X105.052 Y92.545 E77.04538
G1 X105.960 Y93.338 E77.10837
G1 X106.846 Y94.153 E77.17124
G1 X108.625 Y95.903 E77.30163
G1 X112.223 Y95.903 E77.48962
G1 X112.223 Y115.056 E78.49028
G1 X112.620 Y115.514 F7800.000
G1 F1800
G1 X87.380 Y115.514 E79.67279
G1 X87.380 Y88.310 E80.94724
G1 X87.414 Y87.914 E80.96590
G1 X87.469 Y87.665 E80.97782
G1 X87.555 Y87.421 E80.98994
G1 X87.744 Y87.055 E81.00923
G1 X87.996 Y86.729 E81.02855
G1 X88.181 Y86.547 E81.04071
G1 X88.448 Y86.348 E81.05630
G1 X88.742 Y86.188 E81.07199
G1 X92.338 Y84.543 E81.25725
G1 X92.440 Y84.530 E81.26206
G1 X93.095 Y84.585 E81.29286
G1 X93.282 Y84.629 E81.30186
G1 X94.431 Y85.141 E81.36078
G1 X96.284 Y86.081 E81.45811
G1 X97.304 Y86.641 E81.51265
G1 X99.095 Y87.701 E81.61017
G1 X100.079 Y88.326 E81.66477
G1 X101.048 Y88.975 E81.71940
G1 X102.002 Y89.645 E81.77399
G1 X102.939 Y90.337 E81.82856
G1 X103.660 Y90.891 E81.87117
G1 X105.309 Y92.242 E81.97104
G1 X106.225 Y93.043 E82.02806
G1 X107.119 Y93.865 E82.08498
G1 X108.788 Y95.506 E82.19460
G1 X112.620 Y95.506 E82.37417
G1 X112.620 Y115.454 E83.30870
G1 X112.262 Y115.336 F7800.000
G1 X111.129 Y97.323 F7800.000
G1 F1200
G1 X110.804 Y96.997 E83.33286
G1 X110.209 Y96.997 E83.36401
G1 X111.129 Y97.917 E83.43224
G1 X111.129 Y98.512 E83.46339
G1 X109.615 Y96.997 E83.57567
G1 X109.020 Y96.997 E83.60683
G1 X111.129 Y99.106 E83.76317
G1 X111.129 Y99.700 E83.79432
G1 X108.426 Y96.997 E83.99472
G1 X107.948 Y96.997 E84.01980
G1 X105.817 Y94.901 E84.17649
G1 X104.862 Y94.028 E84.24430
G1 X111.129 Y100.295 E84.70889
G1 X111.129 Y100.889 E84.74004
G1 X101.645 Y91.405 E85.44310
G1 X100.870 Y90.823 E85.49391
G1 X99.563 Y89.917 E85.57728
G1 X111.129 Y101.483 E86.43470
G1 X111.129 Y102.078 E86.46585
G1 X97.902 Y88.850 E87.44642
G1 X96.447 Y87.989 E87.53505
G1 X111.129 Y102.672 E88.62349
G1 X111.129 Y103.266 E88.65464
G1 X95.136 Y87.273 E89.84026
G1 X93.929 Y86.661 E89.91118
G1 X111.129 Y103.861 E91.18624
G1 X111.129 Y104.455 E91.21739
G1 X92.815 Y86.141 E92.57503
G1 X92.624 Y86.056 E92.58601
G1 X92.510 Y86.046 E92.59200
G1 X92.246 Y86.167 E92.60719
G1 X111.129 Y105.050 E94.00698
G1 X111.129 Y105.644 E94.03814
G1 X91.839 Y86.353 E95.46817
G1 X91.431 Y86.539 E95.49168
G1 X111.129 Y106.238 E96.95194
G1 X111.129 Y106.833 E96.98310
G1 X91.023 Y86.726 E98.47360
G1 X90.615 Y86.912 E98.49710
G1 X111.129 Y107.427 E100.01784
G1 X111.129 Y108.021 E100.04900
G1 X90.207 Y87.099 E101.59997
G1 X89.799 Y87.285 E101.62347
G1 X111.129 Y108.616 E103.20468
G1 X111.129 Y109.210 E103.23583
G1 X89.391 Y87.472 E104.84728
G1 X89.190 Y87.576 E104.85918
G1 X89.037 Y87.712 E104.86989
G1 X111.129 Y109.804 E106.50757
G1 X111.129 Y110.399 E106.53873
G1 X88.877 Y88.146 E108.18831
G1 X88.871 Y88.734 E108.21913
G1 X111.129 Y110.993 E109.86918
G1 X111.129 Y111.587 E109.90034
G1 X88.871 Y89.328 E111.55039
G1 X88.871 Y89.923 E111.58155
G1 X111.129 Y112.182 E113.23160
G1 X111.129 Y112.776 E113.26276
G1 X88.871 Y90.517 E114.91281
G1 X88.871 Y91.111 E114.94396
G1 X111.129 Y113.370 E116.59402
G1 X111.129 Y113.965 E116.62517
G1 X88.871 Y91.706 E118.27523
G1 X88.871 Y92.300 E118.30638
G1 X110.593 Y114.023 E119.91668
G1 X109.999 Y114.023 E119.94783
G1 X88.871 Y92.895 E121.51406
G1 X88.871 Y93.489 E121.54522
G1 X109.404 Y114.023 E123.06739
G1 X108.810 Y114.023 E123.09855
G1 X88.871 Y94.083 E124.57666
G1 X88.871 Y94.678 E124.60782
G1 X108.216 Y114.023 E126.04188
G1 X107.621 Y114.023 E126.07303
G1 X88.871 Y95.272 E127.46303
G1 X88.871 Y95.866 E127.49418
G1 X107.027 Y114.023 E128.84012
G1 X106.433 Y114.023 E128.87128
G1 X88.871 Y96.461 E130.17316
G1 X88.871 Y97.055 E130.20431
G1 X105.838 Y114.023 E131.46213
G1 X105.244 Y114.023 E131.49329
G1 X88.871 Y97.649 E132.70705
G1 X88.871 Y98.244 E132.73820
G1 X104.650 Y114.023 E133.90791
G1 X104.055 Y114.023 E133.93906
G1 X88.871 Y98.838 E135.06470
G1 X88.871 Y99.432 E135.09586
G1 X103.461 Y114.023 E136.17744
G1 X102.867 Y114.023 E136.20860
G1 X88.871 Y100.027 E137.24612
G1 X88.871 Y100.621 E137.27728
G1 X102.272 Y114.023 E138.27074
G1 X101.678 Y114.023 E138.30190
G1 X88.871 Y101.215 E139.25131
G1 X88.871 Y101.810 E139.28246
G1 X101.084 Y114.023 E140.18781
G1 X100.489 Y114.023 E140.21896
G1 X88.871 Y102.404 E141.08025
G1 X88.871 Y102.998 E141.11141
G1 X99.895 Y114.023 E141.92864
